(G-CODE GENERATED BY FLATCAM v8.994 - www.flatcam.org - Version Date: 2020/11/7)

(Name: night-light.drl_mill_cnc)
(Type: G-code from Geometry)
(Units: MM)

(Created on Friday, 03 June 2022 at 21:00)

(This preprocessor is used with a motion controller loaded with GRBL firmware.)
(It is configured to be compatible with almost any version of GRBL firmware.)

(TOOL DIAMETER: 1.0 mm)
(Feedrate_XY: 25.0 mm/min)
(Feedrate_Z: 30.0 mm/min)
(Feedrate rapids 1500.0 mm/min)

(Z_Cut: -1.8 mm)
(DepthPerCut: 0.3 mm <=>6 passes)
(Z_Move: 2.0 mm)
(Z Start: None mm)
(Z End: 15.0 mm)
(X,Y End: 0.0000, 0.0000 mm)
(Steps per circle: 64)
(Steps per circle: 64)
(Preprocessor Geometry: grbl_11)

(X range:    8.4840 ...   51.4840  mm)
(Y range:  -50.4640 ...  -16.0820  mm)

(Spindle Speed: 12000.0 RPM)
G21
G90
G17
G94


G01 F25.00

M5
G00 Z2.0000             
G00 X0.0000 Y0.0000                

M03 S12000.0
G01 F25.00
G00 X9.4840 Y-16.5820
G01 F30.00
G01 Z-0.3000
G01 F25.00
G01 X9.4816 Y-16.6310 F25.00
G01 X9.4744 Y-16.6795 F25.00
G01 X9.4625 Y-16.7271 F25.00
G01 X9.4459 Y-16.7733 F25.00
G01 X9.4250 Y-16.8177 F25.00
G01 X9.3997 Y-16.8598 F25.00
G01 X9.3705 Y-16.8992 F25.00
G01 X9.3376 Y-16.9356 F25.00
G01 X9.3012 Y-16.9685 F25.00
G01 X9.2618 Y-16.9977 F25.00
G01 X9.2197 Y-17.0230 F25.00
G01 X9.1753 Y-17.0439 F25.00
G01 X9.1291 Y-17.0605 F25.00
G01 X9.0815 Y-17.0724 F25.00
G01 X9.0330 Y-17.0796 F25.00
G01 X8.9840 Y-17.0820 F25.00
G01 X8.9350 Y-17.0796 F25.00
G01 X8.8865 Y-17.0724 F25.00
G01 X8.8389 Y-17.0605 F25.00
G01 X8.7927 Y-17.0439 F25.00
G01 X8.7483 Y-17.0230 F25.00
G01 X8.7062 Y-16.9977 F25.00
G01 X8.6668 Y-16.9685 F25.00
G01 X8.6304 Y-16.9356 F25.00
G01 X8.5975 Y-16.8992 F25.00
G01 X8.5683 Y-16.8598 F25.00
G01 X8.5430 Y-16.8177 F25.00
G01 X8.5221 Y-16.7733 F25.00
G01 X8.5055 Y-16.7271 F25.00
G01 X8.4936 Y-16.6795 F25.00
G01 X8.4864 Y-16.6310 F25.00
G01 X8.4840 Y-16.5820 F25.00
G01 X8.4864 Y-16.5330 F25.00
G01 X8.4936 Y-16.4845 F25.00
G01 X8.5055 Y-16.4369 F25.00
G01 X8.5221 Y-16.3907 F25.00
G01 X8.5430 Y-16.3463 F25.00
G01 X8.5683 Y-16.3042 F25.00
G01 X8.5975 Y-16.2648 F25.00
G01 X8.6304 Y-16.2284 F25.00
G01 X8.6668 Y-16.1955 F25.00
G01 X8.7062 Y-16.1663 F25.00
G01 X8.7483 Y-16.1410 F25.00
G01 X8.7927 Y-16.1201 F25.00
G01 X8.8389 Y-16.1035 F25.00
G01 X8.8865 Y-16.0916 F25.00
G01 X8.9350 Y-16.0844 F25.00
G01 X8.9840 Y-16.0820 F25.00
G01 X9.0330 Y-16.0844 F25.00
G01 X9.0815 Y-16.0916 F25.00
G01 X9.1291 Y-16.1035 F25.00
G01 X9.1753 Y-16.1201 F25.00
G01 X9.2197 Y-16.1410 F25.00
G01 X9.2618 Y-16.1663 F25.00
G01 X9.3012 Y-16.1955 F25.00
G01 X9.3376 Y-16.2284 F25.00
G01 X9.3705 Y-16.2648 F25.00
G01 X9.3997 Y-16.3042 F25.00
G01 X9.4250 Y-16.3463 F25.00
G01 X9.4459 Y-16.3907 F25.00
G01 X9.4625 Y-16.4369 F25.00
G01 X9.4744 Y-16.4845 F25.00
G01 X9.4816 Y-16.5330 F25.00
G01 X9.4840 Y-16.5820 F25.00
G00 X9.4840 Y-16.5820
G01 F30.00
G01 Z-0.6000
G01 F25.00
G01 X9.4816 Y-16.6310 F25.00
G01 X9.4744 Y-16.6795 F25.00
G01 X9.4625 Y-16.7271 F25.00
G01 X9.4459 Y-16.7733 F25.00
G01 X9.4250 Y-16.8177 F25.00
G01 X9.3997 Y-16.8598 F25.00
G01 X9.3705 Y-16.8992 F25.00
G01 X9.3376 Y-16.9356 F25.00
G01 X9.3012 Y-16.9685 F25.00
G01 X9.2618 Y-16.9977 F25.00
G01 X9.2197 Y-17.0230 F25.00
G01 X9.1753 Y-17.0439 F25.00
G01 X9.1291 Y-17.0605 F25.00
G01 X9.0815 Y-17.0724 F25.00
G01 X9.0330 Y-17.0796 F25.00
G01 X8.9840 Y-17.0820 F25.00
G01 X8.9350 Y-17.0796 F25.00
G01 X8.8865 Y-17.0724 F25.00
G01 X8.8389 Y-17.0605 F25.00
G01 X8.7927 Y-17.0439 F25.00
G01 X8.7483 Y-17.0230 F25.00
G01 X8.7062 Y-16.9977 F25.00
G01 X8.6668 Y-16.9685 F25.00
G01 X8.6304 Y-16.9356 F25.00
G01 X8.5975 Y-16.8992 F25.00
G01 X8.5683 Y-16.8598 F25.00
G01 X8.5430 Y-16.8177 F25.00
G01 X8.5221 Y-16.7733 F25.00
G01 X8.5055 Y-16.7271 F25.00
G01 X8.4936 Y-16.6795 F25.00
G01 X8.4864 Y-16.6310 F25.00
G01 X8.4840 Y-16.5820 F25.00
G01 X8.4864 Y-16.5330 F25.00
G01 X8.4936 Y-16.4845 F25.00
G01 X8.5055 Y-16.4369 F25.00
G01 X8.5221 Y-16.3907 F25.00
G01 X8.5430 Y-16.3463 F25.00
G01 X8.5683 Y-16.3042 F25.00
G01 X8.5975 Y-16.2648 F25.00
G01 X8.6304 Y-16.2284 F25.00
G01 X8.6668 Y-16.1955 F25.00
G01 X8.7062 Y-16.1663 F25.00
G01 X8.7483 Y-16.1410 F25.00
G01 X8.7927 Y-16.1201 F25.00
G01 X8.8389 Y-16.1035 F25.00
G01 X8.8865 Y-16.0916 F25.00
G01 X8.9350 Y-16.0844 F25.00
G01 X8.9840 Y-16.0820 F25.00
G01 X9.0330 Y-16.0844 F25.00
G01 X9.0815 Y-16.0916 F25.00
G01 X9.1291 Y-16.1035 F25.00
G01 X9.1753 Y-16.1201 F25.00
G01 X9.2197 Y-16.1410 F25.00
G01 X9.2618 Y-16.1663 F25.00
G01 X9.3012 Y-16.1955 F25.00
G01 X9.3376 Y-16.2284 F25.00
G01 X9.3705 Y-16.2648 F25.00
G01 X9.3997 Y-16.3042 F25.00
G01 X9.4250 Y-16.3463 F25.00
G01 X9.4459 Y-16.3907 F25.00
G01 X9.4625 Y-16.4369 F25.00
G01 X9.4744 Y-16.4845 F25.00
G01 X9.4816 Y-16.5330 F25.00
G01 X9.4840 Y-16.5820 F25.00
G00 X9.4840 Y-16.5820
G01 F30.00
G01 Z-0.9000
G01 F25.00
G01 X9.4816 Y-16.6310 F25.00
G01 X9.4744 Y-16.6795 F25.00
G01 X9.4625 Y-16.7271 F25.00
G01 X9.4459 Y-16.7733 F25.00
G01 X9.4250 Y-16.8177 F25.00
G01 X9.3997 Y-16.8598 F25.00
G01 X9.3705 Y-16.8992 F25.00
G01 X9.3376 Y-16.9356 F25.00
G01 X9.3012 Y-16.9685 F25.00
G01 X9.2618 Y-16.9977 F25.00
G01 X9.2197 Y-17.0230 F25.00
G01 X9.1753 Y-17.0439 F25.00
G01 X9.1291 Y-17.0605 F25.00
G01 X9.0815 Y-17.0724 F25.00
G01 X9.0330 Y-17.0796 F25.00
G01 X8.9840 Y-17.0820 F25.00
G01 X8.9350 Y-17.0796 F25.00
G01 X8.8865 Y-17.0724 F25.00
G01 X8.8389 Y-17.0605 F25.00
G01 X8.7927 Y-17.0439 F25.00
G01 X8.7483 Y-17.0230 F25.00
G01 X8.7062 Y-16.9977 F25.00
G01 X8.6668 Y-16.9685 F25.00
G01 X8.6304 Y-16.9356 F25.00
G01 X8.5975 Y-16.8992 F25.00
G01 X8.5683 Y-16.8598 F25.00
G01 X8.5430 Y-16.8177 F25.00
G01 X8.5221 Y-16.7733 F25.00
G01 X8.5055 Y-16.7271 F25.00
G01 X8.4936 Y-16.6795 F25.00
G01 X8.4864 Y-16.6310 F25.00
G01 X8.4840 Y-16.5820 F25.00
G01 X8.4864 Y-16.5330 F25.00
G01 X8.4936 Y-16.4845 F25.00
G01 X8.5055 Y-16.4369 F25.00
G01 X8.5221 Y-16.3907 F25.00
G01 X8.5430 Y-16.3463 F25.00
G01 X8.5683 Y-16.3042 F25.00
G01 X8.5975 Y-16.2648 F25.00
G01 X8.6304 Y-16.2284 F25.00
G01 X8.6668 Y-16.1955 F25.00
G01 X8.7062 Y-16.1663 F25.00
G01 X8.7483 Y-16.1410 F25.00
G01 X8.7927 Y-16.1201 F25.00
G01 X8.8389 Y-16.1035 F25.00
G01 X8.8865 Y-16.0916 F25.00
G01 X8.9350 Y-16.0844 F25.00
G01 X8.9840 Y-16.0820 F25.00
G01 X9.0330 Y-16.0844 F25.00
G01 X9.0815 Y-16.0916 F25.00
G01 X9.1291 Y-16.1035 F25.00
G01 X9.1753 Y-16.1201 F25.00
G01 X9.2197 Y-16.1410 F25.00
G01 X9.2618 Y-16.1663 F25.00
G01 X9.3012 Y-16.1955 F25.00
G01 X9.3376 Y-16.2284 F25.00
G01 X9.3705 Y-16.2648 F25.00
G01 X9.3997 Y-16.3042 F25.00
G01 X9.4250 Y-16.3463 F25.00
G01 X9.4459 Y-16.3907 F25.00
G01 X9.4625 Y-16.4369 F25.00
G01 X9.4744 Y-16.4845 F25.00
G01 X9.4816 Y-16.5330 F25.00
G01 X9.4840 Y-16.5820 F25.00
G00 X9.4840 Y-16.5820
G01 F30.00
G01 Z-1.2000
G01 F25.00
G01 X9.4816 Y-16.6310 F25.00
G01 X9.4744 Y-16.6795 F25.00
G01 X9.4625 Y-16.7271 F25.00
G01 X9.4459 Y-16.7733 F25.00
G01 X9.4250 Y-16.8177 F25.00
G01 X9.3997 Y-16.8598 F25.00
G01 X9.3705 Y-16.8992 F25.00
G01 X9.3376 Y-16.9356 F25.00
G01 X9.3012 Y-16.9685 F25.00
G01 X9.2618 Y-16.9977 F25.00
G01 X9.2197 Y-17.0230 F25.00
G01 X9.1753 Y-17.0439 F25.00
G01 X9.1291 Y-17.0605 F25.00
G01 X9.0815 Y-17.0724 F25.00
G01 X9.0330 Y-17.0796 F25.00
G01 X8.9840 Y-17.0820 F25.00
G01 X8.9350 Y-17.0796 F25.00
G01 X8.8865 Y-17.0724 F25.00
G01 X8.8389 Y-17.0605 F25.00
G01 X8.7927 Y-17.0439 F25.00
G01 X8.7483 Y-17.0230 F25.00
G01 X8.7062 Y-16.9977 F25.00
G01 X8.6668 Y-16.9685 F25.00
G01 X8.6304 Y-16.9356 F25.00
G01 X8.5975 Y-16.8992 F25.00
G01 X8.5683 Y-16.8598 F25.00
G01 X8.5430 Y-16.8177 F25.00
G01 X8.5221 Y-16.7733 F25.00
G01 X8.5055 Y-16.7271 F25.00
G01 X8.4936 Y-16.6795 F25.00
G01 X8.4864 Y-16.6310 F25.00
G01 X8.4840 Y-16.5820 F25.00
G01 X8.4864 Y-16.5330 F25.00
G01 X8.4936 Y-16.4845 F25.00
G01 X8.5055 Y-16.4369 F25.00
G01 X8.5221 Y-16.3907 F25.00
G01 X8.5430 Y-16.3463 F25.00
G01 X8.5683 Y-16.3042 F25.00
G01 X8.5975 Y-16.2648 F25.00
G01 X8.6304 Y-16.2284 F25.00
G01 X8.6668 Y-16.1955 F25.00
G01 X8.7062 Y-16.1663 F25.00
G01 X8.7483 Y-16.1410 F25.00
G01 X8.7927 Y-16.1201 F25.00
G01 X8.8389 Y-16.1035 F25.00
G01 X8.8865 Y-16.0916 F25.00
G01 X8.9350 Y-16.0844 F25.00
G01 X8.9840 Y-16.0820 F25.00
G01 X9.0330 Y-16.0844 F25.00
G01 X9.0815 Y-16.0916 F25.00
G01 X9.1291 Y-16.1035 F25.00
G01 X9.1753 Y-16.1201 F25.00
G01 X9.2197 Y-16.1410 F25.00
G01 X9.2618 Y-16.1663 F25.00
G01 X9.3012 Y-16.1955 F25.00
G01 X9.3376 Y-16.2284 F25.00
G01 X9.3705 Y-16.2648 F25.00
G01 X9.3997 Y-16.3042 F25.00
G01 X9.4250 Y-16.3463 F25.00
G01 X9.4459 Y-16.3907 F25.00
G01 X9.4625 Y-16.4369 F25.00
G01 X9.4744 Y-16.4845 F25.00
G01 X9.4816 Y-16.5330 F25.00
G01 X9.4840 Y-16.5820 F25.00
G00 X9.4840 Y-16.5820
G01 F30.00
G01 Z-1.5000
G01 F25.00
G01 X9.4816 Y-16.6310 F25.00
G01 X9.4744 Y-16.6795 F25.00
G01 X9.4625 Y-16.7271 F25.00
G01 X9.4459 Y-16.7733 F25.00
G01 X9.4250 Y-16.8177 F25.00
G01 X9.3997 Y-16.8598 F25.00
G01 X9.3705 Y-16.8992 F25.00
G01 X9.3376 Y-16.9356 F25.00
G01 X9.3012 Y-16.9685 F25.00
G01 X9.2618 Y-16.9977 F25.00
G01 X9.2197 Y-17.0230 F25.00
G01 X9.1753 Y-17.0439 F25.00
G01 X9.1291 Y-17.0605 F25.00
G01 X9.0815 Y-17.0724 F25.00
G01 X9.0330 Y-17.0796 F25.00
G01 X8.9840 Y-17.0820 F25.00
G01 X8.9350 Y-17.0796 F25.00
G01 X8.8865 Y-17.0724 F25.00
G01 X8.8389 Y-17.0605 F25.00
G01 X8.7927 Y-17.0439 F25.00
G01 X8.7483 Y-17.0230 F25.00
G01 X8.7062 Y-16.9977 F25.00
G01 X8.6668 Y-16.9685 F25.00
G01 X8.6304 Y-16.9356 F25.00
G01 X8.5975 Y-16.8992 F25.00
G01 X8.5683 Y-16.8598 F25.00
G01 X8.5430 Y-16.8177 F25.00
G01 X8.5221 Y-16.7733 F25.00
G01 X8.5055 Y-16.7271 F25.00
G01 X8.4936 Y-16.6795 F25.00
G01 X8.4864 Y-16.6310 F25.00
G01 X8.4840 Y-16.5820 F25.00
G01 X8.4864 Y-16.5330 F25.00
G01 X8.4936 Y-16.4845 F25.00
G01 X8.5055 Y-16.4369 F25.00
G01 X8.5221 Y-16.3907 F25.00
G01 X8.5430 Y-16.3463 F25.00
G01 X8.5683 Y-16.3042 F25.00
G01 X8.5975 Y-16.2648 F25.00
G01 X8.6304 Y-16.2284 F25.00
G01 X8.6668 Y-16.1955 F25.00
G01 X8.7062 Y-16.1663 F25.00
G01 X8.7483 Y-16.1410 F25.00
G01 X8.7927 Y-16.1201 F25.00
G01 X8.8389 Y-16.1035 F25.00
G01 X8.8865 Y-16.0916 F25.00
G01 X8.9350 Y-16.0844 F25.00
G01 X8.9840 Y-16.0820 F25.00
G01 X9.0330 Y-16.0844 F25.00
G01 X9.0815 Y-16.0916 F25.00
G01 X9.1291 Y-16.1035 F25.00
G01 X9.1753 Y-16.1201 F25.00
G01 X9.2197 Y-16.1410 F25.00
G01 X9.2618 Y-16.1663 F25.00
G01 X9.3012 Y-16.1955 F25.00
G01 X9.3376 Y-16.2284 F25.00
G01 X9.3705 Y-16.2648 F25.00
G01 X9.3997 Y-16.3042 F25.00
G01 X9.4250 Y-16.3463 F25.00
G01 X9.4459 Y-16.3907 F25.00
G01 X9.4625 Y-16.4369 F25.00
G01 X9.4744 Y-16.4845 F25.00
G01 X9.4816 Y-16.5330 F25.00
G01 X9.4840 Y-16.5820 F25.00
G00 X9.4840 Y-16.5820
G01 F30.00
G01 Z-1.8000
G01 F25.00
G01 X9.4816 Y-16.6310 F25.00
G01 X9.4744 Y-16.6795 F25.00
G01 X9.4625 Y-16.7271 F25.00
G01 X9.4459 Y-16.7733 F25.00
G01 X9.4250 Y-16.8177 F25.00
G01 X9.3997 Y-16.8598 F25.00
G01 X9.3705 Y-16.8992 F25.00
G01 X9.3376 Y-16.9356 F25.00
G01 X9.3012 Y-16.9685 F25.00
G01 X9.2618 Y-16.9977 F25.00
G01 X9.2197 Y-17.0230 F25.00
G01 X9.1753 Y-17.0439 F25.00
G01 X9.1291 Y-17.0605 F25.00
G01 X9.0815 Y-17.0724 F25.00
G01 X9.0330 Y-17.0796 F25.00
G01 X8.9840 Y-17.0820 F25.00
G01 X8.9350 Y-17.0796 F25.00
G01 X8.8865 Y-17.0724 F25.00
G01 X8.8389 Y-17.0605 F25.00
G01 X8.7927 Y-17.0439 F25.00
G01 X8.7483 Y-17.0230 F25.00
G01 X8.7062 Y-16.9977 F25.00
G01 X8.6668 Y-16.9685 F25.00
G01 X8.6304 Y-16.9356 F25.00
G01 X8.5975 Y-16.8992 F25.00
G01 X8.5683 Y-16.8598 F25.00
G01 X8.5430 Y-16.8177 F25.00
G01 X8.5221 Y-16.7733 F25.00
G01 X8.5055 Y-16.7271 F25.00
G01 X8.4936 Y-16.6795 F25.00
G01 X8.4864 Y-16.6310 F25.00
G01 X8.4840 Y-16.5820 F25.00
G01 X8.4864 Y-16.5330 F25.00
G01 X8.4936 Y-16.4845 F25.00
G01 X8.5055 Y-16.4369 F25.00
G01 X8.5221 Y-16.3907 F25.00
G01 X8.5430 Y-16.3463 F25.00
G01 X8.5683 Y-16.3042 F25.00
G01 X8.5975 Y-16.2648 F25.00
G01 X8.6304 Y-16.2284 F25.00
G01 X8.6668 Y-16.1955 F25.00
G01 X8.7062 Y-16.1663 F25.00
G01 X8.7483 Y-16.1410 F25.00
G01 X8.7927 Y-16.1201 F25.00
G01 X8.8389 Y-16.1035 F25.00
G01 X8.8865 Y-16.0916 F25.00
G01 X8.9350 Y-16.0844 F25.00
G01 X8.9840 Y-16.0820 F25.00
G01 X9.0330 Y-16.0844 F25.00
G01 X9.0815 Y-16.0916 F25.00
G01 X9.1291 Y-16.1035 F25.00
G01 X9.1753 Y-16.1201 F25.00
G01 X9.2197 Y-16.1410 F25.00
G01 X9.2618 Y-16.1663 F25.00
G01 X9.3012 Y-16.1955 F25.00
G01 X9.3376 Y-16.2284 F25.00
G01 X9.3705 Y-16.2648 F25.00
G01 X9.3997 Y-16.3042 F25.00
G01 X9.4250 Y-16.3463 F25.00
G01 X9.4459 Y-16.3907 F25.00
G01 X9.4625 Y-16.4369 F25.00
G01 X9.4744 Y-16.4845 F25.00
G01 X9.4816 Y-16.5330 F25.00
G01 X9.4840 Y-16.5820 F25.00
G00 Z2.0000
G00 X14.4840 Y-49.5820
G01 F30.00
G01 Z-0.3000
G01 F25.00
G01 X14.4816 Y-49.6310 F25.00
G01 X14.4744 Y-49.6795 F25.00
G01 X14.4625 Y-49.7271 F25.00
G01 X14.4459 Y-49.7733 F25.00
G01 X14.4250 Y-49.8177 F25.00
G01 X14.3997 Y-49.8598 F25.00
G01 X14.3705 Y-49.8992 F25.00
G01 X14.3376 Y-49.9356 F25.00
G01 X14.3012 Y-49.9685 F25.00
G01 X14.2618 Y-49.9977 F25.00
G01 X14.2197 Y-50.0230 F25.00
G01 X14.1753 Y-50.0439 F25.00
G01 X14.1291 Y-50.0605 F25.00
G01 X14.0815 Y-50.0724 F25.00
G01 X14.0330 Y-50.0796 F25.00
G01 X13.9840 Y-50.0820 F25.00
G01 X13.9350 Y-50.0796 F25.00
G01 X13.8865 Y-50.0724 F25.00
G01 X13.8389 Y-50.0605 F25.00
G01 X13.7927 Y-50.0439 F25.00
G01 X13.7483 Y-50.0230 F25.00
G01 X13.7062 Y-49.9977 F25.00
G01 X13.6668 Y-49.9685 F25.00
G01 X13.6304 Y-49.9356 F25.00
G01 X13.5975 Y-49.8992 F25.00
G01 X13.5683 Y-49.8598 F25.00
G01 X13.5430 Y-49.8177 F25.00
G01 X13.5221 Y-49.7733 F25.00
G01 X13.5055 Y-49.7271 F25.00
G01 X13.4936 Y-49.6795 F25.00
G01 X13.4864 Y-49.6310 F25.00
G01 X13.4840 Y-49.5820 F25.00
G01 X13.4864 Y-49.5330 F25.00
G01 X13.4936 Y-49.4845 F25.00
G01 X13.5055 Y-49.4369 F25.00
G01 X13.5221 Y-49.3907 F25.00
G01 X13.5430 Y-49.3463 F25.00
G01 X13.5683 Y-49.3042 F25.00
G01 X13.5975 Y-49.2648 F25.00
G01 X13.6304 Y-49.2284 F25.00
G01 X13.6668 Y-49.1955 F25.00
G01 X13.7062 Y-49.1663 F25.00
G01 X13.7483 Y-49.1410 F25.00
G01 X13.7927 Y-49.1201 F25.00
G01 X13.8389 Y-49.1035 F25.00
G01 X13.8865 Y-49.0916 F25.00
G01 X13.9350 Y-49.0844 F25.00
G01 X13.9840 Y-49.0820 F25.00
G01 X14.0330 Y-49.0844 F25.00
G01 X14.0815 Y-49.0916 F25.00
G01 X14.1291 Y-49.1035 F25.00
G01 X14.1753 Y-49.1201 F25.00
G01 X14.2197 Y-49.1410 F25.00
G01 X14.2618 Y-49.1663 F25.00
G01 X14.3012 Y-49.1955 F25.00
G01 X14.3376 Y-49.2284 F25.00
G01 X14.3705 Y-49.2648 F25.00
G01 X14.3997 Y-49.3042 F25.00
G01 X14.4250 Y-49.3463 F25.00
G01 X14.4459 Y-49.3907 F25.00
G01 X14.4625 Y-49.4369 F25.00
G01 X14.4744 Y-49.4845 F25.00
G01 X14.4816 Y-49.5330 F25.00
G01 X14.4840 Y-49.5820 F25.00
G00 X14.4840 Y-49.5820
G01 F30.00
G01 Z-0.6000
G01 F25.00
G01 X14.4816 Y-49.6310 F25.00
G01 X14.4744 Y-49.6795 F25.00
G01 X14.4625 Y-49.7271 F25.00
G01 X14.4459 Y-49.7733 F25.00
G01 X14.4250 Y-49.8177 F25.00
G01 X14.3997 Y-49.8598 F25.00
G01 X14.3705 Y-49.8992 F25.00
G01 X14.3376 Y-49.9356 F25.00
G01 X14.3012 Y-49.9685 F25.00
G01 X14.2618 Y-49.9977 F25.00
G01 X14.2197 Y-50.0230 F25.00
G01 X14.1753 Y-50.0439 F25.00
G01 X14.1291 Y-50.0605 F25.00
G01 X14.0815 Y-50.0724 F25.00
G01 X14.0330 Y-50.0796 F25.00
G01 X13.9840 Y-50.0820 F25.00
G01 X13.9350 Y-50.0796 F25.00
G01 X13.8865 Y-50.0724 F25.00
G01 X13.8389 Y-50.0605 F25.00
G01 X13.7927 Y-50.0439 F25.00
G01 X13.7483 Y-50.0230 F25.00
G01 X13.7062 Y-49.9977 F25.00
G01 X13.6668 Y-49.9685 F25.00
G01 X13.6304 Y-49.9356 F25.00
G01 X13.5975 Y-49.8992 F25.00
G01 X13.5683 Y-49.8598 F25.00
G01 X13.5430 Y-49.8177 F25.00
G01 X13.5221 Y-49.7733 F25.00
G01 X13.5055 Y-49.7271 F25.00
G01 X13.4936 Y-49.6795 F25.00
G01 X13.4864 Y-49.6310 F25.00
G01 X13.4840 Y-49.5820 F25.00
G01 X13.4864 Y-49.5330 F25.00
G01 X13.4936 Y-49.4845 F25.00
G01 X13.5055 Y-49.4369 F25.00
G01 X13.5221 Y-49.3907 F25.00
G01 X13.5430 Y-49.3463 F25.00
G01 X13.5683 Y-49.3042 F25.00
G01 X13.5975 Y-49.2648 F25.00
G01 X13.6304 Y-49.2284 F25.00
G01 X13.6668 Y-49.1955 F25.00
G01 X13.7062 Y-49.1663 F25.00
G01 X13.7483 Y-49.1410 F25.00
G01 X13.7927 Y-49.1201 F25.00
G01 X13.8389 Y-49.1035 F25.00
G01 X13.8865 Y-49.0916 F25.00
G01 X13.9350 Y-49.0844 F25.00
G01 X13.9840 Y-49.0820 F25.00
G01 X14.0330 Y-49.0844 F25.00
G01 X14.0815 Y-49.0916 F25.00
G01 X14.1291 Y-49.1035 F25.00
G01 X14.1753 Y-49.1201 F25.00
G01 X14.2197 Y-49.1410 F25.00
G01 X14.2618 Y-49.1663 F25.00
G01 X14.3012 Y-49.1955 F25.00
G01 X14.3376 Y-49.2284 F25.00
G01 X14.3705 Y-49.2648 F25.00
G01 X14.3997 Y-49.3042 F25.00
G01 X14.4250 Y-49.3463 F25.00
G01 X14.4459 Y-49.3907 F25.00
G01 X14.4625 Y-49.4369 F25.00
G01 X14.4744 Y-49.4845 F25.00
G01 X14.4816 Y-49.5330 F25.00
G01 X14.4840 Y-49.5820 F25.00
G00 X14.4840 Y-49.5820
G01 F30.00
G01 Z-0.9000
G01 F25.00
G01 X14.4816 Y-49.6310 F25.00
G01 X14.4744 Y-49.6795 F25.00
G01 X14.4625 Y-49.7271 F25.00
G01 X14.4459 Y-49.7733 F25.00
G01 X14.4250 Y-49.8177 F25.00
G01 X14.3997 Y-49.8598 F25.00
G01 X14.3705 Y-49.8992 F25.00
G01 X14.3376 Y-49.9356 F25.00
G01 X14.3012 Y-49.9685 F25.00
G01 X14.2618 Y-49.9977 F25.00
G01 X14.2197 Y-50.0230 F25.00
G01 X14.1753 Y-50.0439 F25.00
G01 X14.1291 Y-50.0605 F25.00
G01 X14.0815 Y-50.0724 F25.00
G01 X14.0330 Y-50.0796 F25.00
G01 X13.9840 Y-50.0820 F25.00
G01 X13.9350 Y-50.0796 F25.00
G01 X13.8865 Y-50.0724 F25.00
G01 X13.8389 Y-50.0605 F25.00
G01 X13.7927 Y-50.0439 F25.00
G01 X13.7483 Y-50.0230 F25.00
G01 X13.7062 Y-49.9977 F25.00
G01 X13.6668 Y-49.9685 F25.00
G01 X13.6304 Y-49.9356 F25.00
G01 X13.5975 Y-49.8992 F25.00
G01 X13.5683 Y-49.8598 F25.00
G01 X13.5430 Y-49.8177 F25.00
G01 X13.5221 Y-49.7733 F25.00
G01 X13.5055 Y-49.7271 F25.00
G01 X13.4936 Y-49.6795 F25.00
G01 X13.4864 Y-49.6310 F25.00
G01 X13.4840 Y-49.5820 F25.00
G01 X13.4864 Y-49.5330 F25.00
G01 X13.4936 Y-49.4845 F25.00
G01 X13.5055 Y-49.4369 F25.00
G01 X13.5221 Y-49.3907 F25.00
G01 X13.5430 Y-49.3463 F25.00
G01 X13.5683 Y-49.3042 F25.00
G01 X13.5975 Y-49.2648 F25.00
G01 X13.6304 Y-49.2284 F25.00
G01 X13.6668 Y-49.1955 F25.00
G01 X13.7062 Y-49.1663 F25.00
G01 X13.7483 Y-49.1410 F25.00
G01 X13.7927 Y-49.1201 F25.00
G01 X13.8389 Y-49.1035 F25.00
G01 X13.8865 Y-49.0916 F25.00
G01 X13.9350 Y-49.0844 F25.00
G01 X13.9840 Y-49.0820 F25.00
G01 X14.0330 Y-49.0844 F25.00
G01 X14.0815 Y-49.0916 F25.00
G01 X14.1291 Y-49.1035 F25.00
G01 X14.1753 Y-49.1201 F25.00
G01 X14.2197 Y-49.1410 F25.00
G01 X14.2618 Y-49.1663 F25.00
G01 X14.3012 Y-49.1955 F25.00
G01 X14.3376 Y-49.2284 F25.00
G01 X14.3705 Y-49.2648 F25.00
G01 X14.3997 Y-49.3042 F25.00
G01 X14.4250 Y-49.3463 F25.00
G01 X14.4459 Y-49.3907 F25.00
G01 X14.4625 Y-49.4369 F25.00
G01 X14.4744 Y-49.4845 F25.00
G01 X14.4816 Y-49.5330 F25.00
G01 X14.4840 Y-49.5820 F25.00
G00 X14.4840 Y-49.5820
G01 F30.00
G01 Z-1.2000
G01 F25.00
G01 X14.4816 Y-49.6310 F25.00
G01 X14.4744 Y-49.6795 F25.00
G01 X14.4625 Y-49.7271 F25.00
G01 X14.4459 Y-49.7733 F25.00
G01 X14.4250 Y-49.8177 F25.00
G01 X14.3997 Y-49.8598 F25.00
G01 X14.3705 Y-49.8992 F25.00
G01 X14.3376 Y-49.9356 F25.00
G01 X14.3012 Y-49.9685 F25.00
G01 X14.2618 Y-49.9977 F25.00
G01 X14.2197 Y-50.0230 F25.00
G01 X14.1753 Y-50.0439 F25.00
G01 X14.1291 Y-50.0605 F25.00
G01 X14.0815 Y-50.0724 F25.00
G01 X14.0330 Y-50.0796 F25.00
G01 X13.9840 Y-50.0820 F25.00
G01 X13.9350 Y-50.0796 F25.00
G01 X13.8865 Y-50.0724 F25.00
G01 X13.8389 Y-50.0605 F25.00
G01 X13.7927 Y-50.0439 F25.00
G01 X13.7483 Y-50.0230 F25.00
G01 X13.7062 Y-49.9977 F25.00
G01 X13.6668 Y-49.9685 F25.00
G01 X13.6304 Y-49.9356 F25.00
G01 X13.5975 Y-49.8992 F25.00
G01 X13.5683 Y-49.8598 F25.00
G01 X13.5430 Y-49.8177 F25.00
G01 X13.5221 Y-49.7733 F25.00
G01 X13.5055 Y-49.7271 F25.00
G01 X13.4936 Y-49.6795 F25.00
G01 X13.4864 Y-49.6310 F25.00
G01 X13.4840 Y-49.5820 F25.00
G01 X13.4864 Y-49.5330 F25.00
G01 X13.4936 Y-49.4845 F25.00
G01 X13.5055 Y-49.4369 F25.00
G01 X13.5221 Y-49.3907 F25.00
G01 X13.5430 Y-49.3463 F25.00
G01 X13.5683 Y-49.3042 F25.00
G01 X13.5975 Y-49.2648 F25.00
G01 X13.6304 Y-49.2284 F25.00
G01 X13.6668 Y-49.1955 F25.00
G01 X13.7062 Y-49.1663 F25.00
G01 X13.7483 Y-49.1410 F25.00
G01 X13.7927 Y-49.1201 F25.00
G01 X13.8389 Y-49.1035 F25.00
G01 X13.8865 Y-49.0916 F25.00
G01 X13.9350 Y-49.0844 F25.00
G01 X13.9840 Y-49.0820 F25.00
G01 X14.0330 Y-49.0844 F25.00
G01 X14.0815 Y-49.0916 F25.00
G01 X14.1291 Y-49.1035 F25.00
G01 X14.1753 Y-49.1201 F25.00
G01 X14.2197 Y-49.1410 F25.00
G01 X14.2618 Y-49.1663 F25.00
G01 X14.3012 Y-49.1955 F25.00
G01 X14.3376 Y-49.2284 F25.00
G01 X14.3705 Y-49.2648 F25.00
G01 X14.3997 Y-49.3042 F25.00
G01 X14.4250 Y-49.3463 F25.00
G01 X14.4459 Y-49.3907 F25.00
G01 X14.4625 Y-49.4369 F25.00
G01 X14.4744 Y-49.4845 F25.00
G01 X14.4816 Y-49.5330 F25.00
G01 X14.4840 Y-49.5820 F25.00
G00 X14.4840 Y-49.5820
G01 F30.00
G01 Z-1.5000
G01 F25.00
G01 X14.4816 Y-49.6310 F25.00
G01 X14.4744 Y-49.6795 F25.00
G01 X14.4625 Y-49.7271 F25.00
G01 X14.4459 Y-49.7733 F25.00
G01 X14.4250 Y-49.8177 F25.00
G01 X14.3997 Y-49.8598 F25.00
G01 X14.3705 Y-49.8992 F25.00
G01 X14.3376 Y-49.9356 F25.00
G01 X14.3012 Y-49.9685 F25.00
G01 X14.2618 Y-49.9977 F25.00
G01 X14.2197 Y-50.0230 F25.00
G01 X14.1753 Y-50.0439 F25.00
G01 X14.1291 Y-50.0605 F25.00
G01 X14.0815 Y-50.0724 F25.00
G01 X14.0330 Y-50.0796 F25.00
G01 X13.9840 Y-50.0820 F25.00
G01 X13.9350 Y-50.0796 F25.00
G01 X13.8865 Y-50.0724 F25.00
G01 X13.8389 Y-50.0605 F25.00
G01 X13.7927 Y-50.0439 F25.00
G01 X13.7483 Y-50.0230 F25.00
G01 X13.7062 Y-49.9977 F25.00
G01 X13.6668 Y-49.9685 F25.00
G01 X13.6304 Y-49.9356 F25.00
G01 X13.5975 Y-49.8992 F25.00
G01 X13.5683 Y-49.8598 F25.00
G01 X13.5430 Y-49.8177 F25.00
G01 X13.5221 Y-49.7733 F25.00
G01 X13.5055 Y-49.7271 F25.00
G01 X13.4936 Y-49.6795 F25.00
G01 X13.4864 Y-49.6310 F25.00
G01 X13.4840 Y-49.5820 F25.00
G01 X13.4864 Y-49.5330 F25.00
G01 X13.4936 Y-49.4845 F25.00
G01 X13.5055 Y-49.4369 F25.00
G01 X13.5221 Y-49.3907 F25.00
G01 X13.5430 Y-49.3463 F25.00
G01 X13.5683 Y-49.3042 F25.00
G01 X13.5975 Y-49.2648 F25.00
G01 X13.6304 Y-49.2284 F25.00
G01 X13.6668 Y-49.1955 F25.00
G01 X13.7062 Y-49.1663 F25.00
G01 X13.7483 Y-49.1410 F25.00
G01 X13.7927 Y-49.1201 F25.00
G01 X13.8389 Y-49.1035 F25.00
G01 X13.8865 Y-49.0916 F25.00
G01 X13.9350 Y-49.0844 F25.00
G01 X13.9840 Y-49.0820 F25.00
G01 X14.0330 Y-49.0844 F25.00
G01 X14.0815 Y-49.0916 F25.00
G01 X14.1291 Y-49.1035 F25.00
G01 X14.1753 Y-49.1201 F25.00
G01 X14.2197 Y-49.1410 F25.00
G01 X14.2618 Y-49.1663 F25.00
G01 X14.3012 Y-49.1955 F25.00
G01 X14.3376 Y-49.2284 F25.00
G01 X14.3705 Y-49.2648 F25.00
G01 X14.3997 Y-49.3042 F25.00
G01 X14.4250 Y-49.3463 F25.00
G01 X14.4459 Y-49.3907 F25.00
G01 X14.4625 Y-49.4369 F25.00
G01 X14.4744 Y-49.4845 F25.00
G01 X14.4816 Y-49.5330 F25.00
G01 X14.4840 Y-49.5820 F25.00
G00 X14.4840 Y-49.5820
G01 F30.00
G01 Z-1.8000
G01 F25.00
G01 X14.4816 Y-49.6310 F25.00
G01 X14.4744 Y-49.6795 F25.00
G01 X14.4625 Y-49.7271 F25.00
G01 X14.4459 Y-49.7733 F25.00
G01 X14.4250 Y-49.8177 F25.00
G01 X14.3997 Y-49.8598 F25.00
G01 X14.3705 Y-49.8992 F25.00
G01 X14.3376 Y-49.9356 F25.00
G01 X14.3012 Y-49.9685 F25.00
G01 X14.2618 Y-49.9977 F25.00
G01 X14.2197 Y-50.0230 F25.00
G01 X14.1753 Y-50.0439 F25.00
G01 X14.1291 Y-50.0605 F25.00
G01 X14.0815 Y-50.0724 F25.00
G01 X14.0330 Y-50.0796 F25.00
G01 X13.9840 Y-50.0820 F25.00
G01 X13.9350 Y-50.0796 F25.00
G01 X13.8865 Y-50.0724 F25.00
G01 X13.8389 Y-50.0605 F25.00
G01 X13.7927 Y-50.0439 F25.00
G01 X13.7483 Y-50.0230 F25.00
G01 X13.7062 Y-49.9977 F25.00
G01 X13.6668 Y-49.9685 F25.00
G01 X13.6304 Y-49.9356 F25.00
G01 X13.5975 Y-49.8992 F25.00
G01 X13.5683 Y-49.8598 F25.00
G01 X13.5430 Y-49.8177 F25.00
G01 X13.5221 Y-49.7733 F25.00
G01 X13.5055 Y-49.7271 F25.00
G01 X13.4936 Y-49.6795 F25.00
G01 X13.4864 Y-49.6310 F25.00
G01 X13.4840 Y-49.5820 F25.00
G01 X13.4864 Y-49.5330 F25.00
G01 X13.4936 Y-49.4845 F25.00
G01 X13.5055 Y-49.4369 F25.00
G01 X13.5221 Y-49.3907 F25.00
G01 X13.5430 Y-49.3463 F25.00
G01 X13.5683 Y-49.3042 F25.00
G01 X13.5975 Y-49.2648 F25.00
G01 X13.6304 Y-49.2284 F25.00
G01 X13.6668 Y-49.1955 F25.00
G01 X13.7062 Y-49.1663 F25.00
G01 X13.7483 Y-49.1410 F25.00
G01 X13.7927 Y-49.1201 F25.00
G01 X13.8389 Y-49.1035 F25.00
G01 X13.8865 Y-49.0916 F25.00
G01 X13.9350 Y-49.0844 F25.00
G01 X13.9840 Y-49.0820 F25.00
G01 X14.0330 Y-49.0844 F25.00
G01 X14.0815 Y-49.0916 F25.00
G01 X14.1291 Y-49.1035 F25.00
G01 X14.1753 Y-49.1201 F25.00
G01 X14.2197 Y-49.1410 F25.00
G01 X14.2618 Y-49.1663 F25.00
G01 X14.3012 Y-49.1955 F25.00
G01 X14.3376 Y-49.2284 F25.00
G01 X14.3705 Y-49.2648 F25.00
G01 X14.3997 Y-49.3042 F25.00
G01 X14.4250 Y-49.3463 F25.00
G01 X14.4459 Y-49.3907 F25.00
G01 X14.4625 Y-49.4369 F25.00
G01 X14.4744 Y-49.4845 F25.00
G01 X14.4816 Y-49.5330 F25.00
G01 X14.4840 Y-49.5820 F25.00
G00 Z2.0000
G00 X22.6080 Y-50.3140
G01 F30.00
G01 Z-0.3000
G01 F25.00
G01 X22.6073 Y-50.3287 F25.00
G01 X22.6051 Y-50.3433 F25.00
G01 X22.6015 Y-50.3575 F25.00
G01 X22.5966 Y-50.3714 F25.00
G01 X22.5903 Y-50.3847 F25.00
G01 X22.5827 Y-50.3973 F25.00
G01 X22.5740 Y-50.4092 F25.00
G01 X22.5641 Y-50.4201 F25.00
G01 X22.5532 Y-50.4300 F25.00
G01 X22.5413 Y-50.4387 F25.00
G01 X22.5287 Y-50.4463 F25.00
G01 X22.5154 Y-50.4526 F25.00
G01 X22.5015 Y-50.4575 F25.00
G01 X22.4873 Y-50.4611 F25.00
G01 X22.4727 Y-50.4633 F25.00
G01 X22.4580 Y-50.4640 F25.00
G01 X22.4433 Y-50.4633 F25.00
G01 X22.4287 Y-50.4611 F25.00
G01 X22.4145 Y-50.4575 F25.00
G01 X22.4006 Y-50.4526 F25.00
G01 X22.3873 Y-50.4463 F25.00
G01 X22.3747 Y-50.4387 F25.00
G01 X22.3628 Y-50.4300 F25.00
G01 X22.3519 Y-50.4201 F25.00
G01 X22.3420 Y-50.4092 F25.00
G01 X22.3333 Y-50.3973 F25.00
G01 X22.3257 Y-50.3847 F25.00
G01 X22.3194 Y-50.3714 F25.00
G01 X22.3145 Y-50.3575 F25.00
G01 X22.3109 Y-50.3433 F25.00
G01 X22.3087 Y-50.3287 F25.00
G01 X22.3080 Y-50.3140 F25.00
G01 X22.3087 Y-50.2993 F25.00
G01 X22.3109 Y-50.2847 F25.00
G01 X22.3145 Y-50.2705 F25.00
G01 X22.3194 Y-50.2566 F25.00
G01 X22.3257 Y-50.2433 F25.00
G01 X22.3333 Y-50.2307 F25.00
G01 X22.3420 Y-50.2188 F25.00
G01 X22.3519 Y-50.2079 F25.00
G01 X22.3628 Y-50.1980 F25.00
G01 X22.3747 Y-50.1893 F25.00
G01 X22.3873 Y-50.1817 F25.00
G01 X22.4006 Y-50.1754 F25.00
G01 X22.4145 Y-50.1705 F25.00
G01 X22.4287 Y-50.1669 F25.00
G01 X22.4433 Y-50.1647 F25.00
G01 X22.4580 Y-50.1640 F25.00
G01 X22.4727 Y-50.1647 F25.00
G01 X22.4873 Y-50.1669 F25.00
G01 X22.5015 Y-50.1705 F25.00
G01 X22.5154 Y-50.1754 F25.00
G01 X22.5287 Y-50.1817 F25.00
G01 X22.5413 Y-50.1893 F25.00
G01 X22.5532 Y-50.1980 F25.00
G01 X22.5641 Y-50.2079 F25.00
G01 X22.5740 Y-50.2188 F25.00
G01 X22.5827 Y-50.2307 F25.00
G01 X22.5903 Y-50.2433 F25.00
G01 X22.5966 Y-50.2566 F25.00
G01 X22.6015 Y-50.2705 F25.00
G01 X22.6051 Y-50.2847 F25.00
G01 X22.6073 Y-50.2993 F25.00
G01 X22.6080 Y-50.3140 F25.00
G00 X22.6080 Y-50.3140
G01 F30.00
G01 Z-0.6000
G01 F25.00
G01 X22.6073 Y-50.3287 F25.00
G01 X22.6051 Y-50.3433 F25.00
G01 X22.6015 Y-50.3575 F25.00
G01 X22.5966 Y-50.3714 F25.00
G01 X22.5903 Y-50.3847 F25.00
G01 X22.5827 Y-50.3973 F25.00
G01 X22.5740 Y-50.4092 F25.00
G01 X22.5641 Y-50.4201 F25.00
G01 X22.5532 Y-50.4300 F25.00
G01 X22.5413 Y-50.4387 F25.00
G01 X22.5287 Y-50.4463 F25.00
G01 X22.5154 Y-50.4526 F25.00
G01 X22.5015 Y-50.4575 F25.00
G01 X22.4873 Y-50.4611 F25.00
G01 X22.4727 Y-50.4633 F25.00
G01 X22.4580 Y-50.4640 F25.00
G01 X22.4433 Y-50.4633 F25.00
G01 X22.4287 Y-50.4611 F25.00
G01 X22.4145 Y-50.4575 F25.00
G01 X22.4006 Y-50.4526 F25.00
G01 X22.3873 Y-50.4463 F25.00
G01 X22.3747 Y-50.4387 F25.00
G01 X22.3628 Y-50.4300 F25.00
G01 X22.3519 Y-50.4201 F25.00
G01 X22.3420 Y-50.4092 F25.00
G01 X22.3333 Y-50.3973 F25.00
G01 X22.3257 Y-50.3847 F25.00
G01 X22.3194 Y-50.3714 F25.00
G01 X22.3145 Y-50.3575 F25.00
G01 X22.3109 Y-50.3433 F25.00
G01 X22.3087 Y-50.3287 F25.00
G01 X22.3080 Y-50.3140 F25.00
G01 X22.3087 Y-50.2993 F25.00
G01 X22.3109 Y-50.2847 F25.00
G01 X22.3145 Y-50.2705 F25.00
G01 X22.3194 Y-50.2566 F25.00
G01 X22.3257 Y-50.2433 F25.00
G01 X22.3333 Y-50.2307 F25.00
G01 X22.3420 Y-50.2188 F25.00
G01 X22.3519 Y-50.2079 F25.00
G01 X22.3628 Y-50.1980 F25.00
G01 X22.3747 Y-50.1893 F25.00
G01 X22.3873 Y-50.1817 F25.00
G01 X22.4006 Y-50.1754 F25.00
G01 X22.4145 Y-50.1705 F25.00
G01 X22.4287 Y-50.1669 F25.00
G01 X22.4433 Y-50.1647 F25.00
G01 X22.4580 Y-50.1640 F25.00
G01 X22.4727 Y-50.1647 F25.00
G01 X22.4873 Y-50.1669 F25.00
G01 X22.5015 Y-50.1705 F25.00
G01 X22.5154 Y-50.1754 F25.00
G01 X22.5287 Y-50.1817 F25.00
G01 X22.5413 Y-50.1893 F25.00
G01 X22.5532 Y-50.1980 F25.00
G01 X22.5641 Y-50.2079 F25.00
G01 X22.5740 Y-50.2188 F25.00
G01 X22.5827 Y-50.2307 F25.00
G01 X22.5903 Y-50.2433 F25.00
G01 X22.5966 Y-50.2566 F25.00
G01 X22.6015 Y-50.2705 F25.00
G01 X22.6051 Y-50.2847 F25.00
G01 X22.6073 Y-50.2993 F25.00
G01 X22.6080 Y-50.3140 F25.00
G00 X22.6080 Y-50.3140
G01 F30.00
G01 Z-0.9000
G01 F25.00
G01 X22.6073 Y-50.3287 F25.00
G01 X22.6051 Y-50.3433 F25.00
G01 X22.6015 Y-50.3575 F25.00
G01 X22.5966 Y-50.3714 F25.00
G01 X22.5903 Y-50.3847 F25.00
G01 X22.5827 Y-50.3973 F25.00
G01 X22.5740 Y-50.4092 F25.00
G01 X22.5641 Y-50.4201 F25.00
G01 X22.5532 Y-50.4300 F25.00
G01 X22.5413 Y-50.4387 F25.00
G01 X22.5287 Y-50.4463 F25.00
G01 X22.5154 Y-50.4526 F25.00
G01 X22.5015 Y-50.4575 F25.00
G01 X22.4873 Y-50.4611 F25.00
G01 X22.4727 Y-50.4633 F25.00
G01 X22.4580 Y-50.4640 F25.00
G01 X22.4433 Y-50.4633 F25.00
G01 X22.4287 Y-50.4611 F25.00
G01 X22.4145 Y-50.4575 F25.00
G01 X22.4006 Y-50.4526 F25.00
G01 X22.3873 Y-50.4463 F25.00
G01 X22.3747 Y-50.4387 F25.00
G01 X22.3628 Y-50.4300 F25.00
G01 X22.3519 Y-50.4201 F25.00
G01 X22.3420 Y-50.4092 F25.00
G01 X22.3333 Y-50.3973 F25.00
G01 X22.3257 Y-50.3847 F25.00
G01 X22.3194 Y-50.3714 F25.00
G01 X22.3145 Y-50.3575 F25.00
G01 X22.3109 Y-50.3433 F25.00
G01 X22.3087 Y-50.3287 F25.00
G01 X22.3080 Y-50.3140 F25.00
G01 X22.3087 Y-50.2993 F25.00
G01 X22.3109 Y-50.2847 F25.00
G01 X22.3145 Y-50.2705 F25.00
G01 X22.3194 Y-50.2566 F25.00
G01 X22.3257 Y-50.2433 F25.00
G01 X22.3333 Y-50.2307 F25.00
G01 X22.3420 Y-50.2188 F25.00
G01 X22.3519 Y-50.2079 F25.00
G01 X22.3628 Y-50.1980 F25.00
G01 X22.3747 Y-50.1893 F25.00
G01 X22.3873 Y-50.1817 F25.00
G01 X22.4006 Y-50.1754 F25.00
G01 X22.4145 Y-50.1705 F25.00
G01 X22.4287 Y-50.1669 F25.00
G01 X22.4433 Y-50.1647 F25.00
G01 X22.4580 Y-50.1640 F25.00
G01 X22.4727 Y-50.1647 F25.00
G01 X22.4873 Y-50.1669 F25.00
G01 X22.5015 Y-50.1705 F25.00
G01 X22.5154 Y-50.1754 F25.00
G01 X22.5287 Y-50.1817 F25.00
G01 X22.5413 Y-50.1893 F25.00
G01 X22.5532 Y-50.1980 F25.00
G01 X22.5641 Y-50.2079 F25.00
G01 X22.5740 Y-50.2188 F25.00
G01 X22.5827 Y-50.2307 F25.00
G01 X22.5903 Y-50.2433 F25.00
G01 X22.5966 Y-50.2566 F25.00
G01 X22.6015 Y-50.2705 F25.00
G01 X22.6051 Y-50.2847 F25.00
G01 X22.6073 Y-50.2993 F25.00
G01 X22.6080 Y-50.3140 F25.00
G00 X22.6080 Y-50.3140
G01 F30.00
G01 Z-1.2000
G01 F25.00
G01 X22.6073 Y-50.3287 F25.00
G01 X22.6051 Y-50.3433 F25.00
G01 X22.6015 Y-50.3575 F25.00
G01 X22.5966 Y-50.3714 F25.00
G01 X22.5903 Y-50.3847 F25.00
G01 X22.5827 Y-50.3973 F25.00
G01 X22.5740 Y-50.4092 F25.00
G01 X22.5641 Y-50.4201 F25.00
G01 X22.5532 Y-50.4300 F25.00
G01 X22.5413 Y-50.4387 F25.00
G01 X22.5287 Y-50.4463 F25.00
G01 X22.5154 Y-50.4526 F25.00
G01 X22.5015 Y-50.4575 F25.00
G01 X22.4873 Y-50.4611 F25.00
G01 X22.4727 Y-50.4633 F25.00
G01 X22.4580 Y-50.4640 F25.00
G01 X22.4433 Y-50.4633 F25.00
G01 X22.4287 Y-50.4611 F25.00
G01 X22.4145 Y-50.4575 F25.00
G01 X22.4006 Y-50.4526 F25.00
G01 X22.3873 Y-50.4463 F25.00
G01 X22.3747 Y-50.4387 F25.00
G01 X22.3628 Y-50.4300 F25.00
G01 X22.3519 Y-50.4201 F25.00
G01 X22.3420 Y-50.4092 F25.00
G01 X22.3333 Y-50.3973 F25.00
G01 X22.3257 Y-50.3847 F25.00
G01 X22.3194 Y-50.3714 F25.00
G01 X22.3145 Y-50.3575 F25.00
G01 X22.3109 Y-50.3433 F25.00
G01 X22.3087 Y-50.3287 F25.00
G01 X22.3080 Y-50.3140 F25.00
G01 X22.3087 Y-50.2993 F25.00
G01 X22.3109 Y-50.2847 F25.00
G01 X22.3145 Y-50.2705 F25.00
G01 X22.3194 Y-50.2566 F25.00
G01 X22.3257 Y-50.2433 F25.00
G01 X22.3333 Y-50.2307 F25.00
G01 X22.3420 Y-50.2188 F25.00
G01 X22.3519 Y-50.2079 F25.00
G01 X22.3628 Y-50.1980 F25.00
G01 X22.3747 Y-50.1893 F25.00
G01 X22.3873 Y-50.1817 F25.00
G01 X22.4006 Y-50.1754 F25.00
G01 X22.4145 Y-50.1705 F25.00
G01 X22.4287 Y-50.1669 F25.00
G01 X22.4433 Y-50.1647 F25.00
G01 X22.4580 Y-50.1640 F25.00
G01 X22.4727 Y-50.1647 F25.00
G01 X22.4873 Y-50.1669 F25.00
G01 X22.5015 Y-50.1705 F25.00
G01 X22.5154 Y-50.1754 F25.00
G01 X22.5287 Y-50.1817 F25.00
G01 X22.5413 Y-50.1893 F25.00
G01 X22.5532 Y-50.1980 F25.00
G01 X22.5641 Y-50.2079 F25.00
G01 X22.5740 Y-50.2188 F25.00
G01 X22.5827 Y-50.2307 F25.00
G01 X22.5903 Y-50.2433 F25.00
G01 X22.5966 Y-50.2566 F25.00
G01 X22.6015 Y-50.2705 F25.00
G01 X22.6051 Y-50.2847 F25.00
G01 X22.6073 Y-50.2993 F25.00
G01 X22.6080 Y-50.3140 F25.00
G00 X22.6080 Y-50.3140
G01 F30.00
G01 Z-1.5000
G01 F25.00
G01 X22.6073 Y-50.3287 F25.00
G01 X22.6051 Y-50.3433 F25.00
G01 X22.6015 Y-50.3575 F25.00
G01 X22.5966 Y-50.3714 F25.00
G01 X22.5903 Y-50.3847 F25.00
G01 X22.5827 Y-50.3973 F25.00
G01 X22.5740 Y-50.4092 F25.00
G01 X22.5641 Y-50.4201 F25.00
G01 X22.5532 Y-50.4300 F25.00
G01 X22.5413 Y-50.4387 F25.00
G01 X22.5287 Y-50.4463 F25.00
G01 X22.5154 Y-50.4526 F25.00
G01 X22.5015 Y-50.4575 F25.00
G01 X22.4873 Y-50.4611 F25.00
G01 X22.4727 Y-50.4633 F25.00
G01 X22.4580 Y-50.4640 F25.00
G01 X22.4433 Y-50.4633 F25.00
G01 X22.4287 Y-50.4611 F25.00
G01 X22.4145 Y-50.4575 F25.00
G01 X22.4006 Y-50.4526 F25.00
G01 X22.3873 Y-50.4463 F25.00
G01 X22.3747 Y-50.4387 F25.00
G01 X22.3628 Y-50.4300 F25.00
G01 X22.3519 Y-50.4201 F25.00
G01 X22.3420 Y-50.4092 F25.00
G01 X22.3333 Y-50.3973 F25.00
G01 X22.3257 Y-50.3847 F25.00
G01 X22.3194 Y-50.3714 F25.00
G01 X22.3145 Y-50.3575 F25.00
G01 X22.3109 Y-50.3433 F25.00
G01 X22.3087 Y-50.3287 F25.00
G01 X22.3080 Y-50.3140 F25.00
G01 X22.3087 Y-50.2993 F25.00
G01 X22.3109 Y-50.2847 F25.00
G01 X22.3145 Y-50.2705 F25.00
G01 X22.3194 Y-50.2566 F25.00
G01 X22.3257 Y-50.2433 F25.00
G01 X22.3333 Y-50.2307 F25.00
G01 X22.3420 Y-50.2188 F25.00
G01 X22.3519 Y-50.2079 F25.00
G01 X22.3628 Y-50.1980 F25.00
G01 X22.3747 Y-50.1893 F25.00
G01 X22.3873 Y-50.1817 F25.00
G01 X22.4006 Y-50.1754 F25.00
G01 X22.4145 Y-50.1705 F25.00
G01 X22.4287 Y-50.1669 F25.00
G01 X22.4433 Y-50.1647 F25.00
G01 X22.4580 Y-50.1640 F25.00
G01 X22.4727 Y-50.1647 F25.00
G01 X22.4873 Y-50.1669 F25.00
G01 X22.5015 Y-50.1705 F25.00
G01 X22.5154 Y-50.1754 F25.00
G01 X22.5287 Y-50.1817 F25.00
G01 X22.5413 Y-50.1893 F25.00
G01 X22.5532 Y-50.1980 F25.00
G01 X22.5641 Y-50.2079 F25.00
G01 X22.5740 Y-50.2188 F25.00
G01 X22.5827 Y-50.2307 F25.00
G01 X22.5903 Y-50.2433 F25.00
G01 X22.5966 Y-50.2566 F25.00
G01 X22.6015 Y-50.2705 F25.00
G01 X22.6051 Y-50.2847 F25.00
G01 X22.6073 Y-50.2993 F25.00
G01 X22.6080 Y-50.3140 F25.00
G00 X22.6080 Y-50.3140
G01 F30.00
G01 Z-1.8000
G01 F25.00
G01 X22.6073 Y-50.3287 F25.00
G01 X22.6051 Y-50.3433 F25.00
G01 X22.6015 Y-50.3575 F25.00
G01 X22.5966 Y-50.3714 F25.00
G01 X22.5903 Y-50.3847 F25.00
G01 X22.5827 Y-50.3973 F25.00
G01 X22.5740 Y-50.4092 F25.00
G01 X22.5641 Y-50.4201 F25.00
G01 X22.5532 Y-50.4300 F25.00
G01 X22.5413 Y-50.4387 F25.00
G01 X22.5287 Y-50.4463 F25.00
G01 X22.5154 Y-50.4526 F25.00
G01 X22.5015 Y-50.4575 F25.00
G01 X22.4873 Y-50.4611 F25.00
G01 X22.4727 Y-50.4633 F25.00
G01 X22.4580 Y-50.4640 F25.00
G01 X22.4433 Y-50.4633 F25.00
G01 X22.4287 Y-50.4611 F25.00
G01 X22.4145 Y-50.4575 F25.00
G01 X22.4006 Y-50.4526 F25.00
G01 X22.3873 Y-50.4463 F25.00
G01 X22.3747 Y-50.4387 F25.00
G01 X22.3628 Y-50.4300 F25.00
G01 X22.3519 Y-50.4201 F25.00
G01 X22.3420 Y-50.4092 F25.00
G01 X22.3333 Y-50.3973 F25.00
G01 X22.3257 Y-50.3847 F25.00
G01 X22.3194 Y-50.3714 F25.00
G01 X22.3145 Y-50.3575 F25.00
G01 X22.3109 Y-50.3433 F25.00
G01 X22.3087 Y-50.3287 F25.00
G01 X22.3080 Y-50.3140 F25.00
G01 X22.3087 Y-50.2993 F25.00
G01 X22.3109 Y-50.2847 F25.00
G01 X22.3145 Y-50.2705 F25.00
G01 X22.3194 Y-50.2566 F25.00
G01 X22.3257 Y-50.2433 F25.00
G01 X22.3333 Y-50.2307 F25.00
G01 X22.3420 Y-50.2188 F25.00
G01 X22.3519 Y-50.2079 F25.00
G01 X22.3628 Y-50.1980 F25.00
G01 X22.3747 Y-50.1893 F25.00
G01 X22.3873 Y-50.1817 F25.00
G01 X22.4006 Y-50.1754 F25.00
G01 X22.4145 Y-50.1705 F25.00
G01 X22.4287 Y-50.1669 F25.00
G01 X22.4433 Y-50.1647 F25.00
G01 X22.4580 Y-50.1640 F25.00
G01 X22.4727 Y-50.1647 F25.00
G01 X22.4873 Y-50.1669 F25.00
G01 X22.5015 Y-50.1705 F25.00
G01 X22.5154 Y-50.1754 F25.00
G01 X22.5287 Y-50.1817 F25.00
G01 X22.5413 Y-50.1893 F25.00
G01 X22.5532 Y-50.1980 F25.00
G01 X22.5641 Y-50.2079 F25.00
G01 X22.5740 Y-50.2188 F25.00
G01 X22.5827 Y-50.2307 F25.00
G01 X22.5903 Y-50.2433 F25.00
G01 X22.5966 Y-50.2566 F25.00
G01 X22.6015 Y-50.2705 F25.00
G01 X22.6051 Y-50.2847 F25.00
G01 X22.6073 Y-50.2993 F25.00
G01 X22.6080 Y-50.3140 F25.00
G00 Z2.0000
G00 X34.9080 Y-50.3140
G01 F30.00
G01 Z-0.3000
G01 F25.00
G01 X34.9073 Y-50.3287 F25.00
G01 X34.9051 Y-50.3433 F25.00
G01 X34.9015 Y-50.3575 F25.00
G01 X34.8966 Y-50.3714 F25.00
G01 X34.8903 Y-50.3847 F25.00
G01 X34.8827 Y-50.3973 F25.00
G01 X34.8740 Y-50.4092 F25.00
G01 X34.8641 Y-50.4201 F25.00
G01 X34.8532 Y-50.4300 F25.00
G01 X34.8413 Y-50.4387 F25.00
G01 X34.8287 Y-50.4463 F25.00
G01 X34.8154 Y-50.4526 F25.00
G01 X34.8015 Y-50.4575 F25.00
G01 X34.7873 Y-50.4611 F25.00
G01 X34.7727 Y-50.4633 F25.00
G01 X34.7580 Y-50.4640 F25.00
G01 X34.7433 Y-50.4633 F25.00
G01 X34.7287 Y-50.4611 F25.00
G01 X34.7145 Y-50.4575 F25.00
G01 X34.7006 Y-50.4526 F25.00
G01 X34.6873 Y-50.4463 F25.00
G01 X34.6747 Y-50.4387 F25.00
G01 X34.6628 Y-50.4300 F25.00
G01 X34.6519 Y-50.4201 F25.00
G01 X34.6420 Y-50.4092 F25.00
G01 X34.6333 Y-50.3973 F25.00
G01 X34.6257 Y-50.3847 F25.00
G01 X34.6194 Y-50.3714 F25.00
G01 X34.6145 Y-50.3575 F25.00
G01 X34.6109 Y-50.3433 F25.00
G01 X34.6087 Y-50.3287 F25.00
G01 X34.6080 Y-50.3140 F25.00
G01 X34.6087 Y-50.2993 F25.00
G01 X34.6109 Y-50.2847 F25.00
G01 X34.6145 Y-50.2705 F25.00
G01 X34.6194 Y-50.2566 F25.00
G01 X34.6257 Y-50.2433 F25.00
G01 X34.6333 Y-50.2307 F25.00
G01 X34.6420 Y-50.2188 F25.00
G01 X34.6519 Y-50.2079 F25.00
G01 X34.6628 Y-50.1980 F25.00
G01 X34.6747 Y-50.1893 F25.00
G01 X34.6873 Y-50.1817 F25.00
G01 X34.7006 Y-50.1754 F25.00
G01 X34.7145 Y-50.1705 F25.00
G01 X34.7287 Y-50.1669 F25.00
G01 X34.7433 Y-50.1647 F25.00
G01 X34.7580 Y-50.1640 F25.00
G01 X34.7727 Y-50.1647 F25.00
G01 X34.7873 Y-50.1669 F25.00
G01 X34.8015 Y-50.1705 F25.00
G01 X34.8154 Y-50.1754 F25.00
G01 X34.8287 Y-50.1817 F25.00
G01 X34.8413 Y-50.1893 F25.00
G01 X34.8532 Y-50.1980 F25.00
G01 X34.8641 Y-50.2079 F25.00
G01 X34.8740 Y-50.2188 F25.00
G01 X34.8827 Y-50.2307 F25.00
G01 X34.8903 Y-50.2433 F25.00
G01 X34.8966 Y-50.2566 F25.00
G01 X34.9015 Y-50.2705 F25.00
G01 X34.9051 Y-50.2847 F25.00
G01 X34.9073 Y-50.2993 F25.00
G01 X34.9080 Y-50.3140 F25.00
G00 X34.9080 Y-50.3140
G01 F30.00
G01 Z-0.6000
G01 F25.00
G01 X34.9073 Y-50.3287 F25.00
G01 X34.9051 Y-50.3433 F25.00
G01 X34.9015 Y-50.3575 F25.00
G01 X34.8966 Y-50.3714 F25.00
G01 X34.8903 Y-50.3847 F25.00
G01 X34.8827 Y-50.3973 F25.00
G01 X34.8740 Y-50.4092 F25.00
G01 X34.8641 Y-50.4201 F25.00
G01 X34.8532 Y-50.4300 F25.00
G01 X34.8413 Y-50.4387 F25.00
G01 X34.8287 Y-50.4463 F25.00
G01 X34.8154 Y-50.4526 F25.00
G01 X34.8015 Y-50.4575 F25.00
G01 X34.7873 Y-50.4611 F25.00
G01 X34.7727 Y-50.4633 F25.00
G01 X34.7580 Y-50.4640 F25.00
G01 X34.7433 Y-50.4633 F25.00
G01 X34.7287 Y-50.4611 F25.00
G01 X34.7145 Y-50.4575 F25.00
G01 X34.7006 Y-50.4526 F25.00
G01 X34.6873 Y-50.4463 F25.00
G01 X34.6747 Y-50.4387 F25.00
G01 X34.6628 Y-50.4300 F25.00
G01 X34.6519 Y-50.4201 F25.00
G01 X34.6420 Y-50.4092 F25.00
G01 X34.6333 Y-50.3973 F25.00
G01 X34.6257 Y-50.3847 F25.00
G01 X34.6194 Y-50.3714 F25.00
G01 X34.6145 Y-50.3575 F25.00
G01 X34.6109 Y-50.3433 F25.00
G01 X34.6087 Y-50.3287 F25.00
G01 X34.6080 Y-50.3140 F25.00
G01 X34.6087 Y-50.2993 F25.00
G01 X34.6109 Y-50.2847 F25.00
G01 X34.6145 Y-50.2705 F25.00
G01 X34.6194 Y-50.2566 F25.00
G01 X34.6257 Y-50.2433 F25.00
G01 X34.6333 Y-50.2307 F25.00
G01 X34.6420 Y-50.2188 F25.00
G01 X34.6519 Y-50.2079 F25.00
G01 X34.6628 Y-50.1980 F25.00
G01 X34.6747 Y-50.1893 F25.00
G01 X34.6873 Y-50.1817 F25.00
G01 X34.7006 Y-50.1754 F25.00
G01 X34.7145 Y-50.1705 F25.00
G01 X34.7287 Y-50.1669 F25.00
G01 X34.7433 Y-50.1647 F25.00
G01 X34.7580 Y-50.1640 F25.00
G01 X34.7727 Y-50.1647 F25.00
G01 X34.7873 Y-50.1669 F25.00
G01 X34.8015 Y-50.1705 F25.00
G01 X34.8154 Y-50.1754 F25.00
G01 X34.8287 Y-50.1817 F25.00
G01 X34.8413 Y-50.1893 F25.00
G01 X34.8532 Y-50.1980 F25.00
G01 X34.8641 Y-50.2079 F25.00
G01 X34.8740 Y-50.2188 F25.00
G01 X34.8827 Y-50.2307 F25.00
G01 X34.8903 Y-50.2433 F25.00
G01 X34.8966 Y-50.2566 F25.00
G01 X34.9015 Y-50.2705 F25.00
G01 X34.9051 Y-50.2847 F25.00
G01 X34.9073 Y-50.2993 F25.00
G01 X34.9080 Y-50.3140 F25.00
G00 X34.9080 Y-50.3140
G01 F30.00
G01 Z-0.9000
G01 F25.00
G01 X34.9073 Y-50.3287 F25.00
G01 X34.9051 Y-50.3433 F25.00
G01 X34.9015 Y-50.3575 F25.00
G01 X34.8966 Y-50.3714 F25.00
G01 X34.8903 Y-50.3847 F25.00
G01 X34.8827 Y-50.3973 F25.00
G01 X34.8740 Y-50.4092 F25.00
G01 X34.8641 Y-50.4201 F25.00
G01 X34.8532 Y-50.4300 F25.00
G01 X34.8413 Y-50.4387 F25.00
G01 X34.8287 Y-50.4463 F25.00
G01 X34.8154 Y-50.4526 F25.00
G01 X34.8015 Y-50.4575 F25.00
G01 X34.7873 Y-50.4611 F25.00
G01 X34.7727 Y-50.4633 F25.00
G01 X34.7580 Y-50.4640 F25.00
G01 X34.7433 Y-50.4633 F25.00
G01 X34.7287 Y-50.4611 F25.00
G01 X34.7145 Y-50.4575 F25.00
G01 X34.7006 Y-50.4526 F25.00
G01 X34.6873 Y-50.4463 F25.00
G01 X34.6747 Y-50.4387 F25.00
G01 X34.6628 Y-50.4300 F25.00
G01 X34.6519 Y-50.4201 F25.00
G01 X34.6420 Y-50.4092 F25.00
G01 X34.6333 Y-50.3973 F25.00
G01 X34.6257 Y-50.3847 F25.00
G01 X34.6194 Y-50.3714 F25.00
G01 X34.6145 Y-50.3575 F25.00
G01 X34.6109 Y-50.3433 F25.00
G01 X34.6087 Y-50.3287 F25.00
G01 X34.6080 Y-50.3140 F25.00
G01 X34.6087 Y-50.2993 F25.00
G01 X34.6109 Y-50.2847 F25.00
G01 X34.6145 Y-50.2705 F25.00
G01 X34.6194 Y-50.2566 F25.00
G01 X34.6257 Y-50.2433 F25.00
G01 X34.6333 Y-50.2307 F25.00
G01 X34.6420 Y-50.2188 F25.00
G01 X34.6519 Y-50.2079 F25.00
G01 X34.6628 Y-50.1980 F25.00
G01 X34.6747 Y-50.1893 F25.00
G01 X34.6873 Y-50.1817 F25.00
G01 X34.7006 Y-50.1754 F25.00
G01 X34.7145 Y-50.1705 F25.00
G01 X34.7287 Y-50.1669 F25.00
G01 X34.7433 Y-50.1647 F25.00
G01 X34.7580 Y-50.1640 F25.00
G01 X34.7727 Y-50.1647 F25.00
G01 X34.7873 Y-50.1669 F25.00
G01 X34.8015 Y-50.1705 F25.00
G01 X34.8154 Y-50.1754 F25.00
G01 X34.8287 Y-50.1817 F25.00
G01 X34.8413 Y-50.1893 F25.00
G01 X34.8532 Y-50.1980 F25.00
G01 X34.8641 Y-50.2079 F25.00
G01 X34.8740 Y-50.2188 F25.00
G01 X34.8827 Y-50.2307 F25.00
G01 X34.8903 Y-50.2433 F25.00
G01 X34.8966 Y-50.2566 F25.00
G01 X34.9015 Y-50.2705 F25.00
G01 X34.9051 Y-50.2847 F25.00
G01 X34.9073 Y-50.2993 F25.00
G01 X34.9080 Y-50.3140 F25.00
G00 X34.9080 Y-50.3140
G01 F30.00
G01 Z-1.2000
G01 F25.00
G01 X34.9073 Y-50.3287 F25.00
G01 X34.9051 Y-50.3433 F25.00
G01 X34.9015 Y-50.3575 F25.00
G01 X34.8966 Y-50.3714 F25.00
G01 X34.8903 Y-50.3847 F25.00
G01 X34.8827 Y-50.3973 F25.00
G01 X34.8740 Y-50.4092 F25.00
G01 X34.8641 Y-50.4201 F25.00
G01 X34.8532 Y-50.4300 F25.00
G01 X34.8413 Y-50.4387 F25.00
G01 X34.8287 Y-50.4463 F25.00
G01 X34.8154 Y-50.4526 F25.00
G01 X34.8015 Y-50.4575 F25.00
G01 X34.7873 Y-50.4611 F25.00
G01 X34.7727 Y-50.4633 F25.00
G01 X34.7580 Y-50.4640 F25.00
G01 X34.7433 Y-50.4633 F25.00
G01 X34.7287 Y-50.4611 F25.00
G01 X34.7145 Y-50.4575 F25.00
G01 X34.7006 Y-50.4526 F25.00
G01 X34.6873 Y-50.4463 F25.00
G01 X34.6747 Y-50.4387 F25.00
G01 X34.6628 Y-50.4300 F25.00
G01 X34.6519 Y-50.4201 F25.00
G01 X34.6420 Y-50.4092 F25.00
G01 X34.6333 Y-50.3973 F25.00
G01 X34.6257 Y-50.3847 F25.00
G01 X34.6194 Y-50.3714 F25.00
G01 X34.6145 Y-50.3575 F25.00
G01 X34.6109 Y-50.3433 F25.00
G01 X34.6087 Y-50.3287 F25.00
G01 X34.6080 Y-50.3140 F25.00
G01 X34.6087 Y-50.2993 F25.00
G01 X34.6109 Y-50.2847 F25.00
G01 X34.6145 Y-50.2705 F25.00
G01 X34.6194 Y-50.2566 F25.00
G01 X34.6257 Y-50.2433 F25.00
G01 X34.6333 Y-50.2307 F25.00
G01 X34.6420 Y-50.2188 F25.00
G01 X34.6519 Y-50.2079 F25.00
G01 X34.6628 Y-50.1980 F25.00
G01 X34.6747 Y-50.1893 F25.00
G01 X34.6873 Y-50.1817 F25.00
G01 X34.7006 Y-50.1754 F25.00
G01 X34.7145 Y-50.1705 F25.00
G01 X34.7287 Y-50.1669 F25.00
G01 X34.7433 Y-50.1647 F25.00
G01 X34.7580 Y-50.1640 F25.00
G01 X34.7727 Y-50.1647 F25.00
G01 X34.7873 Y-50.1669 F25.00
G01 X34.8015 Y-50.1705 F25.00
G01 X34.8154 Y-50.1754 F25.00
G01 X34.8287 Y-50.1817 F25.00
G01 X34.8413 Y-50.1893 F25.00
G01 X34.8532 Y-50.1980 F25.00
G01 X34.8641 Y-50.2079 F25.00
G01 X34.8740 Y-50.2188 F25.00
G01 X34.8827 Y-50.2307 F25.00
G01 X34.8903 Y-50.2433 F25.00
G01 X34.8966 Y-50.2566 F25.00
G01 X34.9015 Y-50.2705 F25.00
G01 X34.9051 Y-50.2847 F25.00
G01 X34.9073 Y-50.2993 F25.00
G01 X34.9080 Y-50.3140 F25.00
G00 X34.9080 Y-50.3140
G01 F30.00
G01 Z-1.5000
G01 F25.00
G01 X34.9073 Y-50.3287 F25.00
G01 X34.9051 Y-50.3433 F25.00
G01 X34.9015 Y-50.3575 F25.00
G01 X34.8966 Y-50.3714 F25.00
G01 X34.8903 Y-50.3847 F25.00
G01 X34.8827 Y-50.3973 F25.00
G01 X34.8740 Y-50.4092 F25.00
G01 X34.8641 Y-50.4201 F25.00
G01 X34.8532 Y-50.4300 F25.00
G01 X34.8413 Y-50.4387 F25.00
G01 X34.8287 Y-50.4463 F25.00
G01 X34.8154 Y-50.4526 F25.00
G01 X34.8015 Y-50.4575 F25.00
G01 X34.7873 Y-50.4611 F25.00
G01 X34.7727 Y-50.4633 F25.00
G01 X34.7580 Y-50.4640 F25.00
G01 X34.7433 Y-50.4633 F25.00
G01 X34.7287 Y-50.4611 F25.00
G01 X34.7145 Y-50.4575 F25.00
G01 X34.7006 Y-50.4526 F25.00
G01 X34.6873 Y-50.4463 F25.00
G01 X34.6747 Y-50.4387 F25.00
G01 X34.6628 Y-50.4300 F25.00
G01 X34.6519 Y-50.4201 F25.00
G01 X34.6420 Y-50.4092 F25.00
G01 X34.6333 Y-50.3973 F25.00
G01 X34.6257 Y-50.3847 F25.00
G01 X34.6194 Y-50.3714 F25.00
G01 X34.6145 Y-50.3575 F25.00
G01 X34.6109 Y-50.3433 F25.00
G01 X34.6087 Y-50.3287 F25.00
G01 X34.6080 Y-50.3140 F25.00
G01 X34.6087 Y-50.2993 F25.00
G01 X34.6109 Y-50.2847 F25.00
G01 X34.6145 Y-50.2705 F25.00
G01 X34.6194 Y-50.2566 F25.00
G01 X34.6257 Y-50.2433 F25.00
G01 X34.6333 Y-50.2307 F25.00
G01 X34.6420 Y-50.2188 F25.00
G01 X34.6519 Y-50.2079 F25.00
G01 X34.6628 Y-50.1980 F25.00
G01 X34.6747 Y-50.1893 F25.00
G01 X34.6873 Y-50.1817 F25.00
G01 X34.7006 Y-50.1754 F25.00
G01 X34.7145 Y-50.1705 F25.00
G01 X34.7287 Y-50.1669 F25.00
G01 X34.7433 Y-50.1647 F25.00
G01 X34.7580 Y-50.1640 F25.00
G01 X34.7727 Y-50.1647 F25.00
G01 X34.7873 Y-50.1669 F25.00
G01 X34.8015 Y-50.1705 F25.00
G01 X34.8154 Y-50.1754 F25.00
G01 X34.8287 Y-50.1817 F25.00
G01 X34.8413 Y-50.1893 F25.00
G01 X34.8532 Y-50.1980 F25.00
G01 X34.8641 Y-50.2079 F25.00
G01 X34.8740 Y-50.2188 F25.00
G01 X34.8827 Y-50.2307 F25.00
G01 X34.8903 Y-50.2433 F25.00
G01 X34.8966 Y-50.2566 F25.00
G01 X34.9015 Y-50.2705 F25.00
G01 X34.9051 Y-50.2847 F25.00
G01 X34.9073 Y-50.2993 F25.00
G01 X34.9080 Y-50.3140 F25.00
G00 X34.9080 Y-50.3140
G01 F30.00
G01 Z-1.8000
G01 F25.00
G01 X34.9073 Y-50.3287 F25.00
G01 X34.9051 Y-50.3433 F25.00
G01 X34.9015 Y-50.3575 F25.00
G01 X34.8966 Y-50.3714 F25.00
G01 X34.8903 Y-50.3847 F25.00
G01 X34.8827 Y-50.3973 F25.00
G01 X34.8740 Y-50.4092 F25.00
G01 X34.8641 Y-50.4201 F25.00
G01 X34.8532 Y-50.4300 F25.00
G01 X34.8413 Y-50.4387 F25.00
G01 X34.8287 Y-50.4463 F25.00
G01 X34.8154 Y-50.4526 F25.00
G01 X34.8015 Y-50.4575 F25.00
G01 X34.7873 Y-50.4611 F25.00
G01 X34.7727 Y-50.4633 F25.00
G01 X34.7580 Y-50.4640 F25.00
G01 X34.7433 Y-50.4633 F25.00
G01 X34.7287 Y-50.4611 F25.00
G01 X34.7145 Y-50.4575 F25.00
G01 X34.7006 Y-50.4526 F25.00
G01 X34.6873 Y-50.4463 F25.00
G01 X34.6747 Y-50.4387 F25.00
G01 X34.6628 Y-50.4300 F25.00
G01 X34.6519 Y-50.4201 F25.00
G01 X34.6420 Y-50.4092 F25.00
G01 X34.6333 Y-50.3973 F25.00
G01 X34.6257 Y-50.3847 F25.00
G01 X34.6194 Y-50.3714 F25.00
G01 X34.6145 Y-50.3575 F25.00
G01 X34.6109 Y-50.3433 F25.00
G01 X34.6087 Y-50.3287 F25.00
G01 X34.6080 Y-50.3140 F25.00
G01 X34.6087 Y-50.2993 F25.00
G01 X34.6109 Y-50.2847 F25.00
G01 X34.6145 Y-50.2705 F25.00
G01 X34.6194 Y-50.2566 F25.00
G01 X34.6257 Y-50.2433 F25.00
G01 X34.6333 Y-50.2307 F25.00
G01 X34.6420 Y-50.2188 F25.00
G01 X34.6519 Y-50.2079 F25.00
G01 X34.6628 Y-50.1980 F25.00
G01 X34.6747 Y-50.1893 F25.00
G01 X34.6873 Y-50.1817 F25.00
G01 X34.7006 Y-50.1754 F25.00
G01 X34.7145 Y-50.1705 F25.00
G01 X34.7287 Y-50.1669 F25.00
G01 X34.7433 Y-50.1647 F25.00
G01 X34.7580 Y-50.1640 F25.00
G01 X34.7727 Y-50.1647 F25.00
G01 X34.7873 Y-50.1669 F25.00
G01 X34.8015 Y-50.1705 F25.00
G01 X34.8154 Y-50.1754 F25.00
G01 X34.8287 Y-50.1817 F25.00
G01 X34.8413 Y-50.1893 F25.00
G01 X34.8532 Y-50.1980 F25.00
G01 X34.8641 Y-50.2079 F25.00
G01 X34.8740 Y-50.2188 F25.00
G01 X34.8827 Y-50.2307 F25.00
G01 X34.8903 Y-50.2433 F25.00
G01 X34.8966 Y-50.2566 F25.00
G01 X34.9015 Y-50.2705 F25.00
G01 X34.9051 Y-50.2847 F25.00
G01 X34.9073 Y-50.2993 F25.00
G01 X34.9080 Y-50.3140 F25.00
G00 Z2.0000
G00 X46.4840 Y-49.5820
G01 F30.00
G01 Z-0.3000
G01 F25.00
G01 X46.4816 Y-49.6310 F25.00
G01 X46.4744 Y-49.6795 F25.00
G01 X46.4625 Y-49.7271 F25.00
G01 X46.4459 Y-49.7733 F25.00
G01 X46.4250 Y-49.8177 F25.00
G01 X46.3997 Y-49.8598 F25.00
G01 X46.3705 Y-49.8992 F25.00
G01 X46.3376 Y-49.9356 F25.00
G01 X46.3012 Y-49.9685 F25.00
G01 X46.2618 Y-49.9977 F25.00
G01 X46.2197 Y-50.0230 F25.00
G01 X46.1753 Y-50.0439 F25.00
G01 X46.1291 Y-50.0605 F25.00
G01 X46.0815 Y-50.0724 F25.00
G01 X46.0330 Y-50.0796 F25.00
G01 X45.9840 Y-50.0820 F25.00
G01 X45.9350 Y-50.0796 F25.00
G01 X45.8865 Y-50.0724 F25.00
G01 X45.8389 Y-50.0605 F25.00
G01 X45.7927 Y-50.0439 F25.00
G01 X45.7483 Y-50.0230 F25.00
G01 X45.7062 Y-49.9977 F25.00
G01 X45.6668 Y-49.9685 F25.00
G01 X45.6304 Y-49.9356 F25.00
G01 X45.5975 Y-49.8992 F25.00
G01 X45.5683 Y-49.8598 F25.00
G01 X45.5430 Y-49.8177 F25.00
G01 X45.5221 Y-49.7733 F25.00
G01 X45.5055 Y-49.7271 F25.00
G01 X45.4936 Y-49.6795 F25.00
G01 X45.4864 Y-49.6310 F25.00
G01 X45.4840 Y-49.5820 F25.00
G01 X45.4864 Y-49.5330 F25.00
G01 X45.4936 Y-49.4845 F25.00
G01 X45.5055 Y-49.4369 F25.00
G01 X45.5221 Y-49.3907 F25.00
G01 X45.5430 Y-49.3463 F25.00
G01 X45.5683 Y-49.3042 F25.00
G01 X45.5975 Y-49.2648 F25.00
G01 X45.6304 Y-49.2284 F25.00
G01 X45.6668 Y-49.1955 F25.00
G01 X45.7062 Y-49.1663 F25.00
G01 X45.7483 Y-49.1410 F25.00
G01 X45.7927 Y-49.1201 F25.00
G01 X45.8389 Y-49.1035 F25.00
G01 X45.8865 Y-49.0916 F25.00
G01 X45.9350 Y-49.0844 F25.00
G01 X45.9840 Y-49.0820 F25.00
G01 X46.0330 Y-49.0844 F25.00
G01 X46.0815 Y-49.0916 F25.00
G01 X46.1291 Y-49.1035 F25.00
G01 X46.1753 Y-49.1201 F25.00
G01 X46.2197 Y-49.1410 F25.00
G01 X46.2618 Y-49.1663 F25.00
G01 X46.3012 Y-49.1955 F25.00
G01 X46.3376 Y-49.2284 F25.00
G01 X46.3705 Y-49.2648 F25.00
G01 X46.3997 Y-49.3042 F25.00
G01 X46.4250 Y-49.3463 F25.00
G01 X46.4459 Y-49.3907 F25.00
G01 X46.4625 Y-49.4369 F25.00
G01 X46.4744 Y-49.4845 F25.00
G01 X46.4816 Y-49.5330 F25.00
G01 X46.4840 Y-49.5820 F25.00
G00 X46.4840 Y-49.5820
G01 F30.00
G01 Z-0.6000
G01 F25.00
G01 X46.4816 Y-49.6310 F25.00
G01 X46.4744 Y-49.6795 F25.00
G01 X46.4625 Y-49.7271 F25.00
G01 X46.4459 Y-49.7733 F25.00
G01 X46.4250 Y-49.8177 F25.00
G01 X46.3997 Y-49.8598 F25.00
G01 X46.3705 Y-49.8992 F25.00
G01 X46.3376 Y-49.9356 F25.00
G01 X46.3012 Y-49.9685 F25.00
G01 X46.2618 Y-49.9977 F25.00
G01 X46.2197 Y-50.0230 F25.00
G01 X46.1753 Y-50.0439 F25.00
G01 X46.1291 Y-50.0605 F25.00
G01 X46.0815 Y-50.0724 F25.00
G01 X46.0330 Y-50.0796 F25.00
G01 X45.9840 Y-50.0820 F25.00
G01 X45.9350 Y-50.0796 F25.00
G01 X45.8865 Y-50.0724 F25.00
G01 X45.8389 Y-50.0605 F25.00
G01 X45.7927 Y-50.0439 F25.00
G01 X45.7483 Y-50.0230 F25.00
G01 X45.7062 Y-49.9977 F25.00
G01 X45.6668 Y-49.9685 F25.00
G01 X45.6304 Y-49.9356 F25.00
G01 X45.5975 Y-49.8992 F25.00
G01 X45.5683 Y-49.8598 F25.00
G01 X45.5430 Y-49.8177 F25.00
G01 X45.5221 Y-49.7733 F25.00
G01 X45.5055 Y-49.7271 F25.00
G01 X45.4936 Y-49.6795 F25.00
G01 X45.4864 Y-49.6310 F25.00
G01 X45.4840 Y-49.5820 F25.00
G01 X45.4864 Y-49.5330 F25.00
G01 X45.4936 Y-49.4845 F25.00
G01 X45.5055 Y-49.4369 F25.00
G01 X45.5221 Y-49.3907 F25.00
G01 X45.5430 Y-49.3463 F25.00
G01 X45.5683 Y-49.3042 F25.00
G01 X45.5975 Y-49.2648 F25.00
G01 X45.6304 Y-49.2284 F25.00
G01 X45.6668 Y-49.1955 F25.00
G01 X45.7062 Y-49.1663 F25.00
G01 X45.7483 Y-49.1410 F25.00
G01 X45.7927 Y-49.1201 F25.00
G01 X45.8389 Y-49.1035 F25.00
G01 X45.8865 Y-49.0916 F25.00
G01 X45.9350 Y-49.0844 F25.00
G01 X45.9840 Y-49.0820 F25.00
G01 X46.0330 Y-49.0844 F25.00
G01 X46.0815 Y-49.0916 F25.00
G01 X46.1291 Y-49.1035 F25.00
G01 X46.1753 Y-49.1201 F25.00
G01 X46.2197 Y-49.1410 F25.00
G01 X46.2618 Y-49.1663 F25.00
G01 X46.3012 Y-49.1955 F25.00
G01 X46.3376 Y-49.2284 F25.00
G01 X46.3705 Y-49.2648 F25.00
G01 X46.3997 Y-49.3042 F25.00
G01 X46.4250 Y-49.3463 F25.00
G01 X46.4459 Y-49.3907 F25.00
G01 X46.4625 Y-49.4369 F25.00
G01 X46.4744 Y-49.4845 F25.00
G01 X46.4816 Y-49.5330 F25.00
G01 X46.4840 Y-49.5820 F25.00
G00 X46.4840 Y-49.5820
G01 F30.00
G01 Z-0.9000
G01 F25.00
G01 X46.4816 Y-49.6310 F25.00
G01 X46.4744 Y-49.6795 F25.00
G01 X46.4625 Y-49.7271 F25.00
G01 X46.4459 Y-49.7733 F25.00
G01 X46.4250 Y-49.8177 F25.00
G01 X46.3997 Y-49.8598 F25.00
G01 X46.3705 Y-49.8992 F25.00
G01 X46.3376 Y-49.9356 F25.00
G01 X46.3012 Y-49.9685 F25.00
G01 X46.2618 Y-49.9977 F25.00
G01 X46.2197 Y-50.0230 F25.00
G01 X46.1753 Y-50.0439 F25.00
G01 X46.1291 Y-50.0605 F25.00
G01 X46.0815 Y-50.0724 F25.00
G01 X46.0330 Y-50.0796 F25.00
G01 X45.9840 Y-50.0820 F25.00
G01 X45.9350 Y-50.0796 F25.00
G01 X45.8865 Y-50.0724 F25.00
G01 X45.8389 Y-50.0605 F25.00
G01 X45.7927 Y-50.0439 F25.00
G01 X45.7483 Y-50.0230 F25.00
G01 X45.7062 Y-49.9977 F25.00
G01 X45.6668 Y-49.9685 F25.00
G01 X45.6304 Y-49.9356 F25.00
G01 X45.5975 Y-49.8992 F25.00
G01 X45.5683 Y-49.8598 F25.00
G01 X45.5430 Y-49.8177 F25.00
G01 X45.5221 Y-49.7733 F25.00
G01 X45.5055 Y-49.7271 F25.00
G01 X45.4936 Y-49.6795 F25.00
G01 X45.4864 Y-49.6310 F25.00
G01 X45.4840 Y-49.5820 F25.00
G01 X45.4864 Y-49.5330 F25.00
G01 X45.4936 Y-49.4845 F25.00
G01 X45.5055 Y-49.4369 F25.00
G01 X45.5221 Y-49.3907 F25.00
G01 X45.5430 Y-49.3463 F25.00
G01 X45.5683 Y-49.3042 F25.00
G01 X45.5975 Y-49.2648 F25.00
G01 X45.6304 Y-49.2284 F25.00
G01 X45.6668 Y-49.1955 F25.00
G01 X45.7062 Y-49.1663 F25.00
G01 X45.7483 Y-49.1410 F25.00
G01 X45.7927 Y-49.1201 F25.00
G01 X45.8389 Y-49.1035 F25.00
G01 X45.8865 Y-49.0916 F25.00
G01 X45.9350 Y-49.0844 F25.00
G01 X45.9840 Y-49.0820 F25.00
G01 X46.0330 Y-49.0844 F25.00
G01 X46.0815 Y-49.0916 F25.00
G01 X46.1291 Y-49.1035 F25.00
G01 X46.1753 Y-49.1201 F25.00
G01 X46.2197 Y-49.1410 F25.00
G01 X46.2618 Y-49.1663 F25.00
G01 X46.3012 Y-49.1955 F25.00
G01 X46.3376 Y-49.2284 F25.00
G01 X46.3705 Y-49.2648 F25.00
G01 X46.3997 Y-49.3042 F25.00
G01 X46.4250 Y-49.3463 F25.00
G01 X46.4459 Y-49.3907 F25.00
G01 X46.4625 Y-49.4369 F25.00
G01 X46.4744 Y-49.4845 F25.00
G01 X46.4816 Y-49.5330 F25.00
G01 X46.4840 Y-49.5820 F25.00
G00 X46.4840 Y-49.5820
G01 F30.00
G01 Z-1.2000
G01 F25.00
G01 X46.4816 Y-49.6310 F25.00
G01 X46.4744 Y-49.6795 F25.00
G01 X46.4625 Y-49.7271 F25.00
G01 X46.4459 Y-49.7733 F25.00
G01 X46.4250 Y-49.8177 F25.00
G01 X46.3997 Y-49.8598 F25.00
G01 X46.3705 Y-49.8992 F25.00
G01 X46.3376 Y-49.9356 F25.00
G01 X46.3012 Y-49.9685 F25.00
G01 X46.2618 Y-49.9977 F25.00
G01 X46.2197 Y-50.0230 F25.00
G01 X46.1753 Y-50.0439 F25.00
G01 X46.1291 Y-50.0605 F25.00
G01 X46.0815 Y-50.0724 F25.00
G01 X46.0330 Y-50.0796 F25.00
G01 X45.9840 Y-50.0820 F25.00
G01 X45.9350 Y-50.0796 F25.00
G01 X45.8865 Y-50.0724 F25.00
G01 X45.8389 Y-50.0605 F25.00
G01 X45.7927 Y-50.0439 F25.00
G01 X45.7483 Y-50.0230 F25.00
G01 X45.7062 Y-49.9977 F25.00
G01 X45.6668 Y-49.9685 F25.00
G01 X45.6304 Y-49.9356 F25.00
G01 X45.5975 Y-49.8992 F25.00
G01 X45.5683 Y-49.8598 F25.00
G01 X45.5430 Y-49.8177 F25.00
G01 X45.5221 Y-49.7733 F25.00
G01 X45.5055 Y-49.7271 F25.00
G01 X45.4936 Y-49.6795 F25.00
G01 X45.4864 Y-49.6310 F25.00
G01 X45.4840 Y-49.5820 F25.00
G01 X45.4864 Y-49.5330 F25.00
G01 X45.4936 Y-49.4845 F25.00
G01 X45.5055 Y-49.4369 F25.00
G01 X45.5221 Y-49.3907 F25.00
G01 X45.5430 Y-49.3463 F25.00
G01 X45.5683 Y-49.3042 F25.00
G01 X45.5975 Y-49.2648 F25.00
G01 X45.6304 Y-49.2284 F25.00
G01 X45.6668 Y-49.1955 F25.00
G01 X45.7062 Y-49.1663 F25.00
G01 X45.7483 Y-49.1410 F25.00
G01 X45.7927 Y-49.1201 F25.00
G01 X45.8389 Y-49.1035 F25.00
G01 X45.8865 Y-49.0916 F25.00
G01 X45.9350 Y-49.0844 F25.00
G01 X45.9840 Y-49.0820 F25.00
G01 X46.0330 Y-49.0844 F25.00
G01 X46.0815 Y-49.0916 F25.00
G01 X46.1291 Y-49.1035 F25.00
G01 X46.1753 Y-49.1201 F25.00
G01 X46.2197 Y-49.1410 F25.00
G01 X46.2618 Y-49.1663 F25.00
G01 X46.3012 Y-49.1955 F25.00
G01 X46.3376 Y-49.2284 F25.00
G01 X46.3705 Y-49.2648 F25.00
G01 X46.3997 Y-49.3042 F25.00
G01 X46.4250 Y-49.3463 F25.00
G01 X46.4459 Y-49.3907 F25.00
G01 X46.4625 Y-49.4369 F25.00
G01 X46.4744 Y-49.4845 F25.00
G01 X46.4816 Y-49.5330 F25.00
G01 X46.4840 Y-49.5820 F25.00
G00 X46.4840 Y-49.5820
G01 F30.00
G01 Z-1.5000
G01 F25.00
G01 X46.4816 Y-49.6310 F25.00
G01 X46.4744 Y-49.6795 F25.00
G01 X46.4625 Y-49.7271 F25.00
G01 X46.4459 Y-49.7733 F25.00
G01 X46.4250 Y-49.8177 F25.00
G01 X46.3997 Y-49.8598 F25.00
G01 X46.3705 Y-49.8992 F25.00
G01 X46.3376 Y-49.9356 F25.00
G01 X46.3012 Y-49.9685 F25.00
G01 X46.2618 Y-49.9977 F25.00
G01 X46.2197 Y-50.0230 F25.00
G01 X46.1753 Y-50.0439 F25.00
G01 X46.1291 Y-50.0605 F25.00
G01 X46.0815 Y-50.0724 F25.00
G01 X46.0330 Y-50.0796 F25.00
G01 X45.9840 Y-50.0820 F25.00
G01 X45.9350 Y-50.0796 F25.00
G01 X45.8865 Y-50.0724 F25.00
G01 X45.8389 Y-50.0605 F25.00
G01 X45.7927 Y-50.0439 F25.00
G01 X45.7483 Y-50.0230 F25.00
G01 X45.7062 Y-49.9977 F25.00
G01 X45.6668 Y-49.9685 F25.00
G01 X45.6304 Y-49.9356 F25.00
G01 X45.5975 Y-49.8992 F25.00
G01 X45.5683 Y-49.8598 F25.00
G01 X45.5430 Y-49.8177 F25.00
G01 X45.5221 Y-49.7733 F25.00
G01 X45.5055 Y-49.7271 F25.00
G01 X45.4936 Y-49.6795 F25.00
G01 X45.4864 Y-49.6310 F25.00
G01 X45.4840 Y-49.5820 F25.00
G01 X45.4864 Y-49.5330 F25.00
G01 X45.4936 Y-49.4845 F25.00
G01 X45.5055 Y-49.4369 F25.00
G01 X45.5221 Y-49.3907 F25.00
G01 X45.5430 Y-49.3463 F25.00
G01 X45.5683 Y-49.3042 F25.00
G01 X45.5975 Y-49.2648 F25.00
G01 X45.6304 Y-49.2284 F25.00
G01 X45.6668 Y-49.1955 F25.00
G01 X45.7062 Y-49.1663 F25.00
G01 X45.7483 Y-49.1410 F25.00
G01 X45.7927 Y-49.1201 F25.00
G01 X45.8389 Y-49.1035 F25.00
G01 X45.8865 Y-49.0916 F25.00
G01 X45.9350 Y-49.0844 F25.00
G01 X45.9840 Y-49.0820 F25.00
G01 X46.0330 Y-49.0844 F25.00
G01 X46.0815 Y-49.0916 F25.00
G01 X46.1291 Y-49.1035 F25.00
G01 X46.1753 Y-49.1201 F25.00
G01 X46.2197 Y-49.1410 F25.00
G01 X46.2618 Y-49.1663 F25.00
G01 X46.3012 Y-49.1955 F25.00
G01 X46.3376 Y-49.2284 F25.00
G01 X46.3705 Y-49.2648 F25.00
G01 X46.3997 Y-49.3042 F25.00
G01 X46.4250 Y-49.3463 F25.00
G01 X46.4459 Y-49.3907 F25.00
G01 X46.4625 Y-49.4369 F25.00
G01 X46.4744 Y-49.4845 F25.00
G01 X46.4816 Y-49.5330 F25.00
G01 X46.4840 Y-49.5820 F25.00
G00 X46.4840 Y-49.5820
G01 F30.00
G01 Z-1.8000
G01 F25.00
G01 X46.4816 Y-49.6310 F25.00
G01 X46.4744 Y-49.6795 F25.00
G01 X46.4625 Y-49.7271 F25.00
G01 X46.4459 Y-49.7733 F25.00
G01 X46.4250 Y-49.8177 F25.00
G01 X46.3997 Y-49.8598 F25.00
G01 X46.3705 Y-49.8992 F25.00
G01 X46.3376 Y-49.9356 F25.00
G01 X46.3012 Y-49.9685 F25.00
G01 X46.2618 Y-49.9977 F25.00
G01 X46.2197 Y-50.0230 F25.00
G01 X46.1753 Y-50.0439 F25.00
G01 X46.1291 Y-50.0605 F25.00
G01 X46.0815 Y-50.0724 F25.00
G01 X46.0330 Y-50.0796 F25.00
G01 X45.9840 Y-50.0820 F25.00
G01 X45.9350 Y-50.0796 F25.00
G01 X45.8865 Y-50.0724 F25.00
G01 X45.8389 Y-50.0605 F25.00
G01 X45.7927 Y-50.0439 F25.00
G01 X45.7483 Y-50.0230 F25.00
G01 X45.7062 Y-49.9977 F25.00
G01 X45.6668 Y-49.9685 F25.00
G01 X45.6304 Y-49.9356 F25.00
G01 X45.5975 Y-49.8992 F25.00
G01 X45.5683 Y-49.8598 F25.00
G01 X45.5430 Y-49.8177 F25.00
G01 X45.5221 Y-49.7733 F25.00
G01 X45.5055 Y-49.7271 F25.00
G01 X45.4936 Y-49.6795 F25.00
G01 X45.4864 Y-49.6310 F25.00
G01 X45.4840 Y-49.5820 F25.00
G01 X45.4864 Y-49.5330 F25.00
G01 X45.4936 Y-49.4845 F25.00
G01 X45.5055 Y-49.4369 F25.00
G01 X45.5221 Y-49.3907 F25.00
G01 X45.5430 Y-49.3463 F25.00
G01 X45.5683 Y-49.3042 F25.00
G01 X45.5975 Y-49.2648 F25.00
G01 X45.6304 Y-49.2284 F25.00
G01 X45.6668 Y-49.1955 F25.00
G01 X45.7062 Y-49.1663 F25.00
G01 X45.7483 Y-49.1410 F25.00
G01 X45.7927 Y-49.1201 F25.00
G01 X45.8389 Y-49.1035 F25.00
G01 X45.8865 Y-49.0916 F25.00
G01 X45.9350 Y-49.0844 F25.00
G01 X45.9840 Y-49.0820 F25.00
G01 X46.0330 Y-49.0844 F25.00
G01 X46.0815 Y-49.0916 F25.00
G01 X46.1291 Y-49.1035 F25.00
G01 X46.1753 Y-49.1201 F25.00
G01 X46.2197 Y-49.1410 F25.00
G01 X46.2618 Y-49.1663 F25.00
G01 X46.3012 Y-49.1955 F25.00
G01 X46.3376 Y-49.2284 F25.00
G01 X46.3705 Y-49.2648 F25.00
G01 X46.3997 Y-49.3042 F25.00
G01 X46.4250 Y-49.3463 F25.00
G01 X46.4459 Y-49.3907 F25.00
G01 X46.4625 Y-49.4369 F25.00
G01 X46.4744 Y-49.4845 F25.00
G01 X46.4816 Y-49.5330 F25.00
G01 X46.4840 Y-49.5820 F25.00
G00 Z2.0000
G00 X51.4840 Y-16.5820
G01 F30.00
G01 Z-0.3000
G01 F25.00
G01 X51.4816 Y-16.6310 F25.00
G01 X51.4744 Y-16.6795 F25.00
G01 X51.4625 Y-16.7271 F25.00
G01 X51.4459 Y-16.7733 F25.00
G01 X51.4250 Y-16.8177 F25.00
G01 X51.3997 Y-16.8598 F25.00
G01 X51.3705 Y-16.8992 F25.00
G01 X51.3376 Y-16.9356 F25.00
G01 X51.3012 Y-16.9685 F25.00
G01 X51.2618 Y-16.9977 F25.00
G01 X51.2197 Y-17.0230 F25.00
G01 X51.1753 Y-17.0439 F25.00
G01 X51.1291 Y-17.0605 F25.00
G01 X51.0815 Y-17.0724 F25.00
G01 X51.0330 Y-17.0796 F25.00
G01 X50.9840 Y-17.0820 F25.00
G01 X50.9350 Y-17.0796 F25.00
G01 X50.8865 Y-17.0724 F25.00
G01 X50.8389 Y-17.0605 F25.00
G01 X50.7927 Y-17.0439 F25.00
G01 X50.7483 Y-17.0230 F25.00
G01 X50.7062 Y-16.9977 F25.00
G01 X50.6668 Y-16.9685 F25.00
G01 X50.6304 Y-16.9356 F25.00
G01 X50.5975 Y-16.8992 F25.00
G01 X50.5683 Y-16.8598 F25.00
G01 X50.5430 Y-16.8177 F25.00
G01 X50.5221 Y-16.7733 F25.00
G01 X50.5055 Y-16.7271 F25.00
G01 X50.4936 Y-16.6795 F25.00
G01 X50.4864 Y-16.6310 F25.00
G01 X50.4840 Y-16.5820 F25.00
G01 X50.4864 Y-16.5330 F25.00
G01 X50.4936 Y-16.4845 F25.00
G01 X50.5055 Y-16.4369 F25.00
G01 X50.5221 Y-16.3907 F25.00
G01 X50.5430 Y-16.3463 F25.00
G01 X50.5683 Y-16.3042 F25.00
G01 X50.5975 Y-16.2648 F25.00
G01 X50.6304 Y-16.2284 F25.00
G01 X50.6668 Y-16.1955 F25.00
G01 X50.7062 Y-16.1663 F25.00
G01 X50.7483 Y-16.1410 F25.00
G01 X50.7927 Y-16.1201 F25.00
G01 X50.8389 Y-16.1035 F25.00
G01 X50.8865 Y-16.0916 F25.00
G01 X50.9350 Y-16.0844 F25.00
G01 X50.9840 Y-16.0820 F25.00
G01 X51.0330 Y-16.0844 F25.00
G01 X51.0815 Y-16.0916 F25.00
G01 X51.1291 Y-16.1035 F25.00
G01 X51.1753 Y-16.1201 F25.00
G01 X51.2197 Y-16.1410 F25.00
G01 X51.2618 Y-16.1663 F25.00
G01 X51.3012 Y-16.1955 F25.00
G01 X51.3376 Y-16.2284 F25.00
G01 X51.3705 Y-16.2648 F25.00
G01 X51.3997 Y-16.3042 F25.00
G01 X51.4250 Y-16.3463 F25.00
G01 X51.4459 Y-16.3907 F25.00
G01 X51.4625 Y-16.4369 F25.00
G01 X51.4744 Y-16.4845 F25.00
G01 X51.4816 Y-16.5330 F25.00
G01 X51.4840 Y-16.5820 F25.00
G00 X51.4840 Y-16.5820
G01 F30.00
G01 Z-0.6000
G01 F25.00
G01 X51.4816 Y-16.6310 F25.00
G01 X51.4744 Y-16.6795 F25.00
G01 X51.4625 Y-16.7271 F25.00
G01 X51.4459 Y-16.7733 F25.00
G01 X51.4250 Y-16.8177 F25.00
G01 X51.3997 Y-16.8598 F25.00
G01 X51.3705 Y-16.8992 F25.00
G01 X51.3376 Y-16.9356 F25.00
G01 X51.3012 Y-16.9685 F25.00
G01 X51.2618 Y-16.9977 F25.00
G01 X51.2197 Y-17.0230 F25.00
G01 X51.1753 Y-17.0439 F25.00
G01 X51.1291 Y-17.0605 F25.00
G01 X51.0815 Y-17.0724 F25.00
G01 X51.0330 Y-17.0796 F25.00
G01 X50.9840 Y-17.0820 F25.00
G01 X50.9350 Y-17.0796 F25.00
G01 X50.8865 Y-17.0724 F25.00
G01 X50.8389 Y-17.0605 F25.00
G01 X50.7927 Y-17.0439 F25.00
G01 X50.7483 Y-17.0230 F25.00
G01 X50.7062 Y-16.9977 F25.00
G01 X50.6668 Y-16.9685 F25.00
G01 X50.6304 Y-16.9356 F25.00
G01 X50.5975 Y-16.8992 F25.00
G01 X50.5683 Y-16.8598 F25.00
G01 X50.5430 Y-16.8177 F25.00
G01 X50.5221 Y-16.7733 F25.00
G01 X50.5055 Y-16.7271 F25.00
G01 X50.4936 Y-16.6795 F25.00
G01 X50.4864 Y-16.6310 F25.00
G01 X50.4840 Y-16.5820 F25.00
G01 X50.4864 Y-16.5330 F25.00
G01 X50.4936 Y-16.4845 F25.00
G01 X50.5055 Y-16.4369 F25.00
G01 X50.5221 Y-16.3907 F25.00
G01 X50.5430 Y-16.3463 F25.00
G01 X50.5683 Y-16.3042 F25.00
G01 X50.5975 Y-16.2648 F25.00
G01 X50.6304 Y-16.2284 F25.00
G01 X50.6668 Y-16.1955 F25.00
G01 X50.7062 Y-16.1663 F25.00
G01 X50.7483 Y-16.1410 F25.00
G01 X50.7927 Y-16.1201 F25.00
G01 X50.8389 Y-16.1035 F25.00
G01 X50.8865 Y-16.0916 F25.00
G01 X50.9350 Y-16.0844 F25.00
G01 X50.9840 Y-16.0820 F25.00
G01 X51.0330 Y-16.0844 F25.00
G01 X51.0815 Y-16.0916 F25.00
G01 X51.1291 Y-16.1035 F25.00
G01 X51.1753 Y-16.1201 F25.00
G01 X51.2197 Y-16.1410 F25.00
G01 X51.2618 Y-16.1663 F25.00
G01 X51.3012 Y-16.1955 F25.00
G01 X51.3376 Y-16.2284 F25.00
G01 X51.3705 Y-16.2648 F25.00
G01 X51.3997 Y-16.3042 F25.00
G01 X51.4250 Y-16.3463 F25.00
G01 X51.4459 Y-16.3907 F25.00
G01 X51.4625 Y-16.4369 F25.00
G01 X51.4744 Y-16.4845 F25.00
G01 X51.4816 Y-16.5330 F25.00
G01 X51.4840 Y-16.5820 F25.00
G00 X51.4840 Y-16.5820
G01 F30.00
G01 Z-0.9000
G01 F25.00
G01 X51.4816 Y-16.6310 F25.00
G01 X51.4744 Y-16.6795 F25.00
G01 X51.4625 Y-16.7271 F25.00
G01 X51.4459 Y-16.7733 F25.00
G01 X51.4250 Y-16.8177 F25.00
G01 X51.3997 Y-16.8598 F25.00
G01 X51.3705 Y-16.8992 F25.00
G01 X51.3376 Y-16.9356 F25.00
G01 X51.3012 Y-16.9685 F25.00
G01 X51.2618 Y-16.9977 F25.00
G01 X51.2197 Y-17.0230 F25.00
G01 X51.1753 Y-17.0439 F25.00
G01 X51.1291 Y-17.0605 F25.00
G01 X51.0815 Y-17.0724 F25.00
G01 X51.0330 Y-17.0796 F25.00
G01 X50.9840 Y-17.0820 F25.00
G01 X50.9350 Y-17.0796 F25.00
G01 X50.8865 Y-17.0724 F25.00
G01 X50.8389 Y-17.0605 F25.00
G01 X50.7927 Y-17.0439 F25.00
G01 X50.7483 Y-17.0230 F25.00
G01 X50.7062 Y-16.9977 F25.00
G01 X50.6668 Y-16.9685 F25.00
G01 X50.6304 Y-16.9356 F25.00
G01 X50.5975 Y-16.8992 F25.00
G01 X50.5683 Y-16.8598 F25.00
G01 X50.5430 Y-16.8177 F25.00
G01 X50.5221 Y-16.7733 F25.00
G01 X50.5055 Y-16.7271 F25.00
G01 X50.4936 Y-16.6795 F25.00
G01 X50.4864 Y-16.6310 F25.00
G01 X50.4840 Y-16.5820 F25.00
G01 X50.4864 Y-16.5330 F25.00
G01 X50.4936 Y-16.4845 F25.00
G01 X50.5055 Y-16.4369 F25.00
G01 X50.5221 Y-16.3907 F25.00
G01 X50.5430 Y-16.3463 F25.00
G01 X50.5683 Y-16.3042 F25.00
G01 X50.5975 Y-16.2648 F25.00
G01 X50.6304 Y-16.2284 F25.00
G01 X50.6668 Y-16.1955 F25.00
G01 X50.7062 Y-16.1663 F25.00
G01 X50.7483 Y-16.1410 F25.00
G01 X50.7927 Y-16.1201 F25.00
G01 X50.8389 Y-16.1035 F25.00
G01 X50.8865 Y-16.0916 F25.00
G01 X50.9350 Y-16.0844 F25.00
G01 X50.9840 Y-16.0820 F25.00
G01 X51.0330 Y-16.0844 F25.00
G01 X51.0815 Y-16.0916 F25.00
G01 X51.1291 Y-16.1035 F25.00
G01 X51.1753 Y-16.1201 F25.00
G01 X51.2197 Y-16.1410 F25.00
G01 X51.2618 Y-16.1663 F25.00
G01 X51.3012 Y-16.1955 F25.00
G01 X51.3376 Y-16.2284 F25.00
G01 X51.3705 Y-16.2648 F25.00
G01 X51.3997 Y-16.3042 F25.00
G01 X51.4250 Y-16.3463 F25.00
G01 X51.4459 Y-16.3907 F25.00
G01 X51.4625 Y-16.4369 F25.00
G01 X51.4744 Y-16.4845 F25.00
G01 X51.4816 Y-16.5330 F25.00
G01 X51.4840 Y-16.5820 F25.00
G00 X51.4840 Y-16.5820
G01 F30.00
G01 Z-1.2000
G01 F25.00
G01 X51.4816 Y-16.6310 F25.00
G01 X51.4744 Y-16.6795 F25.00
G01 X51.4625 Y-16.7271 F25.00
G01 X51.4459 Y-16.7733 F25.00
G01 X51.4250 Y-16.8177 F25.00
G01 X51.3997 Y-16.8598 F25.00
G01 X51.3705 Y-16.8992 F25.00
G01 X51.3376 Y-16.9356 F25.00
G01 X51.3012 Y-16.9685 F25.00
G01 X51.2618 Y-16.9977 F25.00
G01 X51.2197 Y-17.0230 F25.00
G01 X51.1753 Y-17.0439 F25.00
G01 X51.1291 Y-17.0605 F25.00
G01 X51.0815 Y-17.0724 F25.00
G01 X51.0330 Y-17.0796 F25.00
G01 X50.9840 Y-17.0820 F25.00
G01 X50.9350 Y-17.0796 F25.00
G01 X50.8865 Y-17.0724 F25.00
G01 X50.8389 Y-17.0605 F25.00
G01 X50.7927 Y-17.0439 F25.00
G01 X50.7483 Y-17.0230 F25.00
G01 X50.7062 Y-16.9977 F25.00
G01 X50.6668 Y-16.9685 F25.00
G01 X50.6304 Y-16.9356 F25.00
G01 X50.5975 Y-16.8992 F25.00
G01 X50.5683 Y-16.8598 F25.00
G01 X50.5430 Y-16.8177 F25.00
G01 X50.5221 Y-16.7733 F25.00
G01 X50.5055 Y-16.7271 F25.00
G01 X50.4936 Y-16.6795 F25.00
G01 X50.4864 Y-16.6310 F25.00
G01 X50.4840 Y-16.5820 F25.00
G01 X50.4864 Y-16.5330 F25.00
G01 X50.4936 Y-16.4845 F25.00
G01 X50.5055 Y-16.4369 F25.00
G01 X50.5221 Y-16.3907 F25.00
G01 X50.5430 Y-16.3463 F25.00
G01 X50.5683 Y-16.3042 F25.00
G01 X50.5975 Y-16.2648 F25.00
G01 X50.6304 Y-16.2284 F25.00
G01 X50.6668 Y-16.1955 F25.00
G01 X50.7062 Y-16.1663 F25.00
G01 X50.7483 Y-16.1410 F25.00
G01 X50.7927 Y-16.1201 F25.00
G01 X50.8389 Y-16.1035 F25.00
G01 X50.8865 Y-16.0916 F25.00
G01 X50.9350 Y-16.0844 F25.00
G01 X50.9840 Y-16.0820 F25.00
G01 X51.0330 Y-16.0844 F25.00
G01 X51.0815 Y-16.0916 F25.00
G01 X51.1291 Y-16.1035 F25.00
G01 X51.1753 Y-16.1201 F25.00
G01 X51.2197 Y-16.1410 F25.00
G01 X51.2618 Y-16.1663 F25.00
G01 X51.3012 Y-16.1955 F25.00
G01 X51.3376 Y-16.2284 F25.00
G01 X51.3705 Y-16.2648 F25.00
G01 X51.3997 Y-16.3042 F25.00
G01 X51.4250 Y-16.3463 F25.00
G01 X51.4459 Y-16.3907 F25.00
G01 X51.4625 Y-16.4369 F25.00
G01 X51.4744 Y-16.4845 F25.00
G01 X51.4816 Y-16.5330 F25.00
G01 X51.4840 Y-16.5820 F25.00
G00 X51.4840 Y-16.5820
G01 F30.00
G01 Z-1.5000
G01 F25.00
G01 X51.4816 Y-16.6310 F25.00
G01 X51.4744 Y-16.6795 F25.00
G01 X51.4625 Y-16.7271 F25.00
G01 X51.4459 Y-16.7733 F25.00
G01 X51.4250 Y-16.8177 F25.00
G01 X51.3997 Y-16.8598 F25.00
G01 X51.3705 Y-16.8992 F25.00
G01 X51.3376 Y-16.9356 F25.00
G01 X51.3012 Y-16.9685 F25.00
G01 X51.2618 Y-16.9977 F25.00
G01 X51.2197 Y-17.0230 F25.00
G01 X51.1753 Y-17.0439 F25.00
G01 X51.1291 Y-17.0605 F25.00
G01 X51.0815 Y-17.0724 F25.00
G01 X51.0330 Y-17.0796 F25.00
G01 X50.9840 Y-17.0820 F25.00
G01 X50.9350 Y-17.0796 F25.00
G01 X50.8865 Y-17.0724 F25.00
G01 X50.8389 Y-17.0605 F25.00
G01 X50.7927 Y-17.0439 F25.00
G01 X50.7483 Y-17.0230 F25.00
G01 X50.7062 Y-16.9977 F25.00
G01 X50.6668 Y-16.9685 F25.00
G01 X50.6304 Y-16.9356 F25.00
G01 X50.5975 Y-16.8992 F25.00
G01 X50.5683 Y-16.8598 F25.00
G01 X50.5430 Y-16.8177 F25.00
G01 X50.5221 Y-16.7733 F25.00
G01 X50.5055 Y-16.7271 F25.00
G01 X50.4936 Y-16.6795 F25.00
G01 X50.4864 Y-16.6310 F25.00
G01 X50.4840 Y-16.5820 F25.00
G01 X50.4864 Y-16.5330 F25.00
G01 X50.4936 Y-16.4845 F25.00
G01 X50.5055 Y-16.4369 F25.00
G01 X50.5221 Y-16.3907 F25.00
G01 X50.5430 Y-16.3463 F25.00
G01 X50.5683 Y-16.3042 F25.00
G01 X50.5975 Y-16.2648 F25.00
G01 X50.6304 Y-16.2284 F25.00
G01 X50.6668 Y-16.1955 F25.00
G01 X50.7062 Y-16.1663 F25.00
G01 X50.7483 Y-16.1410 F25.00
G01 X50.7927 Y-16.1201 F25.00
G01 X50.8389 Y-16.1035 F25.00
G01 X50.8865 Y-16.0916 F25.00
G01 X50.9350 Y-16.0844 F25.00
G01 X50.9840 Y-16.0820 F25.00
G01 X51.0330 Y-16.0844 F25.00
G01 X51.0815 Y-16.0916 F25.00
G01 X51.1291 Y-16.1035 F25.00
G01 X51.1753 Y-16.1201 F25.00
G01 X51.2197 Y-16.1410 F25.00
G01 X51.2618 Y-16.1663 F25.00
G01 X51.3012 Y-16.1955 F25.00
G01 X51.3376 Y-16.2284 F25.00
G01 X51.3705 Y-16.2648 F25.00
G01 X51.3997 Y-16.3042 F25.00
G01 X51.4250 Y-16.3463 F25.00
G01 X51.4459 Y-16.3907 F25.00
G01 X51.4625 Y-16.4369 F25.00
G01 X51.4744 Y-16.4845 F25.00
G01 X51.4816 Y-16.5330 F25.00
G01 X51.4840 Y-16.5820 F25.00
G00 X51.4840 Y-16.5820
G01 F30.00
G01 Z-1.8000
G01 F25.00
G01 X51.4816 Y-16.6310 F25.00
G01 X51.4744 Y-16.6795 F25.00
G01 X51.4625 Y-16.7271 F25.00
G01 X51.4459 Y-16.7733 F25.00
G01 X51.4250 Y-16.8177 F25.00
G01 X51.3997 Y-16.8598 F25.00
G01 X51.3705 Y-16.8992 F25.00
G01 X51.3376 Y-16.9356 F25.00
G01 X51.3012 Y-16.9685 F25.00
G01 X51.2618 Y-16.9977 F25.00
G01 X51.2197 Y-17.0230 F25.00
G01 X51.1753 Y-17.0439 F25.00
G01 X51.1291 Y-17.0605 F25.00
G01 X51.0815 Y-17.0724 F25.00
G01 X51.0330 Y-17.0796 F25.00
G01 X50.9840 Y-17.0820 F25.00
G01 X50.9350 Y-17.0796 F25.00
G01 X50.8865 Y-17.0724 F25.00
G01 X50.8389 Y-17.0605 F25.00
G01 X50.7927 Y-17.0439 F25.00
G01 X50.7483 Y-17.0230 F25.00
G01 X50.7062 Y-16.9977 F25.00
G01 X50.6668 Y-16.9685 F25.00
G01 X50.6304 Y-16.9356 F25.00
G01 X50.5975 Y-16.8992 F25.00
G01 X50.5683 Y-16.8598 F25.00
G01 X50.5430 Y-16.8177 F25.00
G01 X50.5221 Y-16.7733 F25.00
G01 X50.5055 Y-16.7271 F25.00
G01 X50.4936 Y-16.6795 F25.00
G01 X50.4864 Y-16.6310 F25.00
G01 X50.4840 Y-16.5820 F25.00
G01 X50.4864 Y-16.5330 F25.00
G01 X50.4936 Y-16.4845 F25.00
G01 X50.5055 Y-16.4369 F25.00
G01 X50.5221 Y-16.3907 F25.00
G01 X50.5430 Y-16.3463 F25.00
G01 X50.5683 Y-16.3042 F25.00
G01 X50.5975 Y-16.2648 F25.00
G01 X50.6304 Y-16.2284 F25.00
G01 X50.6668 Y-16.1955 F25.00
G01 X50.7062 Y-16.1663 F25.00
G01 X50.7483 Y-16.1410 F25.00
G01 X50.7927 Y-16.1201 F25.00
G01 X50.8389 Y-16.1035 F25.00
G01 X50.8865 Y-16.0916 F25.00
G01 X50.9350 Y-16.0844 F25.00
G01 X50.9840 Y-16.0820 F25.00
G01 X51.0330 Y-16.0844 F25.00
G01 X51.0815 Y-16.0916 F25.00
G01 X51.1291 Y-16.1035 F25.00
G01 X51.1753 Y-16.1201 F25.00
G01 X51.2197 Y-16.1410 F25.00
G01 X51.2618 Y-16.1663 F25.00
G01 X51.3012 Y-16.1955 F25.00
G01 X51.3376 Y-16.2284 F25.00
G01 X51.3705 Y-16.2648 F25.00
G01 X51.3997 Y-16.3042 F25.00
G01 X51.4250 Y-16.3463 F25.00
G01 X51.4459 Y-16.3907 F25.00
G01 X51.4625 Y-16.4369 F25.00
G01 X51.4744 Y-16.4845 F25.00
G01 X51.4816 Y-16.5330 F25.00
G01 X51.4840 Y-16.5820 F25.00
G00 Z2.0000
M05
G00 Z2.0000
G00 Z15.00
G00 X0.0 Y0.0


