(G-CODE GENERATED BY FLATCAM v8.994 - www.flatcam.org - Version Date: 2020/11/7)

(Name: night-light-Edge_Cuts.gbr_cutout_cnc)
(Type: G-code from Geometry)
(Units: MM)

(Created on Friday, 03 June 2022 at 20:52)

(This preprocessor is used with a motion controller loaded with GRBL firmware.)
(It is configured to be compatible with almost any version of GRBL firmware.)

(TOOL DIAMETER: 1.8 mm)
(Feedrate_XY: 45.0 mm/min)
(Feedrate_Z: 30.0 mm/min)
(Feedrate rapids 1500.0 mm/min)

(Z_Cut: -1.8 mm)
(DepthPerCut: 0.3 mm <=>6 passes)
(Z_Move: 2.0 mm)
(Z Start: None mm)
(Z End: 15.0 mm)
(X,Y End: 0.0000, 0.0000 mm)
(Steps per circle: 64)
(Steps per circle: 64)
(Preprocessor Geometry: grbl_11)

(X range:    0.9584 ...   58.9576  mm)
(Y range:  -55.5050 ...   -1.0941  mm)

(Spindle Speed: 12000.0 RPM)
G21
G90
G17
G94


G01 F45.00

M5
G00 Z2.0000             
G00 X0.0000 Y0.0000                
M03 S12000.0
G01 F45.00
G00 X6.2690 Y-13.3968
G01 F30.00
G01 Z-0.3000
G01 F45.00
G01 X7.6407 Y-11.5762 F45.00
G01 X7.6725 Y-11.5361 F45.00
G01 X7.7046 Y-11.4995 F45.00
G01 X9.5470 Y-9.4941 F45.00
G01 X9.5826 Y-9.4574 F45.00
G01 X9.6180 Y-9.4240 F45.00
G01 X11.6467 Y-7.6073 F45.00
G01 X11.6857 Y-7.5742 F45.00
G01 X11.7242 Y-7.5444 F45.00
G01 X13.9199 Y-5.9335 F45.00
G01 X13.9619 Y-5.9044 F45.00
G01 X14.0032 Y-5.8785 F45.00
G01 X14.3582 Y-5.6678 F45.00
G00 X14.3582 Y-5.6678
G01 F30.00
G01 Z-0.6000
G01 F45.00
G01 X14.0032 Y-5.8785 F45.00
G01 X13.9619 Y-5.9044 F45.00
G01 X13.9199 Y-5.9335 F45.00
G01 X11.7242 Y-7.5444 F45.00
G01 X11.6857 Y-7.5742 F45.00
G01 X11.6467 Y-7.6073 F45.00
G01 X9.6180 Y-9.4240 F45.00
G01 X9.5826 Y-9.4574 F45.00
G01 X9.5470 Y-9.4941 F45.00
G01 X7.7046 Y-11.4995 F45.00
G01 X7.6725 Y-11.5361 F45.00
G01 X7.6407 Y-11.5762 F45.00
G01 X6.2690 Y-13.3968 F45.00
G00 X6.2690 Y-13.3968
G01 F30.00
G01 Z-0.9000
G01 F45.00
G01 X7.6407 Y-11.5762 F45.00
G01 X7.6725 Y-11.5361 F45.00
G01 X7.7046 Y-11.4995 F45.00
G01 X9.5470 Y-9.4941 F45.00
G01 X9.5826 Y-9.4574 F45.00
G01 X9.6180 Y-9.4240 F45.00
G01 X11.6467 Y-7.6073 F45.00
G01 X11.6857 Y-7.5742 F45.00
G01 X11.7242 Y-7.5444 F45.00
G01 X13.9199 Y-5.9335 F45.00
G01 X13.9619 Y-5.9044 F45.00
G01 X14.0032 Y-5.8785 F45.00
G01 X14.3582 Y-5.6678 F45.00
G00 X14.3582 Y-5.6678
G01 F30.00
G01 Z-1.2000
G01 F45.00
G01 X14.0032 Y-5.8785 F45.00
G01 X13.9619 Y-5.9044 F45.00
G01 X13.9199 Y-5.9335 F45.00
G01 X11.7242 Y-7.5444 F45.00
G01 X11.6857 Y-7.5742 F45.00
G01 X11.6467 Y-7.6073 F45.00
G01 X9.6180 Y-9.4240 F45.00
G01 X9.5826 Y-9.4574 F45.00
G01 X9.5470 Y-9.4941 F45.00
G01 X7.7046 Y-11.4995 F45.00
G01 X7.6725 Y-11.5361 F45.00
G01 X7.6407 Y-11.5762 F45.00
G01 X6.2690 Y-13.3968 F45.00
G00 X6.2690 Y-13.3968
G01 F30.00
G01 Z-1.5000
G01 F45.00
G01 X7.6407 Y-11.5762 F45.00
G01 X7.6725 Y-11.5361 F45.00
G01 X7.7046 Y-11.4995 F45.00
G01 X9.5470 Y-9.4941 F45.00
G01 X9.5826 Y-9.4574 F45.00
G01 X9.6180 Y-9.4240 F45.00
G01 X11.6467 Y-7.6073 F45.00
G01 X11.6857 Y-7.5742 F45.00
G01 X11.7242 Y-7.5444 F45.00
G01 X13.9199 Y-5.9335 F45.00
G01 X13.9619 Y-5.9044 F45.00
G01 X14.0032 Y-5.8785 F45.00
G01 X14.3582 Y-5.6678 F45.00
G00 X14.3582 Y-5.6678
G01 F30.00
G01 Z-1.8000
G01 F45.00
G01 X14.0032 Y-5.8785 F45.00
G01 X13.9619 Y-5.9044 F45.00
G01 X13.9199 Y-5.9335 F45.00
G01 X11.7242 Y-7.5444 F45.00
G01 X11.6857 Y-7.5742 F45.00
G01 X11.6467 Y-7.6073 F45.00
G01 X9.6180 Y-9.4240 F45.00
G01 X9.5826 Y-9.4574 F45.00
G01 X9.5470 Y-9.4941 F45.00
G01 X7.7046 Y-11.4995 F45.00
G01 X7.6725 Y-11.5361 F45.00
G01 X7.6407 Y-11.5762 F45.00
G01 X6.2690 Y-13.3968 F45.00
G00 Z2.0000
G00 X16.6582 Y-4.3366
G01 F30.00
G01 Z-0.3000
G01 F45.00
G01 X18.8992 Y-3.2865 F45.00
G01 X18.9460 Y-3.2660 F45.00
G01 X18.9915 Y-3.2486 F45.00
G01 X21.5581 Y-2.3384 F45.00
G01 X21.6067 Y-2.3225 F45.00
G01 X21.6537 Y-2.3096 F45.00
G01 X24.2966 Y-1.6532 F45.00
G01 X24.3465 Y-1.6421 F45.00
G01 X24.3945 Y-1.6339 F45.00
G01 X27.0888 Y-1.2375 F45.00
G01 X27.1371 Y-1.2316 F45.00
G01 X27.1881 Y-1.2278 F45.00
G01 X29.9081 Y-1.0953 F45.00
G01 X29.9592 Y-1.0941 F45.00
G01 X30.0079 Y-1.0953 F45.00
G01 X32.7279 Y-1.2278 F45.00
G01 X32.7789 Y-1.2316 F45.00
G01 X32.8272 Y-1.2375 F45.00
G01 X35.5215 Y-1.6339 F45.00
G01 X35.5718 Y-1.6426 F45.00
G01 X35.6194 Y-1.6532 F45.00
G01 X38.2623 Y-2.3096 F45.00
G01 X38.3116 Y-2.3232 F45.00
G01 X38.3579 Y-2.3384 F45.00
G01 X40.9245 Y-3.2486 F45.00
G01 X40.9700 Y-3.2660 F45.00
G01 X41.0168 Y-3.2865 F45.00
G01 X43.4578 Y-4.4303 F45.00
G00 X43.4578 Y-4.4303
G01 F30.00
G01 Z-0.6000
G01 F45.00
G01 X41.0168 Y-3.2865 F45.00
G01 X40.9700 Y-3.2660 F45.00
G01 X40.9245 Y-3.2486 F45.00
G01 X38.3579 Y-2.3384 F45.00
G01 X38.3116 Y-2.3232 F45.00
G01 X38.2623 Y-2.3096 F45.00
G01 X35.6194 Y-1.6532 F45.00
G01 X35.5718 Y-1.6426 F45.00
G01 X35.5215 Y-1.6339 F45.00
G01 X32.8272 Y-1.2375 F45.00
G01 X32.7789 Y-1.2316 F45.00
G01 X32.7279 Y-1.2278 F45.00
G01 X30.0079 Y-1.0953 F45.00
G01 X29.9592 Y-1.0941 F45.00
G01 X29.9081 Y-1.0953 F45.00
G01 X27.1881 Y-1.2278 F45.00
G01 X27.1371 Y-1.2316 F45.00
G01 X27.0888 Y-1.2375 F45.00
G01 X24.3945 Y-1.6339 F45.00
G01 X24.3465 Y-1.6421 F45.00
G01 X24.2966 Y-1.6532 F45.00
G01 X21.6537 Y-2.3096 F45.00
G01 X21.6067 Y-2.3225 F45.00
G01 X21.5581 Y-2.3384 F45.00
G01 X18.9915 Y-3.2486 F45.00
G01 X18.9460 Y-3.2660 F45.00
G01 X18.8992 Y-3.2865 F45.00
G01 X16.6582 Y-4.3366 F45.00
G00 X16.6582 Y-4.3366
G01 F30.00
G01 Z-0.9000
G01 F45.00
G01 X18.8992 Y-3.2865 F45.00
G01 X18.9460 Y-3.2660 F45.00
G01 X18.9915 Y-3.2486 F45.00
G01 X21.5581 Y-2.3384 F45.00
G01 X21.6067 Y-2.3225 F45.00
G01 X21.6537 Y-2.3096 F45.00
G01 X24.2966 Y-1.6532 F45.00
G01 X24.3465 Y-1.6421 F45.00
G01 X24.3945 Y-1.6339 F45.00
G01 X27.0888 Y-1.2375 F45.00
G01 X27.1371 Y-1.2316 F45.00
G01 X27.1881 Y-1.2278 F45.00
G01 X29.9081 Y-1.0953 F45.00
G01 X29.9592 Y-1.0941 F45.00
G01 X30.0079 Y-1.0953 F45.00
G01 X32.7279 Y-1.2278 F45.00
G01 X32.7789 Y-1.2316 F45.00
G01 X32.8272 Y-1.2375 F45.00
G01 X35.5215 Y-1.6339 F45.00
G01 X35.5718 Y-1.6426 F45.00
G01 X35.6194 Y-1.6532 F45.00
G01 X38.2623 Y-2.3096 F45.00
G01 X38.3116 Y-2.3232 F45.00
G01 X38.3579 Y-2.3384 F45.00
G01 X40.9245 Y-3.2486 F45.00
G01 X40.9700 Y-3.2660 F45.00
G01 X41.0168 Y-3.2865 F45.00
G01 X43.4578 Y-4.4303 F45.00
G00 X43.4578 Y-4.4303
G01 F30.00
G01 Z-1.2000
G01 F45.00
G01 X41.0168 Y-3.2865 F45.00
G01 X40.9700 Y-3.2660 F45.00
G01 X40.9245 Y-3.2486 F45.00
G01 X38.3579 Y-2.3384 F45.00
G01 X38.3116 Y-2.3232 F45.00
G01 X38.2623 Y-2.3096 F45.00
G01 X35.6194 Y-1.6532 F45.00
G01 X35.5718 Y-1.6426 F45.00
G01 X35.5215 Y-1.6339 F45.00
G01 X32.8272 Y-1.2375 F45.00
G01 X32.7789 Y-1.2316 F45.00
G01 X32.7279 Y-1.2278 F45.00
G01 X30.0079 Y-1.0953 F45.00
G01 X29.9592 Y-1.0941 F45.00
G01 X29.9081 Y-1.0953 F45.00
G01 X27.1881 Y-1.2278 F45.00
G01 X27.1371 Y-1.2316 F45.00
G01 X27.0888 Y-1.2375 F45.00
G01 X24.3945 Y-1.6339 F45.00
G01 X24.3465 Y-1.6421 F45.00
G01 X24.2966 Y-1.6532 F45.00
G01 X21.6537 Y-2.3096 F45.00
G01 X21.6067 Y-2.3225 F45.00
G01 X21.5581 Y-2.3384 F45.00
G01 X18.9915 Y-3.2486 F45.00
G01 X18.9460 Y-3.2660 F45.00
G01 X18.8992 Y-3.2865 F45.00
G01 X16.6582 Y-4.3366 F45.00
G00 X16.6582 Y-4.3366
G01 F30.00
G01 Z-1.5000
G01 F45.00
G01 X18.8992 Y-3.2865 F45.00
G01 X18.9460 Y-3.2660 F45.00
G01 X18.9915 Y-3.2486 F45.00
G01 X21.5581 Y-2.3384 F45.00
G01 X21.6067 Y-2.3225 F45.00
G01 X21.6537 Y-2.3096 F45.00
G01 X24.2966 Y-1.6532 F45.00
G01 X24.3465 Y-1.6421 F45.00
G01 X24.3945 Y-1.6339 F45.00
G01 X27.0888 Y-1.2375 F45.00
G01 X27.1371 Y-1.2316 F45.00
G01 X27.1881 Y-1.2278 F45.00
G01 X29.9081 Y-1.0953 F45.00
G01 X29.9592 Y-1.0941 F45.00
G01 X30.0079 Y-1.0953 F45.00
G01 X32.7279 Y-1.2278 F45.00
G01 X32.7789 Y-1.2316 F45.00
G01 X32.8272 Y-1.2375 F45.00
G01 X35.5215 Y-1.6339 F45.00
G01 X35.5718 Y-1.6426 F45.00
G01 X35.6194 Y-1.6532 F45.00
G01 X38.2623 Y-2.3096 F45.00
G01 X38.3116 Y-2.3232 F45.00
G01 X38.3579 Y-2.3384 F45.00
G01 X40.9245 Y-3.2486 F45.00
G01 X40.9700 Y-3.2660 F45.00
G01 X41.0168 Y-3.2865 F45.00
G01 X43.4578 Y-4.4303 F45.00
G00 X43.4578 Y-4.4303
G01 F30.00
G01 Z-1.8000
G01 F45.00
G01 X41.0168 Y-3.2865 F45.00
G01 X40.9700 Y-3.2660 F45.00
G01 X40.9245 Y-3.2486 F45.00
G01 X38.3579 Y-2.3384 F45.00
G01 X38.3116 Y-2.3232 F45.00
G01 X38.2623 Y-2.3096 F45.00
G01 X35.6194 Y-1.6532 F45.00
G01 X35.5718 Y-1.6426 F45.00
G01 X35.5215 Y-1.6339 F45.00
G01 X32.8272 Y-1.2375 F45.00
G01 X32.7789 Y-1.2316 F45.00
G01 X32.7279 Y-1.2278 F45.00
G01 X30.0079 Y-1.0953 F45.00
G01 X29.9592 Y-1.0941 F45.00
G01 X29.9081 Y-1.0953 F45.00
G01 X27.1881 Y-1.2278 F45.00
G01 X27.1371 Y-1.2316 F45.00
G01 X27.0888 Y-1.2375 F45.00
G01 X24.3945 Y-1.6339 F45.00
G01 X24.3465 Y-1.6421 F45.00
G01 X24.2966 Y-1.6532 F45.00
G01 X21.6537 Y-2.3096 F45.00
G01 X21.6067 Y-2.3225 F45.00
G01 X21.5581 Y-2.3384 F45.00
G01 X18.9915 Y-3.2486 F45.00
G01 X18.9460 Y-3.2660 F45.00
G01 X18.8992 Y-3.2865 F45.00
G01 X16.6582 Y-4.3366 F45.00
G00 Z2.0000
G00 X45.7578 Y-5.7865
G01 F30.00
G01 Z-0.3000
G01 F45.00
G01 X45.9128 Y-5.8785 F45.00
G01 X45.9561 Y-5.9057 F45.00
G01 X45.9961 Y-5.9335 F45.00
G01 X48.1918 Y-7.5444 F45.00
G01 X48.2303 Y-7.5742 F45.00
G01 X48.2693 Y-7.6073 F45.00
G01 X50.2980 Y-9.4240 F45.00
G01 X50.3334 Y-9.4574 F45.00
G01 X50.3690 Y-9.4941 F45.00
G01 X52.2114 Y-11.4995 F45.00
G01 X52.2435 Y-11.5361 F45.00
G01 X52.2753 Y-11.5762 F45.00
G01 X53.6470 Y-13.3968 F45.00
G00 X53.6470 Y-13.3968
G01 F30.00
G01 Z-0.6000
G01 F45.00
G01 X52.2753 Y-11.5762 F45.00
G01 X52.2435 Y-11.5361 F45.00
G01 X52.2114 Y-11.4995 F45.00
G01 X50.3690 Y-9.4941 F45.00
G01 X50.3334 Y-9.4574 F45.00
G01 X50.2980 Y-9.4240 F45.00
G01 X48.2693 Y-7.6073 F45.00
G01 X48.2303 Y-7.5742 F45.00
G01 X48.1918 Y-7.5444 F45.00
G01 X45.9961 Y-5.9335 F45.00
G01 X45.9561 Y-5.9057 F45.00
G01 X45.9128 Y-5.8785 F45.00
G01 X45.7578 Y-5.7865 F45.00
G00 X45.7578 Y-5.7865
G01 F30.00
G01 Z-0.9000
G01 F45.00
G01 X45.9128 Y-5.8785 F45.00
G01 X45.9561 Y-5.9057 F45.00
G01 X45.9961 Y-5.9335 F45.00
G01 X48.1918 Y-7.5444 F45.00
G01 X48.2303 Y-7.5742 F45.00
G01 X48.2693 Y-7.6073 F45.00
G01 X50.2980 Y-9.4240 F45.00
G01 X50.3334 Y-9.4574 F45.00
G01 X50.3690 Y-9.4941 F45.00
G01 X52.2114 Y-11.4995 F45.00
G01 X52.2435 Y-11.5361 F45.00
G01 X52.2753 Y-11.5762 F45.00
G01 X53.6470 Y-13.3968 F45.00
G00 X53.6470 Y-13.3968
G01 F30.00
G01 Z-1.2000
G01 F45.00
G01 X52.2753 Y-11.5762 F45.00
G01 X52.2435 Y-11.5361 F45.00
G01 X52.2114 Y-11.4995 F45.00
G01 X50.3690 Y-9.4941 F45.00
G01 X50.3334 Y-9.4574 F45.00
G01 X50.2980 Y-9.4240 F45.00
G01 X48.2693 Y-7.6073 F45.00
G01 X48.2303 Y-7.5742 F45.00
G01 X48.1918 Y-7.5444 F45.00
G01 X45.9961 Y-5.9335 F45.00
G01 X45.9561 Y-5.9057 F45.00
G01 X45.9128 Y-5.8785 F45.00
G01 X45.7578 Y-5.7865 F45.00
G00 X45.7578 Y-5.7865
G01 F30.00
G01 Z-1.5000
G01 F45.00
G01 X45.9128 Y-5.8785 F45.00
G01 X45.9561 Y-5.9057 F45.00
G01 X45.9961 Y-5.9335 F45.00
G01 X48.1918 Y-7.5444 F45.00
G01 X48.2303 Y-7.5742 F45.00
G01 X48.2693 Y-7.6073 F45.00
G01 X50.2980 Y-9.4240 F45.00
G01 X50.3334 Y-9.4574 F45.00
G01 X50.3690 Y-9.4941 F45.00
G01 X52.2114 Y-11.4995 F45.00
G01 X52.2435 Y-11.5361 F45.00
G01 X52.2753 Y-11.5762 F45.00
G01 X53.6470 Y-13.3968 F45.00
G00 X53.6470 Y-13.3968
G01 F30.00
G01 Z-1.8000
G01 F45.00
G01 X52.2753 Y-11.5762 F45.00
G01 X52.2435 Y-11.5361 F45.00
G01 X52.2114 Y-11.4995 F45.00
G01 X50.3690 Y-9.4941 F45.00
G01 X50.3334 Y-9.4574 F45.00
G01 X50.2980 Y-9.4240 F45.00
G01 X48.2693 Y-7.6073 F45.00
G01 X48.2303 Y-7.5742 F45.00
G01 X48.1918 Y-7.5444 F45.00
G01 X45.9961 Y-5.9335 F45.00
G01 X45.9561 Y-5.9057 F45.00
G01 X45.9128 Y-5.8785 F45.00
G01 X45.7578 Y-5.7865 F45.00
G00 Z2.0000
G00 X55.1081 Y-15.6968
G01 F30.00
G01 Z-0.3000
G01 F45.00
G01 X55.3896 Y-16.1577 F45.00
G01 X55.4152 Y-16.2020 F45.00
G01 X55.4374 Y-16.2453 F45.00
G01 X56.6243 Y-18.6963 F45.00
G01 X56.6444 Y-18.7406 F45.00
G01 X56.6634 Y-18.7881 F45.00
G01 X57.6063 Y-21.3429 F45.00
G01 X57.6220 Y-21.3890 F45.00
G01 X57.6362 Y-21.4381 F45.00
G01 X58.3263 Y-24.0725 F45.00
G01 X58.3380 Y-24.1222 F45.00
G01 X58.3469 Y-24.1701 F45.00
G01 X58.7776 Y-26.8591 F45.00
G01 X58.7843 Y-26.9097 F45.00
G01 X58.7885 Y-26.9582 F45.00
G01 X58.9557 Y-29.6764 F45.00
G01 X58.9576 Y-29.7275 F45.00
G01 X58.9570 Y-29.7761 F45.00
G01 X58.8591 Y-32.4976 F45.00
G01 X58.8560 Y-32.5487 F45.00
G01 X58.8507 Y-32.5971 F45.00
G01 X58.4887 Y-35.2961 F45.00
G01 X58.4806 Y-35.3466 F45.00
G01 X58.4707 Y-35.3943 F45.00
G01 X57.8480 Y-38.0454 F45.00
G01 X57.8357 Y-38.0925 F45.00
G01 X57.8205 Y-38.1413 F45.00
G01 X56.9488 Y-40.7023 F45.00
G00 X56.9488 Y-40.7023
G01 F30.00
G01 Z-0.6000
G01 F45.00
G01 X57.8205 Y-38.1413 F45.00
G01 X57.8357 Y-38.0925 F45.00
G01 X57.8480 Y-38.0454 F45.00
G01 X58.4707 Y-35.3943 F45.00
G01 X58.4806 Y-35.3466 F45.00
G01 X58.4887 Y-35.2961 F45.00
G01 X58.8507 Y-32.5971 F45.00
G01 X58.8560 Y-32.5487 F45.00
G01 X58.8591 Y-32.4976 F45.00
G01 X58.9570 Y-29.7761 F45.00
G01 X58.9576 Y-29.7275 F45.00
G01 X58.9557 Y-29.6764 F45.00
G01 X58.7885 Y-26.9582 F45.00
G01 X58.7843 Y-26.9097 F45.00
G01 X58.7776 Y-26.8591 F45.00
G01 X58.3469 Y-24.1701 F45.00
G01 X58.3380 Y-24.1222 F45.00
G01 X58.3263 Y-24.0725 F45.00
G01 X57.6362 Y-21.4381 F45.00
G01 X57.6220 Y-21.3890 F45.00
G01 X57.6063 Y-21.3429 F45.00
G01 X56.6634 Y-18.7881 F45.00
G01 X56.6444 Y-18.7406 F45.00
G01 X56.6243 Y-18.6963 F45.00
G01 X55.4374 Y-16.2453 F45.00
G01 X55.4152 Y-16.2020 F45.00
G01 X55.3896 Y-16.1577 F45.00
G01 X55.1081 Y-15.6968 F45.00
G00 X55.1081 Y-15.6968
G01 F30.00
G01 Z-0.9000
G01 F45.00
G01 X55.3896 Y-16.1577 F45.00
G01 X55.4152 Y-16.2020 F45.00
G01 X55.4374 Y-16.2453 F45.00
G01 X56.6243 Y-18.6963 F45.00
G01 X56.6444 Y-18.7406 F45.00
G01 X56.6634 Y-18.7881 F45.00
G01 X57.6063 Y-21.3429 F45.00
G01 X57.6220 Y-21.3890 F45.00
G01 X57.6362 Y-21.4381 F45.00
G01 X58.3263 Y-24.0725 F45.00
G01 X58.3380 Y-24.1222 F45.00
G01 X58.3469 Y-24.1701 F45.00
G01 X58.7776 Y-26.8591 F45.00
G01 X58.7843 Y-26.9097 F45.00
G01 X58.7885 Y-26.9582 F45.00
G01 X58.9557 Y-29.6764 F45.00
G01 X58.9576 Y-29.7275 F45.00
G01 X58.9570 Y-29.7761 F45.00
G01 X58.8591 Y-32.4976 F45.00
G01 X58.8560 Y-32.5487 F45.00
G01 X58.8507 Y-32.5971 F45.00
G01 X58.4887 Y-35.2961 F45.00
G01 X58.4806 Y-35.3466 F45.00
G01 X58.4707 Y-35.3943 F45.00
G01 X57.8480 Y-38.0454 F45.00
G01 X57.8357 Y-38.0925 F45.00
G01 X57.8205 Y-38.1413 F45.00
G01 X56.9488 Y-40.7023 F45.00
G00 X56.9488 Y-40.7023
G01 F30.00
G01 Z-1.2000
G01 F45.00
G01 X57.8205 Y-38.1413 F45.00
G01 X57.8357 Y-38.0925 F45.00
G01 X57.8480 Y-38.0454 F45.00
G01 X58.4707 Y-35.3943 F45.00
G01 X58.4806 Y-35.3466 F45.00
G01 X58.4887 Y-35.2961 F45.00
G01 X58.8507 Y-32.5971 F45.00
G01 X58.8560 Y-32.5487 F45.00
G01 X58.8591 Y-32.4976 F45.00
G01 X58.9570 Y-29.7761 F45.00
G01 X58.9576 Y-29.7275 F45.00
G01 X58.9557 Y-29.6764 F45.00
G01 X58.7885 Y-26.9582 F45.00
G01 X58.7843 Y-26.9097 F45.00
G01 X58.7776 Y-26.8591 F45.00
G01 X58.3469 Y-24.1701 F45.00
G01 X58.3380 Y-24.1222 F45.00
G01 X58.3263 Y-24.0725 F45.00
G01 X57.6362 Y-21.4381 F45.00
G01 X57.6220 Y-21.3890 F45.00
G01 X57.6063 Y-21.3429 F45.00
G01 X56.6634 Y-18.7881 F45.00
G01 X56.6444 Y-18.7406 F45.00
G01 X56.6243 Y-18.6963 F45.00
G01 X55.4374 Y-16.2453 F45.00
G01 X55.4152 Y-16.2020 F45.00
G01 X55.3896 Y-16.1577 F45.00
G01 X55.1081 Y-15.6968 F45.00
G00 X55.1081 Y-15.6968
G01 F30.00
G01 Z-1.5000
G01 F45.00
G01 X55.3896 Y-16.1577 F45.00
G01 X55.4152 Y-16.2020 F45.00
G01 X55.4374 Y-16.2453 F45.00
G01 X56.6243 Y-18.6963 F45.00
G01 X56.6444 Y-18.7406 F45.00
G01 X56.6634 Y-18.7881 F45.00
G01 X57.6063 Y-21.3429 F45.00
G01 X57.6220 Y-21.3890 F45.00
G01 X57.6362 Y-21.4381 F45.00
G01 X58.3263 Y-24.0725 F45.00
G01 X58.3380 Y-24.1222 F45.00
G01 X58.3469 Y-24.1701 F45.00
G01 X58.7776 Y-26.8591 F45.00
G01 X58.7843 Y-26.9097 F45.00
G01 X58.7885 Y-26.9582 F45.00
G01 X58.9557 Y-29.6764 F45.00
G01 X58.9576 Y-29.7275 F45.00
G01 X58.9570 Y-29.7761 F45.00
G01 X58.8591 Y-32.4976 F45.00
G01 X58.8560 Y-32.5487 F45.00
G01 X58.8507 Y-32.5971 F45.00
G01 X58.4887 Y-35.2961 F45.00
G01 X58.4806 Y-35.3466 F45.00
G01 X58.4707 Y-35.3943 F45.00
G01 X57.8480 Y-38.0454 F45.00
G01 X57.8357 Y-38.0925 F45.00
G01 X57.8205 Y-38.1413 F45.00
G01 X56.9488 Y-40.7023 F45.00
G00 X56.9488 Y-40.7023
G01 F30.00
G01 Z-1.8000
G01 F45.00
G01 X57.8205 Y-38.1413 F45.00
G01 X57.8357 Y-38.0925 F45.00
G01 X57.8480 Y-38.0454 F45.00
G01 X58.4707 Y-35.3943 F45.00
G01 X58.4806 Y-35.3466 F45.00
G01 X58.4887 Y-35.2961 F45.00
G01 X58.8507 Y-32.5971 F45.00
G01 X58.8560 Y-32.5487 F45.00
G01 X58.8591 Y-32.4976 F45.00
G01 X58.9570 Y-29.7761 F45.00
G01 X58.9576 Y-29.7275 F45.00
G01 X58.9557 Y-29.6764 F45.00
G01 X58.7885 Y-26.9582 F45.00
G01 X58.7843 Y-26.9097 F45.00
G01 X58.7776 Y-26.8591 F45.00
G01 X58.3469 Y-24.1701 F45.00
G01 X58.3380 Y-24.1222 F45.00
G01 X58.3263 Y-24.0725 F45.00
G01 X57.6362 Y-21.4381 F45.00
G01 X57.6220 Y-21.3890 F45.00
G01 X57.6063 Y-21.3429 F45.00
G01 X56.6634 Y-18.7881 F45.00
G01 X56.6444 Y-18.7406 F45.00
G01 X56.6243 Y-18.6963 F45.00
G01 X55.4374 Y-16.2453 F45.00
G01 X55.4152 Y-16.2020 F45.00
G01 X55.3896 Y-16.1577 F45.00
G01 X55.1081 Y-15.6968 F45.00
G00 Z2.0000
G00 X55.9138 Y-43.0023
G01 F30.00
G01 Z-0.3000
G01 F45.00
G01 X55.7823 Y-43.2926 F45.00
G01 X55.7600 Y-43.3386 F45.00
G01 X55.7368 Y-43.3813 F45.00
G01 X54.3769 Y-45.7408 F45.00
G01 X54.3503 Y-45.7844 F45.00
G01 X54.3230 Y-45.8247 F45.00
G01 X52.7402 Y-48.0408 F45.00
G01 X52.7094 Y-48.0816 F45.00
G01 X52.6783 Y-48.1191 F45.00
G01 X50.8876 Y-50.1707 F45.00
G01 X50.8530 Y-50.2084 F45.00
G01 X50.8184 Y-50.2426 F45.00
G01 X48.8367 Y-52.1105 F45.00
G01 X48.7986 Y-52.1446 F45.00
G01 X48.7609 Y-52.1753 F45.00
G01 X46.6069 Y-53.8417 F45.00
G01 X46.5657 Y-53.8719 F45.00
G01 X46.5251 Y-53.8988 F45.00
G01 X45.7578 Y-54.3811 F45.00
G00 X45.7578 Y-54.3811
G01 F30.00
G01 Z-0.6000
G01 F45.00
G01 X46.5251 Y-53.8988 F45.00
G01 X46.5657 Y-53.8719 F45.00
G01 X46.6069 Y-53.8417 F45.00
G01 X48.7609 Y-52.1753 F45.00
G01 X48.7986 Y-52.1446 F45.00
G01 X48.8367 Y-52.1105 F45.00
G01 X50.8184 Y-50.2426 F45.00
G01 X50.8530 Y-50.2084 F45.00
G01 X50.8876 Y-50.1707 F45.00
G01 X52.6783 Y-48.1191 F45.00
G01 X52.7094 Y-48.0816 F45.00
G01 X52.7402 Y-48.0408 F45.00
G01 X54.3230 Y-45.8247 F45.00
G01 X54.3503 Y-45.7844 F45.00
G01 X54.3769 Y-45.7408 F45.00
G01 X55.7368 Y-43.3813 F45.00
G01 X55.7600 Y-43.3386 F45.00
G01 X55.7823 Y-43.2926 F45.00
G01 X55.9138 Y-43.0023 F45.00
G00 X55.9138 Y-43.0023
G01 F30.00
G01 Z-0.9000
G01 F45.00
G01 X55.7823 Y-43.2926 F45.00
G01 X55.7600 Y-43.3386 F45.00
G01 X55.7368 Y-43.3813 F45.00
G01 X54.3769 Y-45.7408 F45.00
G01 X54.3503 Y-45.7844 F45.00
G01 X54.3230 Y-45.8247 F45.00
G01 X52.7402 Y-48.0408 F45.00
G01 X52.7094 Y-48.0816 F45.00
G01 X52.6783 Y-48.1191 F45.00
G01 X50.8876 Y-50.1707 F45.00
G01 X50.8530 Y-50.2084 F45.00
G01 X50.8184 Y-50.2426 F45.00
G01 X48.8367 Y-52.1105 F45.00
G01 X48.7986 Y-52.1446 F45.00
G01 X48.7609 Y-52.1753 F45.00
G01 X46.6069 Y-53.8417 F45.00
G01 X46.5657 Y-53.8719 F45.00
G01 X46.5251 Y-53.8988 F45.00
G01 X45.7578 Y-54.3811 F45.00
G00 X45.7578 Y-54.3811
G01 F30.00
G01 Z-1.2000
G01 F45.00
G01 X46.5251 Y-53.8988 F45.00
G01 X46.5657 Y-53.8719 F45.00
G01 X46.6069 Y-53.8417 F45.00
G01 X48.7609 Y-52.1753 F45.00
G01 X48.7986 Y-52.1446 F45.00
G01 X48.8367 Y-52.1105 F45.00
G01 X50.8184 Y-50.2426 F45.00
G01 X50.8530 Y-50.2084 F45.00
G01 X50.8876 Y-50.1707 F45.00
G01 X52.6783 Y-48.1191 F45.00
G01 X52.7094 Y-48.0816 F45.00
G01 X52.7402 Y-48.0408 F45.00
G01 X54.3230 Y-45.8247 F45.00
G01 X54.3503 Y-45.7844 F45.00
G01 X54.3769 Y-45.7408 F45.00
G01 X55.7368 Y-43.3813 F45.00
G01 X55.7600 Y-43.3386 F45.00
G01 X55.7823 Y-43.2926 F45.00
G01 X55.9138 Y-43.0023 F45.00
G00 X55.9138 Y-43.0023
G01 F30.00
G01 Z-1.5000
G01 F45.00
G01 X55.7823 Y-43.2926 F45.00
G01 X55.7600 Y-43.3386 F45.00
G01 X55.7368 Y-43.3813 F45.00
G01 X54.3769 Y-45.7408 F45.00
G01 X54.3503 Y-45.7844 F45.00
G01 X54.3230 Y-45.8247 F45.00
G01 X52.7402 Y-48.0408 F45.00
G01 X52.7094 Y-48.0816 F45.00
G01 X52.6783 Y-48.1191 F45.00
G01 X50.8876 Y-50.1707 F45.00
G01 X50.8530 Y-50.2084 F45.00
G01 X50.8184 Y-50.2426 F45.00
G01 X48.8367 Y-52.1105 F45.00
G01 X48.7986 Y-52.1446 F45.00
G01 X48.7609 Y-52.1753 F45.00
G01 X46.6069 Y-53.8417 F45.00
G01 X46.5657 Y-53.8719 F45.00
G01 X46.5251 Y-53.8988 F45.00
G01 X45.7578 Y-54.3811 F45.00
G00 X45.7578 Y-54.3811
G01 F30.00
G01 Z-1.8000
G01 F45.00
G01 X46.5251 Y-53.8988 F45.00
G01 X46.5657 Y-53.8719 F45.00
G01 X46.6069 Y-53.8417 F45.00
G01 X48.7609 Y-52.1753 F45.00
G01 X48.7986 Y-52.1446 F45.00
G01 X48.8367 Y-52.1105 F45.00
G01 X50.8184 Y-50.2426 F45.00
G01 X50.8530 Y-50.2084 F45.00
G01 X50.8876 Y-50.1707 F45.00
G01 X52.6783 Y-48.1191 F45.00
G01 X52.7094 Y-48.0816 F45.00
G01 X52.7402 Y-48.0408 F45.00
G01 X54.3230 Y-45.8247 F45.00
G01 X54.3503 Y-45.7844 F45.00
G01 X54.3769 Y-45.7408 F45.00
G01 X55.7368 Y-43.3813 F45.00
G01 X55.7600 Y-43.3386 F45.00
G01 X55.7823 Y-43.2926 F45.00
G01 X55.9138 Y-43.0023 F45.00
G00 Z2.0000
G00 X43.4578 Y-55.5050
G01 F30.00
G01 Z-0.3000
G01 F45.00
G01 X16.6582 Y-55.5050 F45.00
G00 X16.6582 Y-55.5050
G01 F30.00
G01 Z-0.6000
G01 F45.00
G01 X43.4578 Y-55.5050 F45.00
G00 X43.4578 Y-55.5050
G01 F30.00
G01 Z-0.9000
G01 F45.00
G01 X16.6582 Y-55.5050 F45.00
G00 X16.6582 Y-55.5050
G01 F30.00
G01 Z-1.2000
G01 F45.00
G01 X43.4578 Y-55.5050 F45.00
G00 X43.4578 Y-55.5050
G01 F30.00
G01 Z-1.5000
G01 F45.00
G01 X16.6582 Y-55.5050 F45.00
G00 X16.6582 Y-55.5050
G01 F30.00
G01 Z-1.8000
G01 F45.00
G01 X43.4578 Y-55.5050 F45.00
G00 Z2.0000
G00 X14.3582 Y-54.5068
G01 F30.00
G01 Z-0.3000
G01 F45.00
G01 X13.3909 Y-53.8988 F45.00
G01 X13.3483 Y-53.8705 F45.00
G01 X13.3091 Y-53.8417 F45.00
G01 X11.1551 Y-52.1753 F45.00
G01 X11.1174 Y-52.1446 F45.00
G01 X11.0793 Y-52.1105 F45.00
G01 X9.0976 Y-50.2426 F45.00
G01 X9.0613 Y-50.2066 F45.00
G01 X9.0284 Y-50.1707 F45.00
G01 X7.2377 Y-48.1191 F45.00
G01 X7.2050 Y-48.0797 F45.00
G01 X7.1758 Y-48.0408 F45.00
G01 X5.5930 Y-45.8247 F45.00
G01 X5.5644 Y-45.7824 F45.00
G01 X5.5391 Y-45.7408 F45.00
G01 X4.1792 Y-43.3813 F45.00
G01 X4.1549 Y-43.3364 F45.00
G01 X4.1337 Y-43.2926 F45.00
G01 X4.0022 Y-43.0023 F45.00
G00 X4.0022 Y-43.0023
G01 F30.00
G01 Z-0.6000
G01 F45.00
G01 X4.1337 Y-43.2926 F45.00
G01 X4.1549 Y-43.3364 F45.00
G01 X4.1792 Y-43.3813 F45.00
G01 X5.5391 Y-45.7408 F45.00
G01 X5.5644 Y-45.7824 F45.00
G01 X5.5930 Y-45.8247 F45.00
G01 X7.1758 Y-48.0408 F45.00
G01 X7.2050 Y-48.0797 F45.00
G01 X7.2377 Y-48.1191 F45.00
G01 X9.0284 Y-50.1707 F45.00
G01 X9.0613 Y-50.2066 F45.00
G01 X9.0976 Y-50.2426 F45.00
G01 X11.0793 Y-52.1105 F45.00
G01 X11.1174 Y-52.1446 F45.00
G01 X11.1551 Y-52.1753 F45.00
G01 X13.3091 Y-53.8417 F45.00
G01 X13.3483 Y-53.8705 F45.00
G01 X13.3909 Y-53.8988 F45.00
G01 X14.3582 Y-54.5068 F45.00
G00 X14.3582 Y-54.5068
G01 F30.00
G01 Z-0.9000
G01 F45.00
G01 X13.3909 Y-53.8988 F45.00
G01 X13.3483 Y-53.8705 F45.00
G01 X13.3091 Y-53.8417 F45.00
G01 X11.1551 Y-52.1753 F45.00
G01 X11.1174 Y-52.1446 F45.00
G01 X11.0793 Y-52.1105 F45.00
G01 X9.0976 Y-50.2426 F45.00
G01 X9.0613 Y-50.2066 F45.00
G01 X9.0284 Y-50.1707 F45.00
G01 X7.2377 Y-48.1191 F45.00
G01 X7.2050 Y-48.0797 F45.00
G01 X7.1758 Y-48.0408 F45.00
G01 X5.5930 Y-45.8247 F45.00
G01 X5.5644 Y-45.7824 F45.00
G01 X5.5391 Y-45.7408 F45.00
G01 X4.1792 Y-43.3813 F45.00
G01 X4.1549 Y-43.3364 F45.00
G01 X4.1337 Y-43.2926 F45.00
G01 X4.0022 Y-43.0023 F45.00
G00 X4.0022 Y-43.0023
G01 F30.00
G01 Z-1.2000
G01 F45.00
G01 X4.1337 Y-43.2926 F45.00
G01 X4.1549 Y-43.3364 F45.00
G01 X4.1792 Y-43.3813 F45.00
G01 X5.5391 Y-45.7408 F45.00
G01 X5.5644 Y-45.7824 F45.00
G01 X5.5930 Y-45.8247 F45.00
G01 X7.1758 Y-48.0408 F45.00
G01 X7.2050 Y-48.0797 F45.00
G01 X7.2377 Y-48.1191 F45.00
G01 X9.0284 Y-50.1707 F45.00
G01 X9.0613 Y-50.2066 F45.00
G01 X9.0976 Y-50.2426 F45.00
G01 X11.0793 Y-52.1105 F45.00
G01 X11.1174 Y-52.1446 F45.00
G01 X11.1551 Y-52.1753 F45.00
G01 X13.3091 Y-53.8417 F45.00
G01 X13.3483 Y-53.8705 F45.00
G01 X13.3909 Y-53.8988 F45.00
G01 X14.3582 Y-54.5068 F45.00
G00 X14.3582 Y-54.5068
G01 F30.00
G01 Z-1.5000
G01 F45.00
G01 X13.3909 Y-53.8988 F45.00
G01 X13.3483 Y-53.8705 F45.00
G01 X13.3091 Y-53.8417 F45.00
G01 X11.1551 Y-52.1753 F45.00
G01 X11.1174 Y-52.1446 F45.00
G01 X11.0793 Y-52.1105 F45.00
G01 X9.0976 Y-50.2426 F45.00
G01 X9.0613 Y-50.2066 F45.00
G01 X9.0284 Y-50.1707 F45.00
G01 X7.2377 Y-48.1191 F45.00
G01 X7.2050 Y-48.0797 F45.00
G01 X7.1758 Y-48.0408 F45.00
G01 X5.5930 Y-45.8247 F45.00
G01 X5.5644 Y-45.7824 F45.00
G01 X5.5391 Y-45.7408 F45.00
G01 X4.1792 Y-43.3813 F45.00
G01 X4.1549 Y-43.3364 F45.00
G01 X4.1337 Y-43.2926 F45.00
G01 X4.0022 Y-43.0023 F45.00
G00 X4.0022 Y-43.0023
G01 F30.00
G01 Z-1.8000
G01 F45.00
G01 X4.1337 Y-43.2926 F45.00
G01 X4.1549 Y-43.3364 F45.00
G01 X4.1792 Y-43.3813 F45.00
G01 X5.5391 Y-45.7408 F45.00
G01 X5.5644 Y-45.7824 F45.00
G01 X5.5930 Y-45.8247 F45.00
G01 X7.1758 Y-48.0408 F45.00
G01 X7.2050 Y-48.0797 F45.00
G01 X7.2377 Y-48.1191 F45.00
G01 X9.0284 Y-50.1707 F45.00
G01 X9.0613 Y-50.2066 F45.00
G01 X9.0976 Y-50.2426 F45.00
G01 X11.0793 Y-52.1105 F45.00
G01 X11.1174 Y-52.1446 F45.00
G01 X11.1551 Y-52.1753 F45.00
G01 X13.3091 Y-53.8417 F45.00
G01 X13.3483 Y-53.8705 F45.00
G01 X13.3909 Y-53.8988 F45.00
G01 X14.3582 Y-54.5068 F45.00
G00 Z2.0000
G00 X2.9672 Y-40.7023
G01 F30.00
G01 Z-0.3000
G01 F45.00
G01 X2.0955 Y-38.1413 F45.00
G01 X2.0803 Y-38.0925 F45.00
G01 X2.0680 Y-38.0454 F45.00
G01 X1.4453 Y-35.3943 F45.00
G01 X1.4349 Y-35.3442 F45.00
G01 X1.4273 Y-35.2961 F45.00
G01 X1.0653 Y-32.5970 F45.00
G01 X1.0598 Y-32.5462 F45.00
G01 X1.0569 Y-32.4976 F45.00
G01 X0.9590 Y-29.7761 F45.00
G01 X0.9584 Y-29.7275 F45.00
G01 X0.9603 Y-29.6764 F45.00
G01 X1.1275 Y-26.9582 F45.00
G01 X1.1319 Y-26.9073 F45.00
G01 X1.1384 Y-26.8591 F45.00
G01 X1.5691 Y-24.1701 F45.00
G01 X1.5780 Y-24.1222 F45.00
G01 X1.5897 Y-24.0725 F45.00
G01 X2.2798 Y-21.4381 F45.00
G01 X2.2940 Y-21.3890 F45.00
G01 X2.3097 Y-21.3429 F45.00
G01 X3.2526 Y-18.7881 F45.00
G01 X3.2716 Y-18.7406 F45.00
G01 X3.2917 Y-18.6963 F45.00
G01 X4.4786 Y-16.2453 F45.00
G01 X4.5020 Y-16.1999 F45.00
G01 X4.5264 Y-16.1577 F45.00
G01 X4.8079 Y-15.6968 F45.00
G00 X4.8079 Y-15.6968
G01 F30.00
G01 Z-0.6000
G01 F45.00
G01 X4.5264 Y-16.1577 F45.00
G01 X4.5020 Y-16.1999 F45.00
G01 X4.4786 Y-16.2453 F45.00
G01 X3.2917 Y-18.6963 F45.00
G01 X3.2716 Y-18.7406 F45.00
G01 X3.2526 Y-18.7881 F45.00
G01 X2.3097 Y-21.3429 F45.00
G01 X2.2940 Y-21.3890 F45.00
G01 X2.2798 Y-21.4381 F45.00
G01 X1.5897 Y-24.0725 F45.00
G01 X1.5780 Y-24.1222 F45.00
G01 X1.5691 Y-24.1701 F45.00
G01 X1.1384 Y-26.8591 F45.00
G01 X1.1319 Y-26.9073 F45.00
G01 X1.1275 Y-26.9582 F45.00
G01 X0.9603 Y-29.6764 F45.00
G01 X0.9584 Y-29.7275 F45.00
G01 X0.9590 Y-29.7761 F45.00
G01 X1.0569 Y-32.4976 F45.00
G01 X1.0598 Y-32.5462 F45.00
G01 X1.0653 Y-32.5970 F45.00
G01 X1.4273 Y-35.2961 F45.00
G01 X1.4349 Y-35.3442 F45.00
G01 X1.4453 Y-35.3943 F45.00
G01 X2.0680 Y-38.0454 F45.00
G01 X2.0803 Y-38.0925 F45.00
G01 X2.0955 Y-38.1413 F45.00
G01 X2.9672 Y-40.7023 F45.00
G00 X2.9672 Y-40.7023
G01 F30.00
G01 Z-0.9000
G01 F45.00
G01 X2.0955 Y-38.1413 F45.00
G01 X2.0803 Y-38.0925 F45.00
G01 X2.0680 Y-38.0454 F45.00
G01 X1.4453 Y-35.3943 F45.00
G01 X1.4349 Y-35.3442 F45.00
G01 X1.4273 Y-35.2961 F45.00
G01 X1.0653 Y-32.5970 F45.00
G01 X1.0598 Y-32.5462 F45.00
G01 X1.0569 Y-32.4976 F45.00
G01 X0.9590 Y-29.7761 F45.00
G01 X0.9584 Y-29.7275 F45.00
G01 X0.9603 Y-29.6764 F45.00
G01 X1.1275 Y-26.9582 F45.00
G01 X1.1319 Y-26.9073 F45.00
G01 X1.1384 Y-26.8591 F45.00
G01 X1.5691 Y-24.1701 F45.00
G01 X1.5780 Y-24.1222 F45.00
G01 X1.5897 Y-24.0725 F45.00
G01 X2.2798 Y-21.4381 F45.00
G01 X2.2940 Y-21.3890 F45.00
G01 X2.3097 Y-21.3429 F45.00
G01 X3.2526 Y-18.7881 F45.00
G01 X3.2716 Y-18.7406 F45.00
G01 X3.2917 Y-18.6963 F45.00
G01 X4.4786 Y-16.2453 F45.00
G01 X4.5020 Y-16.1999 F45.00
G01 X4.5264 Y-16.1577 F45.00
G01 X4.8079 Y-15.6968 F45.00
G00 X4.8079 Y-15.6968
G01 F30.00
G01 Z-1.2000
G01 F45.00
G01 X4.5264 Y-16.1577 F45.00
G01 X4.5020 Y-16.1999 F45.00
G01 X4.4786 Y-16.2453 F45.00
G01 X3.2917 Y-18.6963 F45.00
G01 X3.2716 Y-18.7406 F45.00
G01 X3.2526 Y-18.7881 F45.00
G01 X2.3097 Y-21.3429 F45.00
G01 X2.2940 Y-21.3890 F45.00
G01 X2.2798 Y-21.4381 F45.00
G01 X1.5897 Y-24.0725 F45.00
G01 X1.5780 Y-24.1222 F45.00
G01 X1.5691 Y-24.1701 F45.00
G01 X1.1384 Y-26.8591 F45.00
G01 X1.1319 Y-26.9073 F45.00
G01 X1.1275 Y-26.9582 F45.00
G01 X0.9603 Y-29.6764 F45.00
G01 X0.9584 Y-29.7275 F45.00
G01 X0.9590 Y-29.7761 F45.00
G01 X1.0569 Y-32.4976 F45.00
G01 X1.0598 Y-32.5462 F45.00
G01 X1.0653 Y-32.5970 F45.00
G01 X1.4273 Y-35.2961 F45.00
G01 X1.4349 Y-35.3442 F45.00
G01 X1.4453 Y-35.3943 F45.00
G01 X2.0680 Y-38.0454 F45.00
G01 X2.0803 Y-38.0925 F45.00
G01 X2.0955 Y-38.1413 F45.00
G01 X2.9672 Y-40.7023 F45.00
G00 X2.9672 Y-40.7023
G01 F30.00
G01 Z-1.5000
G01 F45.00
G01 X2.0955 Y-38.1413 F45.00
G01 X2.0803 Y-38.0925 F45.00
G01 X2.0680 Y-38.0454 F45.00
G01 X1.4453 Y-35.3943 F45.00
G01 X1.4349 Y-35.3442 F45.00
G01 X1.4273 Y-35.2961 F45.00
G01 X1.0653 Y-32.5970 F45.00
G01 X1.0598 Y-32.5462 F45.00
G01 X1.0569 Y-32.4976 F45.00
G01 X0.9590 Y-29.7761 F45.00
G01 X0.9584 Y-29.7275 F45.00
G01 X0.9603 Y-29.6764 F45.00
G01 X1.1275 Y-26.9582 F45.00
G01 X1.1319 Y-26.9073 F45.00
G01 X1.1384 Y-26.8591 F45.00
G01 X1.5691 Y-24.1701 F45.00
G01 X1.5780 Y-24.1222 F45.00
G01 X1.5897 Y-24.0725 F45.00
G01 X2.2798 Y-21.4381 F45.00
G01 X2.2940 Y-21.3890 F45.00
G01 X2.3097 Y-21.3429 F45.00
G01 X3.2526 Y-18.7881 F45.00
G01 X3.2716 Y-18.7406 F45.00
G01 X3.2917 Y-18.6963 F45.00
G01 X4.4786 Y-16.2453 F45.00
G01 X4.5020 Y-16.1999 F45.00
G01 X4.5264 Y-16.1577 F45.00
G01 X4.8079 Y-15.6968 F45.00
G00 X4.8079 Y-15.6968
G01 F30.00
G01 Z-1.8000
G01 F45.00
G01 X4.5264 Y-16.1577 F45.00
G01 X4.5020 Y-16.1999 F45.00
G01 X4.4786 Y-16.2453 F45.00
G01 X3.2917 Y-18.6963 F45.00
G01 X3.2716 Y-18.7406 F45.00
G01 X3.2526 Y-18.7881 F45.00
G01 X2.3097 Y-21.3429 F45.00
G01 X2.2940 Y-21.3890 F45.00
G01 X2.2798 Y-21.4381 F45.00
G01 X1.5897 Y-24.0725 F45.00
G01 X1.5780 Y-24.1222 F45.00
G01 X1.5691 Y-24.1701 F45.00
G01 X1.1384 Y-26.8591 F45.00
G01 X1.1319 Y-26.9073 F45.00
G01 X1.1275 Y-26.9582 F45.00
G01 X0.9603 Y-29.6764 F45.00
G01 X0.9584 Y-29.7275 F45.00
G01 X0.9590 Y-29.7761 F45.00
G01 X1.0569 Y-32.4976 F45.00
G01 X1.0598 Y-32.5462 F45.00
G01 X1.0653 Y-32.5970 F45.00
G01 X1.4273 Y-35.2961 F45.00
G01 X1.4349 Y-35.3442 F45.00
G01 X1.4453 Y-35.3943 F45.00
G01 X2.0680 Y-38.0454 F45.00
G01 X2.0803 Y-38.0925 F45.00
G01 X2.0955 Y-38.1413 F45.00
G01 X2.9672 Y-40.7023 F45.00
G00 Z2.0000
M05
G00 Z2.0000
G00 Z15.00
G00 X0.0 Y0.0


