(G-CODE GENERATED BY FLATCAM v8.994 - www.flatcam.org - Version Date: 2020/11/7)

(Name: night-light.drl_mill_cnc)
(Type: G-code from Geometry)
(Units: MM)

(Created on Monday, 30 May 2022 at 22:59)

(This preprocessor is used with a motion controller loaded with GRBL firmware.)
(It is configured to be compatible with almost any version of GRBL firmware.)

(TOOL DIAMETER: 1.0 mm)
(Feedrate_XY: 45.0 mm/min)
(Feedrate_Z: 30.0 mm/min)
(Feedrate rapids 1500.0 mm/min)

(Z_Cut: -1.8 mm)
(DepthPerCut: 0.3 mm <=>6 passes)
(Z_Move: 2.0 mm)
(Z Start: None mm)
(Z End: 15.0 mm)
(X,Y End: 0.0000, 0.0000 mm)
(Steps per circle: 64)
(Steps per circle: 64)
(Preprocessor Geometry: grbl_11)

(X range:    8.0500 ...    8.3500  mm)
(Y range:  -19.9000 ...   -7.3000  mm)

(Spindle Speed: 12000.0 RPM)
G21
G90
G17
G94


G01 F45.00

M5             
G00 X0.0000 Y0.0000                
T1
M6
(MSG, Change to Tool Dia = 1.0000)
M0
G00 Z2.0000

M03 S12000.0
G01 F45.00
G00 X8.3500 Y-7.4500
G01 F30.00
G01 Z-0.3000
G01 F45.00
G01 X8.3493 Y-7.4647 F45.00
G01 X8.3471 Y-7.4793 F45.00
G01 X8.3435 Y-7.4935 F45.00
G01 X8.3386 Y-7.5074 F45.00
G01 X8.3323 Y-7.5207 F45.00
G01 X8.3247 Y-7.5333 F45.00
G01 X8.3160 Y-7.5452 F45.00
G01 X8.3061 Y-7.5561 F45.00
G01 X8.2952 Y-7.5660 F45.00
G01 X8.2833 Y-7.5747 F45.00
G01 X8.2707 Y-7.5823 F45.00
G01 X8.2574 Y-7.5886 F45.00
G01 X8.2435 Y-7.5935 F45.00
G01 X8.2293 Y-7.5971 F45.00
G01 X8.2147 Y-7.5993 F45.00
G01 X8.2000 Y-7.6000 F45.00
G01 X8.1853 Y-7.5993 F45.00
G01 X8.1707 Y-7.5971 F45.00
G01 X8.1565 Y-7.5935 F45.00
G01 X8.1426 Y-7.5886 F45.00
G01 X8.1293 Y-7.5823 F45.00
G01 X8.1167 Y-7.5747 F45.00
G01 X8.1048 Y-7.5660 F45.00
G01 X8.0939 Y-7.5561 F45.00
G01 X8.0840 Y-7.5452 F45.00
G01 X8.0753 Y-7.5333 F45.00
G01 X8.0677 Y-7.5207 F45.00
G01 X8.0614 Y-7.5074 F45.00
G01 X8.0565 Y-7.4935 F45.00
G01 X8.0529 Y-7.4793 F45.00
G01 X8.0507 Y-7.4647 F45.00
G01 X8.0500 Y-7.4500 F45.00
G01 X8.0507 Y-7.4353 F45.00
G01 X8.0529 Y-7.4207 F45.00
G01 X8.0565 Y-7.4065 F45.00
G01 X8.0614 Y-7.3926 F45.00
G01 X8.0677 Y-7.3793 F45.00
G01 X8.0753 Y-7.3667 F45.00
G01 X8.0840 Y-7.3548 F45.00
G01 X8.0939 Y-7.3439 F45.00
G01 X8.1048 Y-7.3340 F45.00
G01 X8.1167 Y-7.3253 F45.00
G01 X8.1293 Y-7.3177 F45.00
G01 X8.1426 Y-7.3114 F45.00
G01 X8.1565 Y-7.3065 F45.00
G01 X8.1707 Y-7.3029 F45.00
G01 X8.1853 Y-7.3007 F45.00
G01 X8.2000 Y-7.3000 F45.00
G01 X8.2147 Y-7.3007 F45.00
G01 X8.2293 Y-7.3029 F45.00
G01 X8.2435 Y-7.3065 F45.00
G01 X8.2574 Y-7.3114 F45.00
G01 X8.2707 Y-7.3177 F45.00
G01 X8.2833 Y-7.3253 F45.00
G01 X8.2952 Y-7.3340 F45.00
G01 X8.3061 Y-7.3439 F45.00
G01 X8.3160 Y-7.3548 F45.00
G01 X8.3247 Y-7.3667 F45.00
G01 X8.3323 Y-7.3793 F45.00
G01 X8.3386 Y-7.3926 F45.00
G01 X8.3435 Y-7.4065 F45.00
G01 X8.3471 Y-7.4207 F45.00
G01 X8.3493 Y-7.4353 F45.00
G01 X8.3500 Y-7.4500 F45.00
G00 X8.3500 Y-7.4500
G01 F30.00
G01 Z-0.6000
G01 F45.00
G01 X8.3493 Y-7.4647 F45.00
G01 X8.3471 Y-7.4793 F45.00
G01 X8.3435 Y-7.4935 F45.00
G01 X8.3386 Y-7.5074 F45.00
G01 X8.3323 Y-7.5207 F45.00
G01 X8.3247 Y-7.5333 F45.00
G01 X8.3160 Y-7.5452 F45.00
G01 X8.3061 Y-7.5561 F45.00
G01 X8.2952 Y-7.5660 F45.00
G01 X8.2833 Y-7.5747 F45.00
G01 X8.2707 Y-7.5823 F45.00
G01 X8.2574 Y-7.5886 F45.00
G01 X8.2435 Y-7.5935 F45.00
G01 X8.2293 Y-7.5971 F45.00
G01 X8.2147 Y-7.5993 F45.00
G01 X8.2000 Y-7.6000 F45.00
G01 X8.1853 Y-7.5993 F45.00
G01 X8.1707 Y-7.5971 F45.00
G01 X8.1565 Y-7.5935 F45.00
G01 X8.1426 Y-7.5886 F45.00
G01 X8.1293 Y-7.5823 F45.00
G01 X8.1167 Y-7.5747 F45.00
G01 X8.1048 Y-7.5660 F45.00
G01 X8.0939 Y-7.5561 F45.00
G01 X8.0840 Y-7.5452 F45.00
G01 X8.0753 Y-7.5333 F45.00
G01 X8.0677 Y-7.5207 F45.00
G01 X8.0614 Y-7.5074 F45.00
G01 X8.0565 Y-7.4935 F45.00
G01 X8.0529 Y-7.4793 F45.00
G01 X8.0507 Y-7.4647 F45.00
G01 X8.0500 Y-7.4500 F45.00
G01 X8.0507 Y-7.4353 F45.00
G01 X8.0529 Y-7.4207 F45.00
G01 X8.0565 Y-7.4065 F45.00
G01 X8.0614 Y-7.3926 F45.00
G01 X8.0677 Y-7.3793 F45.00
G01 X8.0753 Y-7.3667 F45.00
G01 X8.0840 Y-7.3548 F45.00
G01 X8.0939 Y-7.3439 F45.00
G01 X8.1048 Y-7.3340 F45.00
G01 X8.1167 Y-7.3253 F45.00
G01 X8.1293 Y-7.3177 F45.00
G01 X8.1426 Y-7.3114 F45.00
G01 X8.1565 Y-7.3065 F45.00
G01 X8.1707 Y-7.3029 F45.00
G01 X8.1853 Y-7.3007 F45.00
G01 X8.2000 Y-7.3000 F45.00
G01 X8.2147 Y-7.3007 F45.00
G01 X8.2293 Y-7.3029 F45.00
G01 X8.2435 Y-7.3065 F45.00
G01 X8.2574 Y-7.3114 F45.00
G01 X8.2707 Y-7.3177 F45.00
G01 X8.2833 Y-7.3253 F45.00
G01 X8.2952 Y-7.3340 F45.00
G01 X8.3061 Y-7.3439 F45.00
G01 X8.3160 Y-7.3548 F45.00
G01 X8.3247 Y-7.3667 F45.00
G01 X8.3323 Y-7.3793 F45.00
G01 X8.3386 Y-7.3926 F45.00
G01 X8.3435 Y-7.4065 F45.00
G01 X8.3471 Y-7.4207 F45.00
G01 X8.3493 Y-7.4353 F45.00
G01 X8.3500 Y-7.4500 F45.00
G00 X8.3500 Y-7.4500
G01 F30.00
G01 Z-0.9000
G01 F45.00
G01 X8.3493 Y-7.4647 F45.00
G01 X8.3471 Y-7.4793 F45.00
G01 X8.3435 Y-7.4935 F45.00
G01 X8.3386 Y-7.5074 F45.00
G01 X8.3323 Y-7.5207 F45.00
G01 X8.3247 Y-7.5333 F45.00
G01 X8.3160 Y-7.5452 F45.00
G01 X8.3061 Y-7.5561 F45.00
G01 X8.2952 Y-7.5660 F45.00
G01 X8.2833 Y-7.5747 F45.00
G01 X8.2707 Y-7.5823 F45.00
G01 X8.2574 Y-7.5886 F45.00
G01 X8.2435 Y-7.5935 F45.00
G01 X8.2293 Y-7.5971 F45.00
G01 X8.2147 Y-7.5993 F45.00
G01 X8.2000 Y-7.6000 F45.00
G01 X8.1853 Y-7.5993 F45.00
G01 X8.1707 Y-7.5971 F45.00
G01 X8.1565 Y-7.5935 F45.00
G01 X8.1426 Y-7.5886 F45.00
G01 X8.1293 Y-7.5823 F45.00
G01 X8.1167 Y-7.5747 F45.00
G01 X8.1048 Y-7.5660 F45.00
G01 X8.0939 Y-7.5561 F45.00
G01 X8.0840 Y-7.5452 F45.00
G01 X8.0753 Y-7.5333 F45.00
G01 X8.0677 Y-7.5207 F45.00
G01 X8.0614 Y-7.5074 F45.00
G01 X8.0565 Y-7.4935 F45.00
G01 X8.0529 Y-7.4793 F45.00
G01 X8.0507 Y-7.4647 F45.00
G01 X8.0500 Y-7.4500 F45.00
G01 X8.0507 Y-7.4353 F45.00
G01 X8.0529 Y-7.4207 F45.00
G01 X8.0565 Y-7.4065 F45.00
G01 X8.0614 Y-7.3926 F45.00
G01 X8.0677 Y-7.3793 F45.00
G01 X8.0753 Y-7.3667 F45.00
G01 X8.0840 Y-7.3548 F45.00
G01 X8.0939 Y-7.3439 F45.00
G01 X8.1048 Y-7.3340 F45.00
G01 X8.1167 Y-7.3253 F45.00
G01 X8.1293 Y-7.3177 F45.00
G01 X8.1426 Y-7.3114 F45.00
G01 X8.1565 Y-7.3065 F45.00
G01 X8.1707 Y-7.3029 F45.00
G01 X8.1853 Y-7.3007 F45.00
G01 X8.2000 Y-7.3000 F45.00
G01 X8.2147 Y-7.3007 F45.00
G01 X8.2293 Y-7.3029 F45.00
G01 X8.2435 Y-7.3065 F45.00
G01 X8.2574 Y-7.3114 F45.00
G01 X8.2707 Y-7.3177 F45.00
G01 X8.2833 Y-7.3253 F45.00
G01 X8.2952 Y-7.3340 F45.00
G01 X8.3061 Y-7.3439 F45.00
G01 X8.3160 Y-7.3548 F45.00
G01 X8.3247 Y-7.3667 F45.00
G01 X8.3323 Y-7.3793 F45.00
G01 X8.3386 Y-7.3926 F45.00
G01 X8.3435 Y-7.4065 F45.00
G01 X8.3471 Y-7.4207 F45.00
G01 X8.3493 Y-7.4353 F45.00
G01 X8.3500 Y-7.4500 F45.00
G00 X8.3500 Y-7.4500
G01 F30.00
G01 Z-1.2000
G01 F45.00
G01 X8.3493 Y-7.4647 F45.00
G01 X8.3471 Y-7.4793 F45.00
G01 X8.3435 Y-7.4935 F45.00
G01 X8.3386 Y-7.5074 F45.00
G01 X8.3323 Y-7.5207 F45.00
G01 X8.3247 Y-7.5333 F45.00
G01 X8.3160 Y-7.5452 F45.00
G01 X8.3061 Y-7.5561 F45.00
G01 X8.2952 Y-7.5660 F45.00
G01 X8.2833 Y-7.5747 F45.00
G01 X8.2707 Y-7.5823 F45.00
G01 X8.2574 Y-7.5886 F45.00
G01 X8.2435 Y-7.5935 F45.00
G01 X8.2293 Y-7.5971 F45.00
G01 X8.2147 Y-7.5993 F45.00
G01 X8.2000 Y-7.6000 F45.00
G01 X8.1853 Y-7.5993 F45.00
G01 X8.1707 Y-7.5971 F45.00
G01 X8.1565 Y-7.5935 F45.00
G01 X8.1426 Y-7.5886 F45.00
G01 X8.1293 Y-7.5823 F45.00
G01 X8.1167 Y-7.5747 F45.00
G01 X8.1048 Y-7.5660 F45.00
G01 X8.0939 Y-7.5561 F45.00
G01 X8.0840 Y-7.5452 F45.00
G01 X8.0753 Y-7.5333 F45.00
G01 X8.0677 Y-7.5207 F45.00
G01 X8.0614 Y-7.5074 F45.00
G01 X8.0565 Y-7.4935 F45.00
G01 X8.0529 Y-7.4793 F45.00
G01 X8.0507 Y-7.4647 F45.00
G01 X8.0500 Y-7.4500 F45.00
G01 X8.0507 Y-7.4353 F45.00
G01 X8.0529 Y-7.4207 F45.00
G01 X8.0565 Y-7.4065 F45.00
G01 X8.0614 Y-7.3926 F45.00
G01 X8.0677 Y-7.3793 F45.00
G01 X8.0753 Y-7.3667 F45.00
G01 X8.0840 Y-7.3548 F45.00
G01 X8.0939 Y-7.3439 F45.00
G01 X8.1048 Y-7.3340 F45.00
G01 X8.1167 Y-7.3253 F45.00
G01 X8.1293 Y-7.3177 F45.00
G01 X8.1426 Y-7.3114 F45.00
G01 X8.1565 Y-7.3065 F45.00
G01 X8.1707 Y-7.3029 F45.00
G01 X8.1853 Y-7.3007 F45.00
G01 X8.2000 Y-7.3000 F45.00
G01 X8.2147 Y-7.3007 F45.00
G01 X8.2293 Y-7.3029 F45.00
G01 X8.2435 Y-7.3065 F45.00
G01 X8.2574 Y-7.3114 F45.00
G01 X8.2707 Y-7.3177 F45.00
G01 X8.2833 Y-7.3253 F45.00
G01 X8.2952 Y-7.3340 F45.00
G01 X8.3061 Y-7.3439 F45.00
G01 X8.3160 Y-7.3548 F45.00
G01 X8.3247 Y-7.3667 F45.00
G01 X8.3323 Y-7.3793 F45.00
G01 X8.3386 Y-7.3926 F45.00
G01 X8.3435 Y-7.4065 F45.00
G01 X8.3471 Y-7.4207 F45.00
G01 X8.3493 Y-7.4353 F45.00
G01 X8.3500 Y-7.4500 F45.00
G00 X8.3500 Y-7.4500
G01 F30.00
G01 Z-1.5000
G01 F45.00
G01 X8.3493 Y-7.4647 F45.00
G01 X8.3471 Y-7.4793 F45.00
G01 X8.3435 Y-7.4935 F45.00
G01 X8.3386 Y-7.5074 F45.00
G01 X8.3323 Y-7.5207 F45.00
G01 X8.3247 Y-7.5333 F45.00
G01 X8.3160 Y-7.5452 F45.00
G01 X8.3061 Y-7.5561 F45.00
G01 X8.2952 Y-7.5660 F45.00
G01 X8.2833 Y-7.5747 F45.00
G01 X8.2707 Y-7.5823 F45.00
G01 X8.2574 Y-7.5886 F45.00
G01 X8.2435 Y-7.5935 F45.00
G01 X8.2293 Y-7.5971 F45.00
G01 X8.2147 Y-7.5993 F45.00
G01 X8.2000 Y-7.6000 F45.00
G01 X8.1853 Y-7.5993 F45.00
G01 X8.1707 Y-7.5971 F45.00
G01 X8.1565 Y-7.5935 F45.00
G01 X8.1426 Y-7.5886 F45.00
G01 X8.1293 Y-7.5823 F45.00
G01 X8.1167 Y-7.5747 F45.00
G01 X8.1048 Y-7.5660 F45.00
G01 X8.0939 Y-7.5561 F45.00
G01 X8.0840 Y-7.5452 F45.00
G01 X8.0753 Y-7.5333 F45.00
G01 X8.0677 Y-7.5207 F45.00
G01 X8.0614 Y-7.5074 F45.00
G01 X8.0565 Y-7.4935 F45.00
G01 X8.0529 Y-7.4793 F45.00
G01 X8.0507 Y-7.4647 F45.00
G01 X8.0500 Y-7.4500 F45.00
G01 X8.0507 Y-7.4353 F45.00
G01 X8.0529 Y-7.4207 F45.00
G01 X8.0565 Y-7.4065 F45.00
G01 X8.0614 Y-7.3926 F45.00
G01 X8.0677 Y-7.3793 F45.00
G01 X8.0753 Y-7.3667 F45.00
G01 X8.0840 Y-7.3548 F45.00
G01 X8.0939 Y-7.3439 F45.00
G01 X8.1048 Y-7.3340 F45.00
G01 X8.1167 Y-7.3253 F45.00
G01 X8.1293 Y-7.3177 F45.00
G01 X8.1426 Y-7.3114 F45.00
G01 X8.1565 Y-7.3065 F45.00
G01 X8.1707 Y-7.3029 F45.00
G01 X8.1853 Y-7.3007 F45.00
G01 X8.2000 Y-7.3000 F45.00
G01 X8.2147 Y-7.3007 F45.00
G01 X8.2293 Y-7.3029 F45.00
G01 X8.2435 Y-7.3065 F45.00
G01 X8.2574 Y-7.3114 F45.00
G01 X8.2707 Y-7.3177 F45.00
G01 X8.2833 Y-7.3253 F45.00
G01 X8.2952 Y-7.3340 F45.00
G01 X8.3061 Y-7.3439 F45.00
G01 X8.3160 Y-7.3548 F45.00
G01 X8.3247 Y-7.3667 F45.00
G01 X8.3323 Y-7.3793 F45.00
G01 X8.3386 Y-7.3926 F45.00
G01 X8.3435 Y-7.4065 F45.00
G01 X8.3471 Y-7.4207 F45.00
G01 X8.3493 Y-7.4353 F45.00
G01 X8.3500 Y-7.4500 F45.00
G00 X8.3500 Y-7.4500
G01 F30.00
G01 Z-1.8000
G01 F45.00
G01 X8.3493 Y-7.4647 F45.00
G01 X8.3471 Y-7.4793 F45.00
G01 X8.3435 Y-7.4935 F45.00
G01 X8.3386 Y-7.5074 F45.00
G01 X8.3323 Y-7.5207 F45.00
G01 X8.3247 Y-7.5333 F45.00
G01 X8.3160 Y-7.5452 F45.00
G01 X8.3061 Y-7.5561 F45.00
G01 X8.2952 Y-7.5660 F45.00
G01 X8.2833 Y-7.5747 F45.00
G01 X8.2707 Y-7.5823 F45.00
G01 X8.2574 Y-7.5886 F45.00
G01 X8.2435 Y-7.5935 F45.00
G01 X8.2293 Y-7.5971 F45.00
G01 X8.2147 Y-7.5993 F45.00
G01 X8.2000 Y-7.6000 F45.00
G01 X8.1853 Y-7.5993 F45.00
G01 X8.1707 Y-7.5971 F45.00
G01 X8.1565 Y-7.5935 F45.00
G01 X8.1426 Y-7.5886 F45.00
G01 X8.1293 Y-7.5823 F45.00
G01 X8.1167 Y-7.5747 F45.00
G01 X8.1048 Y-7.5660 F45.00
G01 X8.0939 Y-7.5561 F45.00
G01 X8.0840 Y-7.5452 F45.00
G01 X8.0753 Y-7.5333 F45.00
G01 X8.0677 Y-7.5207 F45.00
G01 X8.0614 Y-7.5074 F45.00
G01 X8.0565 Y-7.4935 F45.00
G01 X8.0529 Y-7.4793 F45.00
G01 X8.0507 Y-7.4647 F45.00
G01 X8.0500 Y-7.4500 F45.00
G01 X8.0507 Y-7.4353 F45.00
G01 X8.0529 Y-7.4207 F45.00
G01 X8.0565 Y-7.4065 F45.00
G01 X8.0614 Y-7.3926 F45.00
G01 X8.0677 Y-7.3793 F45.00
G01 X8.0753 Y-7.3667 F45.00
G01 X8.0840 Y-7.3548 F45.00
G01 X8.0939 Y-7.3439 F45.00
G01 X8.1048 Y-7.3340 F45.00
G01 X8.1167 Y-7.3253 F45.00
G01 X8.1293 Y-7.3177 F45.00
G01 X8.1426 Y-7.3114 F45.00
G01 X8.1565 Y-7.3065 F45.00
G01 X8.1707 Y-7.3029 F45.00
G01 X8.1853 Y-7.3007 F45.00
G01 X8.2000 Y-7.3000 F45.00
G01 X8.2147 Y-7.3007 F45.00
G01 X8.2293 Y-7.3029 F45.00
G01 X8.2435 Y-7.3065 F45.00
G01 X8.2574 Y-7.3114 F45.00
G01 X8.2707 Y-7.3177 F45.00
G01 X8.2833 Y-7.3253 F45.00
G01 X8.2952 Y-7.3340 F45.00
G01 X8.3061 Y-7.3439 F45.00
G01 X8.3160 Y-7.3548 F45.00
G01 X8.3247 Y-7.3667 F45.00
G01 X8.3323 Y-7.3793 F45.00
G01 X8.3386 Y-7.3926 F45.00
G01 X8.3435 Y-7.4065 F45.00
G01 X8.3471 Y-7.4207 F45.00
G01 X8.3493 Y-7.4353 F45.00
G01 X8.3500 Y-7.4500 F45.00
G00 Z2.0000
G00 X8.3500 Y-19.7500
G01 F30.00
G01 Z-0.3000
G01 F45.00
G01 X8.3493 Y-19.7647 F45.00
G01 X8.3471 Y-19.7793 F45.00
G01 X8.3435 Y-19.7935 F45.00
G01 X8.3386 Y-19.8074 F45.00
G01 X8.3323 Y-19.8207 F45.00
G01 X8.3247 Y-19.8333 F45.00
G01 X8.3160 Y-19.8452 F45.00
G01 X8.3061 Y-19.8561 F45.00
G01 X8.2952 Y-19.8660 F45.00
G01 X8.2833 Y-19.8747 F45.00
G01 X8.2707 Y-19.8823 F45.00
G01 X8.2574 Y-19.8886 F45.00
G01 X8.2435 Y-19.8935 F45.00
G01 X8.2293 Y-19.8971 F45.00
G01 X8.2147 Y-19.8993 F45.00
G01 X8.2000 Y-19.9000 F45.00
G01 X8.1853 Y-19.8993 F45.00
G01 X8.1707 Y-19.8971 F45.00
G01 X8.1565 Y-19.8935 F45.00
G01 X8.1426 Y-19.8886 F45.00
G01 X8.1293 Y-19.8823 F45.00
G01 X8.1167 Y-19.8747 F45.00
G01 X8.1048 Y-19.8660 F45.00
G01 X8.0939 Y-19.8561 F45.00
G01 X8.0840 Y-19.8452 F45.00
G01 X8.0753 Y-19.8333 F45.00
G01 X8.0677 Y-19.8207 F45.00
G01 X8.0614 Y-19.8074 F45.00
G01 X8.0565 Y-19.7935 F45.00
G01 X8.0529 Y-19.7793 F45.00
G01 X8.0507 Y-19.7647 F45.00
G01 X8.0500 Y-19.7500 F45.00
G01 X8.0507 Y-19.7353 F45.00
G01 X8.0529 Y-19.7207 F45.00
G01 X8.0565 Y-19.7065 F45.00
G01 X8.0614 Y-19.6926 F45.00
G01 X8.0677 Y-19.6793 F45.00
G01 X8.0753 Y-19.6667 F45.00
G01 X8.0840 Y-19.6548 F45.00
G01 X8.0939 Y-19.6439 F45.00
G01 X8.1048 Y-19.6340 F45.00
G01 X8.1167 Y-19.6253 F45.00
G01 X8.1293 Y-19.6177 F45.00
G01 X8.1426 Y-19.6114 F45.00
G01 X8.1565 Y-19.6065 F45.00
G01 X8.1707 Y-19.6029 F45.00
G01 X8.1853 Y-19.6007 F45.00
G01 X8.2000 Y-19.6000 F45.00
G01 X8.2147 Y-19.6007 F45.00
G01 X8.2293 Y-19.6029 F45.00
G01 X8.2435 Y-19.6065 F45.00
G01 X8.2574 Y-19.6114 F45.00
G01 X8.2707 Y-19.6177 F45.00
G01 X8.2833 Y-19.6253 F45.00
G01 X8.2952 Y-19.6340 F45.00
G01 X8.3061 Y-19.6439 F45.00
G01 X8.3160 Y-19.6548 F45.00
G01 X8.3247 Y-19.6667 F45.00
G01 X8.3323 Y-19.6793 F45.00
G01 X8.3386 Y-19.6926 F45.00
G01 X8.3435 Y-19.7065 F45.00
G01 X8.3471 Y-19.7207 F45.00
G01 X8.3493 Y-19.7353 F45.00
G01 X8.3500 Y-19.7500 F45.00
G00 X8.3500 Y-19.7500
G01 F30.00
G01 Z-0.6000
G01 F45.00
G01 X8.3493 Y-19.7647 F45.00
G01 X8.3471 Y-19.7793 F45.00
G01 X8.3435 Y-19.7935 F45.00
G01 X8.3386 Y-19.8074 F45.00
G01 X8.3323 Y-19.8207 F45.00
G01 X8.3247 Y-19.8333 F45.00
G01 X8.3160 Y-19.8452 F45.00
G01 X8.3061 Y-19.8561 F45.00
G01 X8.2952 Y-19.8660 F45.00
G01 X8.2833 Y-19.8747 F45.00
G01 X8.2707 Y-19.8823 F45.00
G01 X8.2574 Y-19.8886 F45.00
G01 X8.2435 Y-19.8935 F45.00
G01 X8.2293 Y-19.8971 F45.00
G01 X8.2147 Y-19.8993 F45.00
G01 X8.2000 Y-19.9000 F45.00
G01 X8.1853 Y-19.8993 F45.00
G01 X8.1707 Y-19.8971 F45.00
G01 X8.1565 Y-19.8935 F45.00
G01 X8.1426 Y-19.8886 F45.00
G01 X8.1293 Y-19.8823 F45.00
G01 X8.1167 Y-19.8747 F45.00
G01 X8.1048 Y-19.8660 F45.00
G01 X8.0939 Y-19.8561 F45.00
G01 X8.0840 Y-19.8452 F45.00
G01 X8.0753 Y-19.8333 F45.00
G01 X8.0677 Y-19.8207 F45.00
G01 X8.0614 Y-19.8074 F45.00
G01 X8.0565 Y-19.7935 F45.00
G01 X8.0529 Y-19.7793 F45.00
G01 X8.0507 Y-19.7647 F45.00
G01 X8.0500 Y-19.7500 F45.00
G01 X8.0507 Y-19.7353 F45.00
G01 X8.0529 Y-19.7207 F45.00
G01 X8.0565 Y-19.7065 F45.00
G01 X8.0614 Y-19.6926 F45.00
G01 X8.0677 Y-19.6793 F45.00
G01 X8.0753 Y-19.6667 F45.00
G01 X8.0840 Y-19.6548 F45.00
G01 X8.0939 Y-19.6439 F45.00
G01 X8.1048 Y-19.6340 F45.00
G01 X8.1167 Y-19.6253 F45.00
G01 X8.1293 Y-19.6177 F45.00
G01 X8.1426 Y-19.6114 F45.00
G01 X8.1565 Y-19.6065 F45.00
G01 X8.1707 Y-19.6029 F45.00
G01 X8.1853 Y-19.6007 F45.00
G01 X8.2000 Y-19.6000 F45.00
G01 X8.2147 Y-19.6007 F45.00
G01 X8.2293 Y-19.6029 F45.00
G01 X8.2435 Y-19.6065 F45.00
G01 X8.2574 Y-19.6114 F45.00
G01 X8.2707 Y-19.6177 F45.00
G01 X8.2833 Y-19.6253 F45.00
G01 X8.2952 Y-19.6340 F45.00
G01 X8.3061 Y-19.6439 F45.00
G01 X8.3160 Y-19.6548 F45.00
G01 X8.3247 Y-19.6667 F45.00
G01 X8.3323 Y-19.6793 F45.00
G01 X8.3386 Y-19.6926 F45.00
G01 X8.3435 Y-19.7065 F45.00
G01 X8.3471 Y-19.7207 F45.00
G01 X8.3493 Y-19.7353 F45.00
G01 X8.3500 Y-19.7500 F45.00
G00 X8.3500 Y-19.7500
G01 F30.00
G01 Z-0.9000
G01 F45.00
G01 X8.3493 Y-19.7647 F45.00
G01 X8.3471 Y-19.7793 F45.00
G01 X8.3435 Y-19.7935 F45.00
G01 X8.3386 Y-19.8074 F45.00
G01 X8.3323 Y-19.8207 F45.00
G01 X8.3247 Y-19.8333 F45.00
G01 X8.3160 Y-19.8452 F45.00
G01 X8.3061 Y-19.8561 F45.00
G01 X8.2952 Y-19.8660 F45.00
G01 X8.2833 Y-19.8747 F45.00
G01 X8.2707 Y-19.8823 F45.00
G01 X8.2574 Y-19.8886 F45.00
G01 X8.2435 Y-19.8935 F45.00
G01 X8.2293 Y-19.8971 F45.00
G01 X8.2147 Y-19.8993 F45.00
G01 X8.2000 Y-19.9000 F45.00
G01 X8.1853 Y-19.8993 F45.00
G01 X8.1707 Y-19.8971 F45.00
G01 X8.1565 Y-19.8935 F45.00
G01 X8.1426 Y-19.8886 F45.00
G01 X8.1293 Y-19.8823 F45.00
G01 X8.1167 Y-19.8747 F45.00
G01 X8.1048 Y-19.8660 F45.00
G01 X8.0939 Y-19.8561 F45.00
G01 X8.0840 Y-19.8452 F45.00
G01 X8.0753 Y-19.8333 F45.00
G01 X8.0677 Y-19.8207 F45.00
G01 X8.0614 Y-19.8074 F45.00
G01 X8.0565 Y-19.7935 F45.00
G01 X8.0529 Y-19.7793 F45.00
G01 X8.0507 Y-19.7647 F45.00
G01 X8.0500 Y-19.7500 F45.00
G01 X8.0507 Y-19.7353 F45.00
G01 X8.0529 Y-19.7207 F45.00
G01 X8.0565 Y-19.7065 F45.00
G01 X8.0614 Y-19.6926 F45.00
G01 X8.0677 Y-19.6793 F45.00
G01 X8.0753 Y-19.6667 F45.00
G01 X8.0840 Y-19.6548 F45.00
G01 X8.0939 Y-19.6439 F45.00
G01 X8.1048 Y-19.6340 F45.00
G01 X8.1167 Y-19.6253 F45.00
G01 X8.1293 Y-19.6177 F45.00
G01 X8.1426 Y-19.6114 F45.00
G01 X8.1565 Y-19.6065 F45.00
G01 X8.1707 Y-19.6029 F45.00
G01 X8.1853 Y-19.6007 F45.00
G01 X8.2000 Y-19.6000 F45.00
G01 X8.2147 Y-19.6007 F45.00
G01 X8.2293 Y-19.6029 F45.00
G01 X8.2435 Y-19.6065 F45.00
G01 X8.2574 Y-19.6114 F45.00
G01 X8.2707 Y-19.6177 F45.00
G01 X8.2833 Y-19.6253 F45.00
G01 X8.2952 Y-19.6340 F45.00
G01 X8.3061 Y-19.6439 F45.00
G01 X8.3160 Y-19.6548 F45.00
G01 X8.3247 Y-19.6667 F45.00
G01 X8.3323 Y-19.6793 F45.00
G01 X8.3386 Y-19.6926 F45.00
G01 X8.3435 Y-19.7065 F45.00
G01 X8.3471 Y-19.7207 F45.00
G01 X8.3493 Y-19.7353 F45.00
G01 X8.3500 Y-19.7500 F45.00
G00 X8.3500 Y-19.7500
G01 F30.00
G01 Z-1.2000
G01 F45.00
G01 X8.3493 Y-19.7647 F45.00
G01 X8.3471 Y-19.7793 F45.00
G01 X8.3435 Y-19.7935 F45.00
G01 X8.3386 Y-19.8074 F45.00
G01 X8.3323 Y-19.8207 F45.00
G01 X8.3247 Y-19.8333 F45.00
G01 X8.3160 Y-19.8452 F45.00
G01 X8.3061 Y-19.8561 F45.00
G01 X8.2952 Y-19.8660 F45.00
G01 X8.2833 Y-19.8747 F45.00
G01 X8.2707 Y-19.8823 F45.00
G01 X8.2574 Y-19.8886 F45.00
G01 X8.2435 Y-19.8935 F45.00
G01 X8.2293 Y-19.8971 F45.00
G01 X8.2147 Y-19.8993 F45.00
G01 X8.2000 Y-19.9000 F45.00
G01 X8.1853 Y-19.8993 F45.00
G01 X8.1707 Y-19.8971 F45.00
G01 X8.1565 Y-19.8935 F45.00
G01 X8.1426 Y-19.8886 F45.00
G01 X8.1293 Y-19.8823 F45.00
G01 X8.1167 Y-19.8747 F45.00
G01 X8.1048 Y-19.8660 F45.00
G01 X8.0939 Y-19.8561 F45.00
G01 X8.0840 Y-19.8452 F45.00
G01 X8.0753 Y-19.8333 F45.00
G01 X8.0677 Y-19.8207 F45.00
G01 X8.0614 Y-19.8074 F45.00
G01 X8.0565 Y-19.7935 F45.00
G01 X8.0529 Y-19.7793 F45.00
G01 X8.0507 Y-19.7647 F45.00
G01 X8.0500 Y-19.7500 F45.00
G01 X8.0507 Y-19.7353 F45.00
G01 X8.0529 Y-19.7207 F45.00
G01 X8.0565 Y-19.7065 F45.00
G01 X8.0614 Y-19.6926 F45.00
G01 X8.0677 Y-19.6793 F45.00
G01 X8.0753 Y-19.6667 F45.00
G01 X8.0840 Y-19.6548 F45.00
G01 X8.0939 Y-19.6439 F45.00
G01 X8.1048 Y-19.6340 F45.00
G01 X8.1167 Y-19.6253 F45.00
G01 X8.1293 Y-19.6177 F45.00
G01 X8.1426 Y-19.6114 F45.00
G01 X8.1565 Y-19.6065 F45.00
G01 X8.1707 Y-19.6029 F45.00
G01 X8.1853 Y-19.6007 F45.00
G01 X8.2000 Y-19.6000 F45.00
G01 X8.2147 Y-19.6007 F45.00
G01 X8.2293 Y-19.6029 F45.00
G01 X8.2435 Y-19.6065 F45.00
G01 X8.2574 Y-19.6114 F45.00
G01 X8.2707 Y-19.6177 F45.00
G01 X8.2833 Y-19.6253 F45.00
G01 X8.2952 Y-19.6340 F45.00
G01 X8.3061 Y-19.6439 F45.00
G01 X8.3160 Y-19.6548 F45.00
G01 X8.3247 Y-19.6667 F45.00
G01 X8.3323 Y-19.6793 F45.00
G01 X8.3386 Y-19.6926 F45.00
G01 X8.3435 Y-19.7065 F45.00
G01 X8.3471 Y-19.7207 F45.00
G01 X8.3493 Y-19.7353 F45.00
G01 X8.3500 Y-19.7500 F45.00
G00 X8.3500 Y-19.7500
G01 F30.00
G01 Z-1.5000
G01 F45.00
G01 X8.3493 Y-19.7647 F45.00
G01 X8.3471 Y-19.7793 F45.00
G01 X8.3435 Y-19.7935 F45.00
G01 X8.3386 Y-19.8074 F45.00
G01 X8.3323 Y-19.8207 F45.00
G01 X8.3247 Y-19.8333 F45.00
G01 X8.3160 Y-19.8452 F45.00
G01 X8.3061 Y-19.8561 F45.00
G01 X8.2952 Y-19.8660 F45.00
G01 X8.2833 Y-19.8747 F45.00
G01 X8.2707 Y-19.8823 F45.00
G01 X8.2574 Y-19.8886 F45.00
G01 X8.2435 Y-19.8935 F45.00
G01 X8.2293 Y-19.8971 F45.00
G01 X8.2147 Y-19.8993 F45.00
G01 X8.2000 Y-19.9000 F45.00
G01 X8.1853 Y-19.8993 F45.00
G01 X8.1707 Y-19.8971 F45.00
G01 X8.1565 Y-19.8935 F45.00
G01 X8.1426 Y-19.8886 F45.00
G01 X8.1293 Y-19.8823 F45.00
G01 X8.1167 Y-19.8747 F45.00
G01 X8.1048 Y-19.8660 F45.00
G01 X8.0939 Y-19.8561 F45.00
G01 X8.0840 Y-19.8452 F45.00
G01 X8.0753 Y-19.8333 F45.00
G01 X8.0677 Y-19.8207 F45.00
G01 X8.0614 Y-19.8074 F45.00
G01 X8.0565 Y-19.7935 F45.00
G01 X8.0529 Y-19.7793 F45.00
G01 X8.0507 Y-19.7647 F45.00
G01 X8.0500 Y-19.7500 F45.00
G01 X8.0507 Y-19.7353 F45.00
G01 X8.0529 Y-19.7207 F45.00
G01 X8.0565 Y-19.7065 F45.00
G01 X8.0614 Y-19.6926 F45.00
G01 X8.0677 Y-19.6793 F45.00
G01 X8.0753 Y-19.6667 F45.00
G01 X8.0840 Y-19.6548 F45.00
G01 X8.0939 Y-19.6439 F45.00
G01 X8.1048 Y-19.6340 F45.00
G01 X8.1167 Y-19.6253 F45.00
G01 X8.1293 Y-19.6177 F45.00
G01 X8.1426 Y-19.6114 F45.00
G01 X8.1565 Y-19.6065 F45.00
G01 X8.1707 Y-19.6029 F45.00
G01 X8.1853 Y-19.6007 F45.00
G01 X8.2000 Y-19.6000 F45.00
G01 X8.2147 Y-19.6007 F45.00
G01 X8.2293 Y-19.6029 F45.00
G01 X8.2435 Y-19.6065 F45.00
G01 X8.2574 Y-19.6114 F45.00
G01 X8.2707 Y-19.6177 F45.00
G01 X8.2833 Y-19.6253 F45.00
G01 X8.2952 Y-19.6340 F45.00
G01 X8.3061 Y-19.6439 F45.00
G01 X8.3160 Y-19.6548 F45.00
G01 X8.3247 Y-19.6667 F45.00
G01 X8.3323 Y-19.6793 F45.00
G01 X8.3386 Y-19.6926 F45.00
G01 X8.3435 Y-19.7065 F45.00
G01 X8.3471 Y-19.7207 F45.00
G01 X8.3493 Y-19.7353 F45.00
G01 X8.3500 Y-19.7500 F45.00
G00 X8.3500 Y-19.7500
G01 F30.00
G01 Z-1.8000
G01 F45.00
G01 X8.3493 Y-19.7647 F45.00
G01 X8.3471 Y-19.7793 F45.00
G01 X8.3435 Y-19.7935 F45.00
G01 X8.3386 Y-19.8074 F45.00
G01 X8.3323 Y-19.8207 F45.00
G01 X8.3247 Y-19.8333 F45.00
G01 X8.3160 Y-19.8452 F45.00
G01 X8.3061 Y-19.8561 F45.00
G01 X8.2952 Y-19.8660 F45.00
G01 X8.2833 Y-19.8747 F45.00
G01 X8.2707 Y-19.8823 F45.00
G01 X8.2574 Y-19.8886 F45.00
G01 X8.2435 Y-19.8935 F45.00
G01 X8.2293 Y-19.8971 F45.00
G01 X8.2147 Y-19.8993 F45.00
G01 X8.2000 Y-19.9000 F45.00
G01 X8.1853 Y-19.8993 F45.00
G01 X8.1707 Y-19.8971 F45.00
G01 X8.1565 Y-19.8935 F45.00
G01 X8.1426 Y-19.8886 F45.00
G01 X8.1293 Y-19.8823 F45.00
G01 X8.1167 Y-19.8747 F45.00
G01 X8.1048 Y-19.8660 F45.00
G01 X8.0939 Y-19.8561 F45.00
G01 X8.0840 Y-19.8452 F45.00
G01 X8.0753 Y-19.8333 F45.00
G01 X8.0677 Y-19.8207 F45.00
G01 X8.0614 Y-19.8074 F45.00
G01 X8.0565 Y-19.7935 F45.00
G01 X8.0529 Y-19.7793 F45.00
G01 X8.0507 Y-19.7647 F45.00
G01 X8.0500 Y-19.7500 F45.00
G01 X8.0507 Y-19.7353 F45.00
G01 X8.0529 Y-19.7207 F45.00
G01 X8.0565 Y-19.7065 F45.00
G01 X8.0614 Y-19.6926 F45.00
G01 X8.0677 Y-19.6793 F45.00
G01 X8.0753 Y-19.6667 F45.00
G01 X8.0840 Y-19.6548 F45.00
G01 X8.0939 Y-19.6439 F45.00
G01 X8.1048 Y-19.6340 F45.00
G01 X8.1167 Y-19.6253 F45.00
G01 X8.1293 Y-19.6177 F45.00
G01 X8.1426 Y-19.6114 F45.00
G01 X8.1565 Y-19.6065 F45.00
G01 X8.1707 Y-19.6029 F45.00
G01 X8.1853 Y-19.6007 F45.00
G01 X8.2000 Y-19.6000 F45.00
G01 X8.2147 Y-19.6007 F45.00
G01 X8.2293 Y-19.6029 F45.00
G01 X8.2435 Y-19.6065 F45.00
G01 X8.2574 Y-19.6114 F45.00
G01 X8.2707 Y-19.6177 F45.00
G01 X8.2833 Y-19.6253 F45.00
G01 X8.2952 Y-19.6340 F45.00
G01 X8.3061 Y-19.6439 F45.00
G01 X8.3160 Y-19.6548 F45.00
G01 X8.3247 Y-19.6667 F45.00
G01 X8.3323 Y-19.6793 F45.00
G01 X8.3386 Y-19.6926 F45.00
G01 X8.3435 Y-19.7065 F45.00
G01 X8.3471 Y-19.7207 F45.00
G01 X8.3493 Y-19.7353 F45.00
G01 X8.3500 Y-19.7500 F45.00
G00 Z2.0000
M05
G00 Z2.0000
G00 Z15.00
G00 X0.0 Y0.0


