(G-CODE GENERATED BY FLATCAM v8.994 - www.flatcam.org - Version Date: 2020/11/7)

(Name: night-light.drl_mill_1_cnc)
(Type: G-code from Geometry)
(Units: MM)

(Created on Monday, 30 May 2022 at 23:01)

(This preprocessor is used with a motion controller loaded with GRBL firmware.)
(It is configured to be compatible with almost any version of GRBL firmware.)

(TOOL DIAMETER: 1.0 mm)
(Feedrate_XY: 45.0 mm/min)
(Feedrate_Z: 30.0 mm/min)
(Feedrate rapids 1500.0 mm/min)

(Z_Cut: -1.8 mm)
(DepthPerCut: 0.3 mm <=>6 passes)
(Z_Move: 2.0 mm)
(Z Start: None mm)
(Z End: 15.0 mm)
(X,Y End: 0.0000, 0.0000 mm)
(Steps per circle: 64)
(Steps per circle: 64)
(Preprocessor Geometry: grbl_11)

(X range:    6.0500 ...   38.5500  mm)
(Y range:  -46.8500 ...   -3.8500  mm)

(Spindle Speed: 12000.0 RPM)
G21
G90
G17
G94


G01 F45.00

M5             
G00 X0.0000 Y0.0000                

G00 Z2.0000

M03 S12000.0
G01 F45.00
G00 X7.5500 Y-4.6000
G01 F30.00
G01 Z-0.3000
G01 F45.00
G01 X7.5464 Y-4.6735 F45.00
G01 X7.5356 Y-4.7463 F45.00
G01 X7.5177 Y-4.8177 F45.00
G01 X7.4929 Y-4.8870 F45.00
G01 X7.4614 Y-4.9535 F45.00
G01 X7.4236 Y-5.0167 F45.00
G01 X7.3798 Y-5.0758 F45.00
G01 X7.3303 Y-5.1303 F45.00
G01 X7.2758 Y-5.1798 F45.00
G01 X7.2167 Y-5.2236 F45.00
G01 X7.1535 Y-5.2614 F45.00
G01 X7.0870 Y-5.2929 F45.00
G01 X7.0177 Y-5.3177 F45.00
G01 X6.9463 Y-5.3356 F45.00
G01 X6.8735 Y-5.3464 F45.00
G01 X6.8000 Y-5.3500 F45.00
G01 X6.7265 Y-5.3464 F45.00
G01 X6.6537 Y-5.3356 F45.00
G01 X6.5823 Y-5.3177 F45.00
G01 X6.5130 Y-5.2929 F45.00
G01 X6.4465 Y-5.2614 F45.00
G01 X6.3833 Y-5.2236 F45.00
G01 X6.3242 Y-5.1798 F45.00
G01 X6.2697 Y-5.1303 F45.00
G01 X6.2202 Y-5.0758 F45.00
G01 X6.1764 Y-5.0167 F45.00
G01 X6.1386 Y-4.9535 F45.00
G01 X6.1071 Y-4.8870 F45.00
G01 X6.0823 Y-4.8177 F45.00
G01 X6.0644 Y-4.7463 F45.00
G01 X6.0536 Y-4.6735 F45.00
G01 X6.0500 Y-4.6000 F45.00
G01 X6.0536 Y-4.5265 F45.00
G01 X6.0644 Y-4.4537 F45.00
G01 X6.0823 Y-4.3823 F45.00
G01 X6.1071 Y-4.3130 F45.00
G01 X6.1386 Y-4.2465 F45.00
G01 X6.1764 Y-4.1833 F45.00
G01 X6.2202 Y-4.1242 F45.00
G01 X6.2697 Y-4.0697 F45.00
G01 X6.3242 Y-4.0202 F45.00
G01 X6.3833 Y-3.9764 F45.00
G01 X6.4465 Y-3.9386 F45.00
G01 X6.5130 Y-3.9071 F45.00
G01 X6.5823 Y-3.8823 F45.00
G01 X6.6537 Y-3.8644 F45.00
G01 X6.7265 Y-3.8536 F45.00
G01 X6.8000 Y-3.8500 F45.00
G01 X6.8735 Y-3.8536 F45.00
G01 X6.9463 Y-3.8644 F45.00
G01 X7.0177 Y-3.8823 F45.00
G01 X7.0870 Y-3.9071 F45.00
G01 X7.1535 Y-3.9386 F45.00
G01 X7.2167 Y-3.9764 F45.00
G01 X7.2758 Y-4.0202 F45.00
G01 X7.3303 Y-4.0697 F45.00
G01 X7.3798 Y-4.1242 F45.00
G01 X7.4236 Y-4.1833 F45.00
G01 X7.4614 Y-4.2465 F45.00
G01 X7.4929 Y-4.3130 F45.00
G01 X7.5177 Y-4.3823 F45.00
G01 X7.5356 Y-4.4537 F45.00
G01 X7.5464 Y-4.5265 F45.00
G01 X7.5500 Y-4.6000 F45.00
G00 X7.5500 Y-4.6000
G01 F30.00
G01 Z-0.6000
G01 F45.00
G01 X7.5464 Y-4.6735 F45.00
G01 X7.5356 Y-4.7463 F45.00
G01 X7.5177 Y-4.8177 F45.00
G01 X7.4929 Y-4.8870 F45.00
G01 X7.4614 Y-4.9535 F45.00
G01 X7.4236 Y-5.0167 F45.00
G01 X7.3798 Y-5.0758 F45.00
G01 X7.3303 Y-5.1303 F45.00
G01 X7.2758 Y-5.1798 F45.00
G01 X7.2167 Y-5.2236 F45.00
G01 X7.1535 Y-5.2614 F45.00
G01 X7.0870 Y-5.2929 F45.00
G01 X7.0177 Y-5.3177 F45.00
G01 X6.9463 Y-5.3356 F45.00
G01 X6.8735 Y-5.3464 F45.00
G01 X6.8000 Y-5.3500 F45.00
G01 X6.7265 Y-5.3464 F45.00
G01 X6.6537 Y-5.3356 F45.00
G01 X6.5823 Y-5.3177 F45.00
G01 X6.5130 Y-5.2929 F45.00
G01 X6.4465 Y-5.2614 F45.00
G01 X6.3833 Y-5.2236 F45.00
G01 X6.3242 Y-5.1798 F45.00
G01 X6.2697 Y-5.1303 F45.00
G01 X6.2202 Y-5.0758 F45.00
G01 X6.1764 Y-5.0167 F45.00
G01 X6.1386 Y-4.9535 F45.00
G01 X6.1071 Y-4.8870 F45.00
G01 X6.0823 Y-4.8177 F45.00
G01 X6.0644 Y-4.7463 F45.00
G01 X6.0536 Y-4.6735 F45.00
G01 X6.0500 Y-4.6000 F45.00
G01 X6.0536 Y-4.5265 F45.00
G01 X6.0644 Y-4.4537 F45.00
G01 X6.0823 Y-4.3823 F45.00
G01 X6.1071 Y-4.3130 F45.00
G01 X6.1386 Y-4.2465 F45.00
G01 X6.1764 Y-4.1833 F45.00
G01 X6.2202 Y-4.1242 F45.00
G01 X6.2697 Y-4.0697 F45.00
G01 X6.3242 Y-4.0202 F45.00
G01 X6.3833 Y-3.9764 F45.00
G01 X6.4465 Y-3.9386 F45.00
G01 X6.5130 Y-3.9071 F45.00
G01 X6.5823 Y-3.8823 F45.00
G01 X6.6537 Y-3.8644 F45.00
G01 X6.7265 Y-3.8536 F45.00
G01 X6.8000 Y-3.8500 F45.00
G01 X6.8735 Y-3.8536 F45.00
G01 X6.9463 Y-3.8644 F45.00
G01 X7.0177 Y-3.8823 F45.00
G01 X7.0870 Y-3.9071 F45.00
G01 X7.1535 Y-3.9386 F45.00
G01 X7.2167 Y-3.9764 F45.00
G01 X7.2758 Y-4.0202 F45.00
G01 X7.3303 Y-4.0697 F45.00
G01 X7.3798 Y-4.1242 F45.00
G01 X7.4236 Y-4.1833 F45.00
G01 X7.4614 Y-4.2465 F45.00
G01 X7.4929 Y-4.3130 F45.00
G01 X7.5177 Y-4.3823 F45.00
G01 X7.5356 Y-4.4537 F45.00
G01 X7.5464 Y-4.5265 F45.00
G01 X7.5500 Y-4.6000 F45.00
G00 X7.5500 Y-4.6000
G01 F30.00
G01 Z-0.9000
G01 F45.00
G01 X7.5464 Y-4.6735 F45.00
G01 X7.5356 Y-4.7463 F45.00
G01 X7.5177 Y-4.8177 F45.00
G01 X7.4929 Y-4.8870 F45.00
G01 X7.4614 Y-4.9535 F45.00
G01 X7.4236 Y-5.0167 F45.00
G01 X7.3798 Y-5.0758 F45.00
G01 X7.3303 Y-5.1303 F45.00
G01 X7.2758 Y-5.1798 F45.00
G01 X7.2167 Y-5.2236 F45.00
G01 X7.1535 Y-5.2614 F45.00
G01 X7.0870 Y-5.2929 F45.00
G01 X7.0177 Y-5.3177 F45.00
G01 X6.9463 Y-5.3356 F45.00
G01 X6.8735 Y-5.3464 F45.00
G01 X6.8000 Y-5.3500 F45.00
G01 X6.7265 Y-5.3464 F45.00
G01 X6.6537 Y-5.3356 F45.00
G01 X6.5823 Y-5.3177 F45.00
G01 X6.5130 Y-5.2929 F45.00
G01 X6.4465 Y-5.2614 F45.00
G01 X6.3833 Y-5.2236 F45.00
G01 X6.3242 Y-5.1798 F45.00
G01 X6.2697 Y-5.1303 F45.00
G01 X6.2202 Y-5.0758 F45.00
G01 X6.1764 Y-5.0167 F45.00
G01 X6.1386 Y-4.9535 F45.00
G01 X6.1071 Y-4.8870 F45.00
G01 X6.0823 Y-4.8177 F45.00
G01 X6.0644 Y-4.7463 F45.00
G01 X6.0536 Y-4.6735 F45.00
G01 X6.0500 Y-4.6000 F45.00
G01 X6.0536 Y-4.5265 F45.00
G01 X6.0644 Y-4.4537 F45.00
G01 X6.0823 Y-4.3823 F45.00
G01 X6.1071 Y-4.3130 F45.00
G01 X6.1386 Y-4.2465 F45.00
G01 X6.1764 Y-4.1833 F45.00
G01 X6.2202 Y-4.1242 F45.00
G01 X6.2697 Y-4.0697 F45.00
G01 X6.3242 Y-4.0202 F45.00
G01 X6.3833 Y-3.9764 F45.00
G01 X6.4465 Y-3.9386 F45.00
G01 X6.5130 Y-3.9071 F45.00
G01 X6.5823 Y-3.8823 F45.00
G01 X6.6537 Y-3.8644 F45.00
G01 X6.7265 Y-3.8536 F45.00
G01 X6.8000 Y-3.8500 F45.00
G01 X6.8735 Y-3.8536 F45.00
G01 X6.9463 Y-3.8644 F45.00
G01 X7.0177 Y-3.8823 F45.00
G01 X7.0870 Y-3.9071 F45.00
G01 X7.1535 Y-3.9386 F45.00
G01 X7.2167 Y-3.9764 F45.00
G01 X7.2758 Y-4.0202 F45.00
G01 X7.3303 Y-4.0697 F45.00
G01 X7.3798 Y-4.1242 F45.00
G01 X7.4236 Y-4.1833 F45.00
G01 X7.4614 Y-4.2465 F45.00
G01 X7.4929 Y-4.3130 F45.00
G01 X7.5177 Y-4.3823 F45.00
G01 X7.5356 Y-4.4537 F45.00
G01 X7.5464 Y-4.5265 F45.00
G01 X7.5500 Y-4.6000 F45.00
G00 X7.5500 Y-4.6000
G01 F30.00
G01 Z-1.2000
G01 F45.00
G01 X7.5464 Y-4.6735 F45.00
G01 X7.5356 Y-4.7463 F45.00
G01 X7.5177 Y-4.8177 F45.00
G01 X7.4929 Y-4.8870 F45.00
G01 X7.4614 Y-4.9535 F45.00
G01 X7.4236 Y-5.0167 F45.00
G01 X7.3798 Y-5.0758 F45.00
G01 X7.3303 Y-5.1303 F45.00
G01 X7.2758 Y-5.1798 F45.00
G01 X7.2167 Y-5.2236 F45.00
G01 X7.1535 Y-5.2614 F45.00
G01 X7.0870 Y-5.2929 F45.00
G01 X7.0177 Y-5.3177 F45.00
G01 X6.9463 Y-5.3356 F45.00
G01 X6.8735 Y-5.3464 F45.00
G01 X6.8000 Y-5.3500 F45.00
G01 X6.7265 Y-5.3464 F45.00
G01 X6.6537 Y-5.3356 F45.00
G01 X6.5823 Y-5.3177 F45.00
G01 X6.5130 Y-5.2929 F45.00
G01 X6.4465 Y-5.2614 F45.00
G01 X6.3833 Y-5.2236 F45.00
G01 X6.3242 Y-5.1798 F45.00
G01 X6.2697 Y-5.1303 F45.00
G01 X6.2202 Y-5.0758 F45.00
G01 X6.1764 Y-5.0167 F45.00
G01 X6.1386 Y-4.9535 F45.00
G01 X6.1071 Y-4.8870 F45.00
G01 X6.0823 Y-4.8177 F45.00
G01 X6.0644 Y-4.7463 F45.00
G01 X6.0536 Y-4.6735 F45.00
G01 X6.0500 Y-4.6000 F45.00
G01 X6.0536 Y-4.5265 F45.00
G01 X6.0644 Y-4.4537 F45.00
G01 X6.0823 Y-4.3823 F45.00
G01 X6.1071 Y-4.3130 F45.00
G01 X6.1386 Y-4.2465 F45.00
G01 X6.1764 Y-4.1833 F45.00
G01 X6.2202 Y-4.1242 F45.00
G01 X6.2697 Y-4.0697 F45.00
G01 X6.3242 Y-4.0202 F45.00
G01 X6.3833 Y-3.9764 F45.00
G01 X6.4465 Y-3.9386 F45.00
G01 X6.5130 Y-3.9071 F45.00
G01 X6.5823 Y-3.8823 F45.00
G01 X6.6537 Y-3.8644 F45.00
G01 X6.7265 Y-3.8536 F45.00
G01 X6.8000 Y-3.8500 F45.00
G01 X6.8735 Y-3.8536 F45.00
G01 X6.9463 Y-3.8644 F45.00
G01 X7.0177 Y-3.8823 F45.00
G01 X7.0870 Y-3.9071 F45.00
G01 X7.1535 Y-3.9386 F45.00
G01 X7.2167 Y-3.9764 F45.00
G01 X7.2758 Y-4.0202 F45.00
G01 X7.3303 Y-4.0697 F45.00
G01 X7.3798 Y-4.1242 F45.00
G01 X7.4236 Y-4.1833 F45.00
G01 X7.4614 Y-4.2465 F45.00
G01 X7.4929 Y-4.3130 F45.00
G01 X7.5177 Y-4.3823 F45.00
G01 X7.5356 Y-4.4537 F45.00
G01 X7.5464 Y-4.5265 F45.00
G01 X7.5500 Y-4.6000 F45.00
G00 X7.5500 Y-4.6000
G01 F30.00
G01 Z-1.5000
G01 F45.00
G01 X7.5464 Y-4.6735 F45.00
G01 X7.5356 Y-4.7463 F45.00
G01 X7.5177 Y-4.8177 F45.00
G01 X7.4929 Y-4.8870 F45.00
G01 X7.4614 Y-4.9535 F45.00
G01 X7.4236 Y-5.0167 F45.00
G01 X7.3798 Y-5.0758 F45.00
G01 X7.3303 Y-5.1303 F45.00
G01 X7.2758 Y-5.1798 F45.00
G01 X7.2167 Y-5.2236 F45.00
G01 X7.1535 Y-5.2614 F45.00
G01 X7.0870 Y-5.2929 F45.00
G01 X7.0177 Y-5.3177 F45.00
G01 X6.9463 Y-5.3356 F45.00
G01 X6.8735 Y-5.3464 F45.00
G01 X6.8000 Y-5.3500 F45.00
G01 X6.7265 Y-5.3464 F45.00
G01 X6.6537 Y-5.3356 F45.00
G01 X6.5823 Y-5.3177 F45.00
G01 X6.5130 Y-5.2929 F45.00
G01 X6.4465 Y-5.2614 F45.00
G01 X6.3833 Y-5.2236 F45.00
G01 X6.3242 Y-5.1798 F45.00
G01 X6.2697 Y-5.1303 F45.00
G01 X6.2202 Y-5.0758 F45.00
G01 X6.1764 Y-5.0167 F45.00
G01 X6.1386 Y-4.9535 F45.00
G01 X6.1071 Y-4.8870 F45.00
G01 X6.0823 Y-4.8177 F45.00
G01 X6.0644 Y-4.7463 F45.00
G01 X6.0536 Y-4.6735 F45.00
G01 X6.0500 Y-4.6000 F45.00
G01 X6.0536 Y-4.5265 F45.00
G01 X6.0644 Y-4.4537 F45.00
G01 X6.0823 Y-4.3823 F45.00
G01 X6.1071 Y-4.3130 F45.00
G01 X6.1386 Y-4.2465 F45.00
G01 X6.1764 Y-4.1833 F45.00
G01 X6.2202 Y-4.1242 F45.00
G01 X6.2697 Y-4.0697 F45.00
G01 X6.3242 Y-4.0202 F45.00
G01 X6.3833 Y-3.9764 F45.00
G01 X6.4465 Y-3.9386 F45.00
G01 X6.5130 Y-3.9071 F45.00
G01 X6.5823 Y-3.8823 F45.00
G01 X6.6537 Y-3.8644 F45.00
G01 X6.7265 Y-3.8536 F45.00
G01 X6.8000 Y-3.8500 F45.00
G01 X6.8735 Y-3.8536 F45.00
G01 X6.9463 Y-3.8644 F45.00
G01 X7.0177 Y-3.8823 F45.00
G01 X7.0870 Y-3.9071 F45.00
G01 X7.1535 Y-3.9386 F45.00
G01 X7.2167 Y-3.9764 F45.00
G01 X7.2758 Y-4.0202 F45.00
G01 X7.3303 Y-4.0697 F45.00
G01 X7.3798 Y-4.1242 F45.00
G01 X7.4236 Y-4.1833 F45.00
G01 X7.4614 Y-4.2465 F45.00
G01 X7.4929 Y-4.3130 F45.00
G01 X7.5177 Y-4.3823 F45.00
G01 X7.5356 Y-4.4537 F45.00
G01 X7.5464 Y-4.5265 F45.00
G01 X7.5500 Y-4.6000 F45.00
G00 X7.5500 Y-4.6000
G01 F30.00
G01 Z-1.8000
G01 F45.00
G01 X7.5464 Y-4.6735 F45.00
G01 X7.5356 Y-4.7463 F45.00
G01 X7.5177 Y-4.8177 F45.00
G01 X7.4929 Y-4.8870 F45.00
G01 X7.4614 Y-4.9535 F45.00
G01 X7.4236 Y-5.0167 F45.00
G01 X7.3798 Y-5.0758 F45.00
G01 X7.3303 Y-5.1303 F45.00
G01 X7.2758 Y-5.1798 F45.00
G01 X7.2167 Y-5.2236 F45.00
G01 X7.1535 Y-5.2614 F45.00
G01 X7.0870 Y-5.2929 F45.00
G01 X7.0177 Y-5.3177 F45.00
G01 X6.9463 Y-5.3356 F45.00
G01 X6.8735 Y-5.3464 F45.00
G01 X6.8000 Y-5.3500 F45.00
G01 X6.7265 Y-5.3464 F45.00
G01 X6.6537 Y-5.3356 F45.00
G01 X6.5823 Y-5.3177 F45.00
G01 X6.5130 Y-5.2929 F45.00
G01 X6.4465 Y-5.2614 F45.00
G01 X6.3833 Y-5.2236 F45.00
G01 X6.3242 Y-5.1798 F45.00
G01 X6.2697 Y-5.1303 F45.00
G01 X6.2202 Y-5.0758 F45.00
G01 X6.1764 Y-5.0167 F45.00
G01 X6.1386 Y-4.9535 F45.00
G01 X6.1071 Y-4.8870 F45.00
G01 X6.0823 Y-4.8177 F45.00
G01 X6.0644 Y-4.7463 F45.00
G01 X6.0536 Y-4.6735 F45.00
G01 X6.0500 Y-4.6000 F45.00
G01 X6.0536 Y-4.5265 F45.00
G01 X6.0644 Y-4.4537 F45.00
G01 X6.0823 Y-4.3823 F45.00
G01 X6.1071 Y-4.3130 F45.00
G01 X6.1386 Y-4.2465 F45.00
G01 X6.1764 Y-4.1833 F45.00
G01 X6.2202 Y-4.1242 F45.00
G01 X6.2697 Y-4.0697 F45.00
G01 X6.3242 Y-4.0202 F45.00
G01 X6.3833 Y-3.9764 F45.00
G01 X6.4465 Y-3.9386 F45.00
G01 X6.5130 Y-3.9071 F45.00
G01 X6.5823 Y-3.8823 F45.00
G01 X6.6537 Y-3.8644 F45.00
G01 X6.7265 Y-3.8536 F45.00
G01 X6.8000 Y-3.8500 F45.00
G01 X6.8735 Y-3.8536 F45.00
G01 X6.9463 Y-3.8644 F45.00
G01 X7.0177 Y-3.8823 F45.00
G01 X7.0870 Y-3.9071 F45.00
G01 X7.1535 Y-3.9386 F45.00
G01 X7.2167 Y-3.9764 F45.00
G01 X7.2758 Y-4.0202 F45.00
G01 X7.3303 Y-4.0697 F45.00
G01 X7.3798 Y-4.1242 F45.00
G01 X7.4236 Y-4.1833 F45.00
G01 X7.4614 Y-4.2465 F45.00
G01 X7.4929 Y-4.3130 F45.00
G01 X7.5177 Y-4.3823 F45.00
G01 X7.5356 Y-4.4537 F45.00
G01 X7.5464 Y-4.5265 F45.00
G01 X7.5500 Y-4.6000 F45.00
G00 Z2.0000
G00 X7.5500 Y-46.1000
G01 F30.00
G01 Z-0.3000
G01 F45.00
G01 X7.5464 Y-46.1735 F45.00
G01 X7.5356 Y-46.2463 F45.00
G01 X7.5177 Y-46.3177 F45.00
G01 X7.4929 Y-46.3870 F45.00
G01 X7.4614 Y-46.4535 F45.00
G01 X7.4236 Y-46.5167 F45.00
G01 X7.3798 Y-46.5758 F45.00
G01 X7.3303 Y-46.6303 F45.00
G01 X7.2758 Y-46.6798 F45.00
G01 X7.2167 Y-46.7236 F45.00
G01 X7.1535 Y-46.7614 F45.00
G01 X7.0870 Y-46.7929 F45.00
G01 X7.0177 Y-46.8177 F45.00
G01 X6.9463 Y-46.8356 F45.00
G01 X6.8735 Y-46.8464 F45.00
G01 X6.8000 Y-46.8500 F45.00
G01 X6.7265 Y-46.8464 F45.00
G01 X6.6537 Y-46.8356 F45.00
G01 X6.5823 Y-46.8177 F45.00
G01 X6.5130 Y-46.7929 F45.00
G01 X6.4465 Y-46.7614 F45.00
G01 X6.3833 Y-46.7236 F45.00
G01 X6.3242 Y-46.6798 F45.00
G01 X6.2697 Y-46.6303 F45.00
G01 X6.2202 Y-46.5758 F45.00
G01 X6.1764 Y-46.5167 F45.00
G01 X6.1386 Y-46.4535 F45.00
G01 X6.1071 Y-46.3870 F45.00
G01 X6.0823 Y-46.3177 F45.00
G01 X6.0644 Y-46.2463 F45.00
G01 X6.0536 Y-46.1735 F45.00
G01 X6.0500 Y-46.1000 F45.00
G01 X6.0536 Y-46.0265 F45.00
G01 X6.0644 Y-45.9537 F45.00
G01 X6.0823 Y-45.8823 F45.00
G01 X6.1071 Y-45.8130 F45.00
G01 X6.1386 Y-45.7465 F45.00
G01 X6.1764 Y-45.6833 F45.00
G01 X6.2202 Y-45.6242 F45.00
G01 X6.2697 Y-45.5697 F45.00
G01 X6.3242 Y-45.5202 F45.00
G01 X6.3833 Y-45.4764 F45.00
G01 X6.4465 Y-45.4386 F45.00
G01 X6.5130 Y-45.4071 F45.00
G01 X6.5823 Y-45.3823 F45.00
G01 X6.6537 Y-45.3644 F45.00
G01 X6.7265 Y-45.3536 F45.00
G01 X6.8000 Y-45.3500 F45.00
G01 X6.8735 Y-45.3536 F45.00
G01 X6.9463 Y-45.3644 F45.00
G01 X7.0177 Y-45.3823 F45.00
G01 X7.0870 Y-45.4071 F45.00
G01 X7.1535 Y-45.4386 F45.00
G01 X7.2167 Y-45.4764 F45.00
G01 X7.2758 Y-45.5202 F45.00
G01 X7.3303 Y-45.5697 F45.00
G01 X7.3798 Y-45.6242 F45.00
G01 X7.4236 Y-45.6833 F45.00
G01 X7.4614 Y-45.7465 F45.00
G01 X7.4929 Y-45.8130 F45.00
G01 X7.5177 Y-45.8823 F45.00
G01 X7.5356 Y-45.9537 F45.00
G01 X7.5464 Y-46.0265 F45.00
G01 X7.5500 Y-46.1000 F45.00
G00 X7.5500 Y-46.1000
G01 F30.00
G01 Z-0.6000
G01 F45.00
G01 X7.5464 Y-46.1735 F45.00
G01 X7.5356 Y-46.2463 F45.00
G01 X7.5177 Y-46.3177 F45.00
G01 X7.4929 Y-46.3870 F45.00
G01 X7.4614 Y-46.4535 F45.00
G01 X7.4236 Y-46.5167 F45.00
G01 X7.3798 Y-46.5758 F45.00
G01 X7.3303 Y-46.6303 F45.00
G01 X7.2758 Y-46.6798 F45.00
G01 X7.2167 Y-46.7236 F45.00
G01 X7.1535 Y-46.7614 F45.00
G01 X7.0870 Y-46.7929 F45.00
G01 X7.0177 Y-46.8177 F45.00
G01 X6.9463 Y-46.8356 F45.00
G01 X6.8735 Y-46.8464 F45.00
G01 X6.8000 Y-46.8500 F45.00
G01 X6.7265 Y-46.8464 F45.00
G01 X6.6537 Y-46.8356 F45.00
G01 X6.5823 Y-46.8177 F45.00
G01 X6.5130 Y-46.7929 F45.00
G01 X6.4465 Y-46.7614 F45.00
G01 X6.3833 Y-46.7236 F45.00
G01 X6.3242 Y-46.6798 F45.00
G01 X6.2697 Y-46.6303 F45.00
G01 X6.2202 Y-46.5758 F45.00
G01 X6.1764 Y-46.5167 F45.00
G01 X6.1386 Y-46.4535 F45.00
G01 X6.1071 Y-46.3870 F45.00
G01 X6.0823 Y-46.3177 F45.00
G01 X6.0644 Y-46.2463 F45.00
G01 X6.0536 Y-46.1735 F45.00
G01 X6.0500 Y-46.1000 F45.00
G01 X6.0536 Y-46.0265 F45.00
G01 X6.0644 Y-45.9537 F45.00
G01 X6.0823 Y-45.8823 F45.00
G01 X6.1071 Y-45.8130 F45.00
G01 X6.1386 Y-45.7465 F45.00
G01 X6.1764 Y-45.6833 F45.00
G01 X6.2202 Y-45.6242 F45.00
G01 X6.2697 Y-45.5697 F45.00
G01 X6.3242 Y-45.5202 F45.00
G01 X6.3833 Y-45.4764 F45.00
G01 X6.4465 Y-45.4386 F45.00
G01 X6.5130 Y-45.4071 F45.00
G01 X6.5823 Y-45.3823 F45.00
G01 X6.6537 Y-45.3644 F45.00
G01 X6.7265 Y-45.3536 F45.00
G01 X6.8000 Y-45.3500 F45.00
G01 X6.8735 Y-45.3536 F45.00
G01 X6.9463 Y-45.3644 F45.00
G01 X7.0177 Y-45.3823 F45.00
G01 X7.0870 Y-45.4071 F45.00
G01 X7.1535 Y-45.4386 F45.00
G01 X7.2167 Y-45.4764 F45.00
G01 X7.2758 Y-45.5202 F45.00
G01 X7.3303 Y-45.5697 F45.00
G01 X7.3798 Y-45.6242 F45.00
G01 X7.4236 Y-45.6833 F45.00
G01 X7.4614 Y-45.7465 F45.00
G01 X7.4929 Y-45.8130 F45.00
G01 X7.5177 Y-45.8823 F45.00
G01 X7.5356 Y-45.9537 F45.00
G01 X7.5464 Y-46.0265 F45.00
G01 X7.5500 Y-46.1000 F45.00
G00 X7.5500 Y-46.1000
G01 F30.00
G01 Z-0.9000
G01 F45.00
G01 X7.5464 Y-46.1735 F45.00
G01 X7.5356 Y-46.2463 F45.00
G01 X7.5177 Y-46.3177 F45.00
G01 X7.4929 Y-46.3870 F45.00
G01 X7.4614 Y-46.4535 F45.00
G01 X7.4236 Y-46.5167 F45.00
G01 X7.3798 Y-46.5758 F45.00
G01 X7.3303 Y-46.6303 F45.00
G01 X7.2758 Y-46.6798 F45.00
G01 X7.2167 Y-46.7236 F45.00
G01 X7.1535 Y-46.7614 F45.00
G01 X7.0870 Y-46.7929 F45.00
G01 X7.0177 Y-46.8177 F45.00
G01 X6.9463 Y-46.8356 F45.00
G01 X6.8735 Y-46.8464 F45.00
G01 X6.8000 Y-46.8500 F45.00
G01 X6.7265 Y-46.8464 F45.00
G01 X6.6537 Y-46.8356 F45.00
G01 X6.5823 Y-46.8177 F45.00
G01 X6.5130 Y-46.7929 F45.00
G01 X6.4465 Y-46.7614 F45.00
G01 X6.3833 Y-46.7236 F45.00
G01 X6.3242 Y-46.6798 F45.00
G01 X6.2697 Y-46.6303 F45.00
G01 X6.2202 Y-46.5758 F45.00
G01 X6.1764 Y-46.5167 F45.00
G01 X6.1386 Y-46.4535 F45.00
G01 X6.1071 Y-46.3870 F45.00
G01 X6.0823 Y-46.3177 F45.00
G01 X6.0644 Y-46.2463 F45.00
G01 X6.0536 Y-46.1735 F45.00
G01 X6.0500 Y-46.1000 F45.00
G01 X6.0536 Y-46.0265 F45.00
G01 X6.0644 Y-45.9537 F45.00
G01 X6.0823 Y-45.8823 F45.00
G01 X6.1071 Y-45.8130 F45.00
G01 X6.1386 Y-45.7465 F45.00
G01 X6.1764 Y-45.6833 F45.00
G01 X6.2202 Y-45.6242 F45.00
G01 X6.2697 Y-45.5697 F45.00
G01 X6.3242 Y-45.5202 F45.00
G01 X6.3833 Y-45.4764 F45.00
G01 X6.4465 Y-45.4386 F45.00
G01 X6.5130 Y-45.4071 F45.00
G01 X6.5823 Y-45.3823 F45.00
G01 X6.6537 Y-45.3644 F45.00
G01 X6.7265 Y-45.3536 F45.00
G01 X6.8000 Y-45.3500 F45.00
G01 X6.8735 Y-45.3536 F45.00
G01 X6.9463 Y-45.3644 F45.00
G01 X7.0177 Y-45.3823 F45.00
G01 X7.0870 Y-45.4071 F45.00
G01 X7.1535 Y-45.4386 F45.00
G01 X7.2167 Y-45.4764 F45.00
G01 X7.2758 Y-45.5202 F45.00
G01 X7.3303 Y-45.5697 F45.00
G01 X7.3798 Y-45.6242 F45.00
G01 X7.4236 Y-45.6833 F45.00
G01 X7.4614 Y-45.7465 F45.00
G01 X7.4929 Y-45.8130 F45.00
G01 X7.5177 Y-45.8823 F45.00
G01 X7.5356 Y-45.9537 F45.00
G01 X7.5464 Y-46.0265 F45.00
G01 X7.5500 Y-46.1000 F45.00
G00 X7.5500 Y-46.1000
G01 F30.00
G01 Z-1.2000
G01 F45.00
G01 X7.5464 Y-46.1735 F45.00
G01 X7.5356 Y-46.2463 F45.00
G01 X7.5177 Y-46.3177 F45.00
G01 X7.4929 Y-46.3870 F45.00
G01 X7.4614 Y-46.4535 F45.00
G01 X7.4236 Y-46.5167 F45.00
G01 X7.3798 Y-46.5758 F45.00
G01 X7.3303 Y-46.6303 F45.00
G01 X7.2758 Y-46.6798 F45.00
G01 X7.2167 Y-46.7236 F45.00
G01 X7.1535 Y-46.7614 F45.00
G01 X7.0870 Y-46.7929 F45.00
G01 X7.0177 Y-46.8177 F45.00
G01 X6.9463 Y-46.8356 F45.00
G01 X6.8735 Y-46.8464 F45.00
G01 X6.8000 Y-46.8500 F45.00
G01 X6.7265 Y-46.8464 F45.00
G01 X6.6537 Y-46.8356 F45.00
G01 X6.5823 Y-46.8177 F45.00
G01 X6.5130 Y-46.7929 F45.00
G01 X6.4465 Y-46.7614 F45.00
G01 X6.3833 Y-46.7236 F45.00
G01 X6.3242 Y-46.6798 F45.00
G01 X6.2697 Y-46.6303 F45.00
G01 X6.2202 Y-46.5758 F45.00
G01 X6.1764 Y-46.5167 F45.00
G01 X6.1386 Y-46.4535 F45.00
G01 X6.1071 Y-46.3870 F45.00
G01 X6.0823 Y-46.3177 F45.00
G01 X6.0644 Y-46.2463 F45.00
G01 X6.0536 Y-46.1735 F45.00
G01 X6.0500 Y-46.1000 F45.00
G01 X6.0536 Y-46.0265 F45.00
G01 X6.0644 Y-45.9537 F45.00
G01 X6.0823 Y-45.8823 F45.00
G01 X6.1071 Y-45.8130 F45.00
G01 X6.1386 Y-45.7465 F45.00
G01 X6.1764 Y-45.6833 F45.00
G01 X6.2202 Y-45.6242 F45.00
G01 X6.2697 Y-45.5697 F45.00
G01 X6.3242 Y-45.5202 F45.00
G01 X6.3833 Y-45.4764 F45.00
G01 X6.4465 Y-45.4386 F45.00
G01 X6.5130 Y-45.4071 F45.00
G01 X6.5823 Y-45.3823 F45.00
G01 X6.6537 Y-45.3644 F45.00
G01 X6.7265 Y-45.3536 F45.00
G01 X6.8000 Y-45.3500 F45.00
G01 X6.8735 Y-45.3536 F45.00
G01 X6.9463 Y-45.3644 F45.00
G01 X7.0177 Y-45.3823 F45.00
G01 X7.0870 Y-45.4071 F45.00
G01 X7.1535 Y-45.4386 F45.00
G01 X7.2167 Y-45.4764 F45.00
G01 X7.2758 Y-45.5202 F45.00
G01 X7.3303 Y-45.5697 F45.00
G01 X7.3798 Y-45.6242 F45.00
G01 X7.4236 Y-45.6833 F45.00
G01 X7.4614 Y-45.7465 F45.00
G01 X7.4929 Y-45.8130 F45.00
G01 X7.5177 Y-45.8823 F45.00
G01 X7.5356 Y-45.9537 F45.00
G01 X7.5464 Y-46.0265 F45.00
G01 X7.5500 Y-46.1000 F45.00
G00 X7.5500 Y-46.1000
G01 F30.00
G01 Z-1.5000
G01 F45.00
G01 X7.5464 Y-46.1735 F45.00
G01 X7.5356 Y-46.2463 F45.00
G01 X7.5177 Y-46.3177 F45.00
G01 X7.4929 Y-46.3870 F45.00
G01 X7.4614 Y-46.4535 F45.00
G01 X7.4236 Y-46.5167 F45.00
G01 X7.3798 Y-46.5758 F45.00
G01 X7.3303 Y-46.6303 F45.00
G01 X7.2758 Y-46.6798 F45.00
G01 X7.2167 Y-46.7236 F45.00
G01 X7.1535 Y-46.7614 F45.00
G01 X7.0870 Y-46.7929 F45.00
G01 X7.0177 Y-46.8177 F45.00
G01 X6.9463 Y-46.8356 F45.00
G01 X6.8735 Y-46.8464 F45.00
G01 X6.8000 Y-46.8500 F45.00
G01 X6.7265 Y-46.8464 F45.00
G01 X6.6537 Y-46.8356 F45.00
G01 X6.5823 Y-46.8177 F45.00
G01 X6.5130 Y-46.7929 F45.00
G01 X6.4465 Y-46.7614 F45.00
G01 X6.3833 Y-46.7236 F45.00
G01 X6.3242 Y-46.6798 F45.00
G01 X6.2697 Y-46.6303 F45.00
G01 X6.2202 Y-46.5758 F45.00
G01 X6.1764 Y-46.5167 F45.00
G01 X6.1386 Y-46.4535 F45.00
G01 X6.1071 Y-46.3870 F45.00
G01 X6.0823 Y-46.3177 F45.00
G01 X6.0644 Y-46.2463 F45.00
G01 X6.0536 Y-46.1735 F45.00
G01 X6.0500 Y-46.1000 F45.00
G01 X6.0536 Y-46.0265 F45.00
G01 X6.0644 Y-45.9537 F45.00
G01 X6.0823 Y-45.8823 F45.00
G01 X6.1071 Y-45.8130 F45.00
G01 X6.1386 Y-45.7465 F45.00
G01 X6.1764 Y-45.6833 F45.00
G01 X6.2202 Y-45.6242 F45.00
G01 X6.2697 Y-45.5697 F45.00
G01 X6.3242 Y-45.5202 F45.00
G01 X6.3833 Y-45.4764 F45.00
G01 X6.4465 Y-45.4386 F45.00
G01 X6.5130 Y-45.4071 F45.00
G01 X6.5823 Y-45.3823 F45.00
G01 X6.6537 Y-45.3644 F45.00
G01 X6.7265 Y-45.3536 F45.00
G01 X6.8000 Y-45.3500 F45.00
G01 X6.8735 Y-45.3536 F45.00
G01 X6.9463 Y-45.3644 F45.00
G01 X7.0177 Y-45.3823 F45.00
G01 X7.0870 Y-45.4071 F45.00
G01 X7.1535 Y-45.4386 F45.00
G01 X7.2167 Y-45.4764 F45.00
G01 X7.2758 Y-45.5202 F45.00
G01 X7.3303 Y-45.5697 F45.00
G01 X7.3798 Y-45.6242 F45.00
G01 X7.4236 Y-45.6833 F45.00
G01 X7.4614 Y-45.7465 F45.00
G01 X7.4929 Y-45.8130 F45.00
G01 X7.5177 Y-45.8823 F45.00
G01 X7.5356 Y-45.9537 F45.00
G01 X7.5464 Y-46.0265 F45.00
G01 X7.5500 Y-46.1000 F45.00
G00 X7.5500 Y-46.1000
G01 F30.00
G01 Z-1.8000
G01 F45.00
G01 X7.5464 Y-46.1735 F45.00
G01 X7.5356 Y-46.2463 F45.00
G01 X7.5177 Y-46.3177 F45.00
G01 X7.4929 Y-46.3870 F45.00
G01 X7.4614 Y-46.4535 F45.00
G01 X7.4236 Y-46.5167 F45.00
G01 X7.3798 Y-46.5758 F45.00
G01 X7.3303 Y-46.6303 F45.00
G01 X7.2758 Y-46.6798 F45.00
G01 X7.2167 Y-46.7236 F45.00
G01 X7.1535 Y-46.7614 F45.00
G01 X7.0870 Y-46.7929 F45.00
G01 X7.0177 Y-46.8177 F45.00
G01 X6.9463 Y-46.8356 F45.00
G01 X6.8735 Y-46.8464 F45.00
G01 X6.8000 Y-46.8500 F45.00
G01 X6.7265 Y-46.8464 F45.00
G01 X6.6537 Y-46.8356 F45.00
G01 X6.5823 Y-46.8177 F45.00
G01 X6.5130 Y-46.7929 F45.00
G01 X6.4465 Y-46.7614 F45.00
G01 X6.3833 Y-46.7236 F45.00
G01 X6.3242 Y-46.6798 F45.00
G01 X6.2697 Y-46.6303 F45.00
G01 X6.2202 Y-46.5758 F45.00
G01 X6.1764 Y-46.5167 F45.00
G01 X6.1386 Y-46.4535 F45.00
G01 X6.1071 Y-46.3870 F45.00
G01 X6.0823 Y-46.3177 F45.00
G01 X6.0644 Y-46.2463 F45.00
G01 X6.0536 Y-46.1735 F45.00
G01 X6.0500 Y-46.1000 F45.00
G01 X6.0536 Y-46.0265 F45.00
G01 X6.0644 Y-45.9537 F45.00
G01 X6.0823 Y-45.8823 F45.00
G01 X6.1071 Y-45.8130 F45.00
G01 X6.1386 Y-45.7465 F45.00
G01 X6.1764 Y-45.6833 F45.00
G01 X6.2202 Y-45.6242 F45.00
G01 X6.2697 Y-45.5697 F45.00
G01 X6.3242 Y-45.5202 F45.00
G01 X6.3833 Y-45.4764 F45.00
G01 X6.4465 Y-45.4386 F45.00
G01 X6.5130 Y-45.4071 F45.00
G01 X6.5823 Y-45.3823 F45.00
G01 X6.6537 Y-45.3644 F45.00
G01 X6.7265 Y-45.3536 F45.00
G01 X6.8000 Y-45.3500 F45.00
G01 X6.8735 Y-45.3536 F45.00
G01 X6.9463 Y-45.3644 F45.00
G01 X7.0177 Y-45.3823 F45.00
G01 X7.0870 Y-45.4071 F45.00
G01 X7.1535 Y-45.4386 F45.00
G01 X7.2167 Y-45.4764 F45.00
G01 X7.2758 Y-45.5202 F45.00
G01 X7.3303 Y-45.5697 F45.00
G01 X7.3798 Y-45.6242 F45.00
G01 X7.4236 Y-45.6833 F45.00
G01 X7.4614 Y-45.7465 F45.00
G01 X7.4929 Y-45.8130 F45.00
G01 X7.5177 Y-45.8823 F45.00
G01 X7.5356 Y-45.9537 F45.00
G01 X7.5464 Y-46.0265 F45.00
G01 X7.5500 Y-46.1000 F45.00
G00 Z2.0000
G00 X38.5500 Y-44.1000
G01 F30.00
G01 Z-0.3000
G01 F45.00
G01 X38.5464 Y-44.1735 F45.00
G01 X38.5356 Y-44.2463 F45.00
G01 X38.5177 Y-44.3177 F45.00
G01 X38.4929 Y-44.3870 F45.00
G01 X38.4614 Y-44.4535 F45.00
G01 X38.4236 Y-44.5167 F45.00
G01 X38.3798 Y-44.5758 F45.00
G01 X38.3303 Y-44.6303 F45.00
G01 X38.2758 Y-44.6798 F45.00
G01 X38.2167 Y-44.7236 F45.00
G01 X38.1535 Y-44.7614 F45.00
G01 X38.0870 Y-44.7929 F45.00
G01 X38.0177 Y-44.8177 F45.00
G01 X37.9463 Y-44.8356 F45.00
G01 X37.8735 Y-44.8464 F45.00
G01 X37.8000 Y-44.8500 F45.00
G01 X37.7265 Y-44.8464 F45.00
G01 X37.6537 Y-44.8356 F45.00
G01 X37.5823 Y-44.8177 F45.00
G01 X37.5130 Y-44.7929 F45.00
G01 X37.4465 Y-44.7614 F45.00
G01 X37.3833 Y-44.7236 F45.00
G01 X37.3242 Y-44.6798 F45.00
G01 X37.2697 Y-44.6303 F45.00
G01 X37.2202 Y-44.5758 F45.00
G01 X37.1764 Y-44.5167 F45.00
G01 X37.1386 Y-44.4535 F45.00
G01 X37.1071 Y-44.3870 F45.00
G01 X37.0823 Y-44.3177 F45.00
G01 X37.0644 Y-44.2463 F45.00
G01 X37.0536 Y-44.1735 F45.00
G01 X37.0500 Y-44.1000 F45.00
G01 X37.0536 Y-44.0265 F45.00
G01 X37.0644 Y-43.9537 F45.00
G01 X37.0823 Y-43.8823 F45.00
G01 X37.1071 Y-43.8130 F45.00
G01 X37.1386 Y-43.7465 F45.00
G01 X37.1764 Y-43.6833 F45.00
G01 X37.2202 Y-43.6242 F45.00
G01 X37.2697 Y-43.5697 F45.00
G01 X37.3242 Y-43.5202 F45.00
G01 X37.3833 Y-43.4764 F45.00
G01 X37.4465 Y-43.4386 F45.00
G01 X37.5130 Y-43.4071 F45.00
G01 X37.5823 Y-43.3823 F45.00
G01 X37.6537 Y-43.3644 F45.00
G01 X37.7265 Y-43.3536 F45.00
G01 X37.8000 Y-43.3500 F45.00
G01 X37.8735 Y-43.3536 F45.00
G01 X37.9463 Y-43.3644 F45.00
G01 X38.0177 Y-43.3823 F45.00
G01 X38.0870 Y-43.4071 F45.00
G01 X38.1535 Y-43.4386 F45.00
G01 X38.2167 Y-43.4764 F45.00
G01 X38.2758 Y-43.5202 F45.00
G01 X38.3303 Y-43.5697 F45.00
G01 X38.3798 Y-43.6242 F45.00
G01 X38.4236 Y-43.6833 F45.00
G01 X38.4614 Y-43.7465 F45.00
G01 X38.4929 Y-43.8130 F45.00
G01 X38.5177 Y-43.8823 F45.00
G01 X38.5356 Y-43.9537 F45.00
G01 X38.5464 Y-44.0265 F45.00
G01 X38.5500 Y-44.1000 F45.00
G00 X38.5500 Y-44.1000
G01 F30.00
G01 Z-0.6000
G01 F45.00
G01 X38.5464 Y-44.1735 F45.00
G01 X38.5356 Y-44.2463 F45.00
G01 X38.5177 Y-44.3177 F45.00
G01 X38.4929 Y-44.3870 F45.00
G01 X38.4614 Y-44.4535 F45.00
G01 X38.4236 Y-44.5167 F45.00
G01 X38.3798 Y-44.5758 F45.00
G01 X38.3303 Y-44.6303 F45.00
G01 X38.2758 Y-44.6798 F45.00
G01 X38.2167 Y-44.7236 F45.00
G01 X38.1535 Y-44.7614 F45.00
G01 X38.0870 Y-44.7929 F45.00
G01 X38.0177 Y-44.8177 F45.00
G01 X37.9463 Y-44.8356 F45.00
G01 X37.8735 Y-44.8464 F45.00
G01 X37.8000 Y-44.8500 F45.00
G01 X37.7265 Y-44.8464 F45.00
G01 X37.6537 Y-44.8356 F45.00
G01 X37.5823 Y-44.8177 F45.00
G01 X37.5130 Y-44.7929 F45.00
G01 X37.4465 Y-44.7614 F45.00
G01 X37.3833 Y-44.7236 F45.00
G01 X37.3242 Y-44.6798 F45.00
G01 X37.2697 Y-44.6303 F45.00
G01 X37.2202 Y-44.5758 F45.00
G01 X37.1764 Y-44.5167 F45.00
G01 X37.1386 Y-44.4535 F45.00
G01 X37.1071 Y-44.3870 F45.00
G01 X37.0823 Y-44.3177 F45.00
G01 X37.0644 Y-44.2463 F45.00
G01 X37.0536 Y-44.1735 F45.00
G01 X37.0500 Y-44.1000 F45.00
G01 X37.0536 Y-44.0265 F45.00
G01 X37.0644 Y-43.9537 F45.00
G01 X37.0823 Y-43.8823 F45.00
G01 X37.1071 Y-43.8130 F45.00
G01 X37.1386 Y-43.7465 F45.00
G01 X37.1764 Y-43.6833 F45.00
G01 X37.2202 Y-43.6242 F45.00
G01 X37.2697 Y-43.5697 F45.00
G01 X37.3242 Y-43.5202 F45.00
G01 X37.3833 Y-43.4764 F45.00
G01 X37.4465 Y-43.4386 F45.00
G01 X37.5130 Y-43.4071 F45.00
G01 X37.5823 Y-43.3823 F45.00
G01 X37.6537 Y-43.3644 F45.00
G01 X37.7265 Y-43.3536 F45.00
G01 X37.8000 Y-43.3500 F45.00
G01 X37.8735 Y-43.3536 F45.00
G01 X37.9463 Y-43.3644 F45.00
G01 X38.0177 Y-43.3823 F45.00
G01 X38.0870 Y-43.4071 F45.00
G01 X38.1535 Y-43.4386 F45.00
G01 X38.2167 Y-43.4764 F45.00
G01 X38.2758 Y-43.5202 F45.00
G01 X38.3303 Y-43.5697 F45.00
G01 X38.3798 Y-43.6242 F45.00
G01 X38.4236 Y-43.6833 F45.00
G01 X38.4614 Y-43.7465 F45.00
G01 X38.4929 Y-43.8130 F45.00
G01 X38.5177 Y-43.8823 F45.00
G01 X38.5356 Y-43.9537 F45.00
G01 X38.5464 Y-44.0265 F45.00
G01 X38.5500 Y-44.1000 F45.00
G00 X38.5500 Y-44.1000
G01 F30.00
G01 Z-0.9000
G01 F45.00
G01 X38.5464 Y-44.1735 F45.00
G01 X38.5356 Y-44.2463 F45.00
G01 X38.5177 Y-44.3177 F45.00
G01 X38.4929 Y-44.3870 F45.00
G01 X38.4614 Y-44.4535 F45.00
G01 X38.4236 Y-44.5167 F45.00
G01 X38.3798 Y-44.5758 F45.00
G01 X38.3303 Y-44.6303 F45.00
G01 X38.2758 Y-44.6798 F45.00
G01 X38.2167 Y-44.7236 F45.00
G01 X38.1535 Y-44.7614 F45.00
G01 X38.0870 Y-44.7929 F45.00
G01 X38.0177 Y-44.8177 F45.00
G01 X37.9463 Y-44.8356 F45.00
G01 X37.8735 Y-44.8464 F45.00
G01 X37.8000 Y-44.8500 F45.00
G01 X37.7265 Y-44.8464 F45.00
G01 X37.6537 Y-44.8356 F45.00
G01 X37.5823 Y-44.8177 F45.00
G01 X37.5130 Y-44.7929 F45.00
G01 X37.4465 Y-44.7614 F45.00
G01 X37.3833 Y-44.7236 F45.00
G01 X37.3242 Y-44.6798 F45.00
G01 X37.2697 Y-44.6303 F45.00
G01 X37.2202 Y-44.5758 F45.00
G01 X37.1764 Y-44.5167 F45.00
G01 X37.1386 Y-44.4535 F45.00
G01 X37.1071 Y-44.3870 F45.00
G01 X37.0823 Y-44.3177 F45.00
G01 X37.0644 Y-44.2463 F45.00
G01 X37.0536 Y-44.1735 F45.00
G01 X37.0500 Y-44.1000 F45.00
G01 X37.0536 Y-44.0265 F45.00
G01 X37.0644 Y-43.9537 F45.00
G01 X37.0823 Y-43.8823 F45.00
G01 X37.1071 Y-43.8130 F45.00
G01 X37.1386 Y-43.7465 F45.00
G01 X37.1764 Y-43.6833 F45.00
G01 X37.2202 Y-43.6242 F45.00
G01 X37.2697 Y-43.5697 F45.00
G01 X37.3242 Y-43.5202 F45.00
G01 X37.3833 Y-43.4764 F45.00
G01 X37.4465 Y-43.4386 F45.00
G01 X37.5130 Y-43.4071 F45.00
G01 X37.5823 Y-43.3823 F45.00
G01 X37.6537 Y-43.3644 F45.00
G01 X37.7265 Y-43.3536 F45.00
G01 X37.8000 Y-43.3500 F45.00
G01 X37.8735 Y-43.3536 F45.00
G01 X37.9463 Y-43.3644 F45.00
G01 X38.0177 Y-43.3823 F45.00
G01 X38.0870 Y-43.4071 F45.00
G01 X38.1535 Y-43.4386 F45.00
G01 X38.2167 Y-43.4764 F45.00
G01 X38.2758 Y-43.5202 F45.00
G01 X38.3303 Y-43.5697 F45.00
G01 X38.3798 Y-43.6242 F45.00
G01 X38.4236 Y-43.6833 F45.00
G01 X38.4614 Y-43.7465 F45.00
G01 X38.4929 Y-43.8130 F45.00
G01 X38.5177 Y-43.8823 F45.00
G01 X38.5356 Y-43.9537 F45.00
G01 X38.5464 Y-44.0265 F45.00
G01 X38.5500 Y-44.1000 F45.00
G00 X38.5500 Y-44.1000
G01 F30.00
G01 Z-1.2000
G01 F45.00
G01 X38.5464 Y-44.1735 F45.00
G01 X38.5356 Y-44.2463 F45.00
G01 X38.5177 Y-44.3177 F45.00
G01 X38.4929 Y-44.3870 F45.00
G01 X38.4614 Y-44.4535 F45.00
G01 X38.4236 Y-44.5167 F45.00
G01 X38.3798 Y-44.5758 F45.00
G01 X38.3303 Y-44.6303 F45.00
G01 X38.2758 Y-44.6798 F45.00
G01 X38.2167 Y-44.7236 F45.00
G01 X38.1535 Y-44.7614 F45.00
G01 X38.0870 Y-44.7929 F45.00
G01 X38.0177 Y-44.8177 F45.00
G01 X37.9463 Y-44.8356 F45.00
G01 X37.8735 Y-44.8464 F45.00
G01 X37.8000 Y-44.8500 F45.00
G01 X37.7265 Y-44.8464 F45.00
G01 X37.6537 Y-44.8356 F45.00
G01 X37.5823 Y-44.8177 F45.00
G01 X37.5130 Y-44.7929 F45.00
G01 X37.4465 Y-44.7614 F45.00
G01 X37.3833 Y-44.7236 F45.00
G01 X37.3242 Y-44.6798 F45.00
G01 X37.2697 Y-44.6303 F45.00
G01 X37.2202 Y-44.5758 F45.00
G01 X37.1764 Y-44.5167 F45.00
G01 X37.1386 Y-44.4535 F45.00
G01 X37.1071 Y-44.3870 F45.00
G01 X37.0823 Y-44.3177 F45.00
G01 X37.0644 Y-44.2463 F45.00
G01 X37.0536 Y-44.1735 F45.00
G01 X37.0500 Y-44.1000 F45.00
G01 X37.0536 Y-44.0265 F45.00
G01 X37.0644 Y-43.9537 F45.00
G01 X37.0823 Y-43.8823 F45.00
G01 X37.1071 Y-43.8130 F45.00
G01 X37.1386 Y-43.7465 F45.00
G01 X37.1764 Y-43.6833 F45.00
G01 X37.2202 Y-43.6242 F45.00
G01 X37.2697 Y-43.5697 F45.00
G01 X37.3242 Y-43.5202 F45.00
G01 X37.3833 Y-43.4764 F45.00
G01 X37.4465 Y-43.4386 F45.00
G01 X37.5130 Y-43.4071 F45.00
G01 X37.5823 Y-43.3823 F45.00
G01 X37.6537 Y-43.3644 F45.00
G01 X37.7265 Y-43.3536 F45.00
G01 X37.8000 Y-43.3500 F45.00
G01 X37.8735 Y-43.3536 F45.00
G01 X37.9463 Y-43.3644 F45.00
G01 X38.0177 Y-43.3823 F45.00
G01 X38.0870 Y-43.4071 F45.00
G01 X38.1535 Y-43.4386 F45.00
G01 X38.2167 Y-43.4764 F45.00
G01 X38.2758 Y-43.5202 F45.00
G01 X38.3303 Y-43.5697 F45.00
G01 X38.3798 Y-43.6242 F45.00
G01 X38.4236 Y-43.6833 F45.00
G01 X38.4614 Y-43.7465 F45.00
G01 X38.4929 Y-43.8130 F45.00
G01 X38.5177 Y-43.8823 F45.00
G01 X38.5356 Y-43.9537 F45.00
G01 X38.5464 Y-44.0265 F45.00
G01 X38.5500 Y-44.1000 F45.00
G00 X38.5500 Y-44.1000
G01 F30.00
G01 Z-1.5000
G01 F45.00
G01 X38.5464 Y-44.1735 F45.00
G01 X38.5356 Y-44.2463 F45.00
G01 X38.5177 Y-44.3177 F45.00
G01 X38.4929 Y-44.3870 F45.00
G01 X38.4614 Y-44.4535 F45.00
G01 X38.4236 Y-44.5167 F45.00
G01 X38.3798 Y-44.5758 F45.00
G01 X38.3303 Y-44.6303 F45.00
G01 X38.2758 Y-44.6798 F45.00
G01 X38.2167 Y-44.7236 F45.00
G01 X38.1535 Y-44.7614 F45.00
G01 X38.0870 Y-44.7929 F45.00
G01 X38.0177 Y-44.8177 F45.00
G01 X37.9463 Y-44.8356 F45.00
G01 X37.8735 Y-44.8464 F45.00
G01 X37.8000 Y-44.8500 F45.00
G01 X37.7265 Y-44.8464 F45.00
G01 X37.6537 Y-44.8356 F45.00
G01 X37.5823 Y-44.8177 F45.00
G01 X37.5130 Y-44.7929 F45.00
G01 X37.4465 Y-44.7614 F45.00
G01 X37.3833 Y-44.7236 F45.00
G01 X37.3242 Y-44.6798 F45.00
G01 X37.2697 Y-44.6303 F45.00
G01 X37.2202 Y-44.5758 F45.00
G01 X37.1764 Y-44.5167 F45.00
G01 X37.1386 Y-44.4535 F45.00
G01 X37.1071 Y-44.3870 F45.00
G01 X37.0823 Y-44.3177 F45.00
G01 X37.0644 Y-44.2463 F45.00
G01 X37.0536 Y-44.1735 F45.00
G01 X37.0500 Y-44.1000 F45.00
G01 X37.0536 Y-44.0265 F45.00
G01 X37.0644 Y-43.9537 F45.00
G01 X37.0823 Y-43.8823 F45.00
G01 X37.1071 Y-43.8130 F45.00
G01 X37.1386 Y-43.7465 F45.00
G01 X37.1764 Y-43.6833 F45.00
G01 X37.2202 Y-43.6242 F45.00
G01 X37.2697 Y-43.5697 F45.00
G01 X37.3242 Y-43.5202 F45.00
G01 X37.3833 Y-43.4764 F45.00
G01 X37.4465 Y-43.4386 F45.00
G01 X37.5130 Y-43.4071 F45.00
G01 X37.5823 Y-43.3823 F45.00
G01 X37.6537 Y-43.3644 F45.00
G01 X37.7265 Y-43.3536 F45.00
G01 X37.8000 Y-43.3500 F45.00
G01 X37.8735 Y-43.3536 F45.00
G01 X37.9463 Y-43.3644 F45.00
G01 X38.0177 Y-43.3823 F45.00
G01 X38.0870 Y-43.4071 F45.00
G01 X38.1535 Y-43.4386 F45.00
G01 X38.2167 Y-43.4764 F45.00
G01 X38.2758 Y-43.5202 F45.00
G01 X38.3303 Y-43.5697 F45.00
G01 X38.3798 Y-43.6242 F45.00
G01 X38.4236 Y-43.6833 F45.00
G01 X38.4614 Y-43.7465 F45.00
G01 X38.4929 Y-43.8130 F45.00
G01 X38.5177 Y-43.8823 F45.00
G01 X38.5356 Y-43.9537 F45.00
G01 X38.5464 Y-44.0265 F45.00
G01 X38.5500 Y-44.1000 F45.00
G00 X38.5500 Y-44.1000
G01 F30.00
G01 Z-1.8000
G01 F45.00
G01 X38.5464 Y-44.1735 F45.00
G01 X38.5356 Y-44.2463 F45.00
G01 X38.5177 Y-44.3177 F45.00
G01 X38.4929 Y-44.3870 F45.00
G01 X38.4614 Y-44.4535 F45.00
G01 X38.4236 Y-44.5167 F45.00
G01 X38.3798 Y-44.5758 F45.00
G01 X38.3303 Y-44.6303 F45.00
G01 X38.2758 Y-44.6798 F45.00
G01 X38.2167 Y-44.7236 F45.00
G01 X38.1535 Y-44.7614 F45.00
G01 X38.0870 Y-44.7929 F45.00
G01 X38.0177 Y-44.8177 F45.00
G01 X37.9463 Y-44.8356 F45.00
G01 X37.8735 Y-44.8464 F45.00
G01 X37.8000 Y-44.8500 F45.00
G01 X37.7265 Y-44.8464 F45.00
G01 X37.6537 Y-44.8356 F45.00
G01 X37.5823 Y-44.8177 F45.00
G01 X37.5130 Y-44.7929 F45.00
G01 X37.4465 Y-44.7614 F45.00
G01 X37.3833 Y-44.7236 F45.00
G01 X37.3242 Y-44.6798 F45.00
G01 X37.2697 Y-44.6303 F45.00
G01 X37.2202 Y-44.5758 F45.00
G01 X37.1764 Y-44.5167 F45.00
G01 X37.1386 Y-44.4535 F45.00
G01 X37.1071 Y-44.3870 F45.00
G01 X37.0823 Y-44.3177 F45.00
G01 X37.0644 Y-44.2463 F45.00
G01 X37.0536 Y-44.1735 F45.00
G01 X37.0500 Y-44.1000 F45.00
G01 X37.0536 Y-44.0265 F45.00
G01 X37.0644 Y-43.9537 F45.00
G01 X37.0823 Y-43.8823 F45.00
G01 X37.1071 Y-43.8130 F45.00
G01 X37.1386 Y-43.7465 F45.00
G01 X37.1764 Y-43.6833 F45.00
G01 X37.2202 Y-43.6242 F45.00
G01 X37.2697 Y-43.5697 F45.00
G01 X37.3242 Y-43.5202 F45.00
G01 X37.3833 Y-43.4764 F45.00
G01 X37.4465 Y-43.4386 F45.00
G01 X37.5130 Y-43.4071 F45.00
G01 X37.5823 Y-43.3823 F45.00
G01 X37.6537 Y-43.3644 F45.00
G01 X37.7265 Y-43.3536 F45.00
G01 X37.8000 Y-43.3500 F45.00
G01 X37.8735 Y-43.3536 F45.00
G01 X37.9463 Y-43.3644 F45.00
G01 X38.0177 Y-43.3823 F45.00
G01 X38.0870 Y-43.4071 F45.00
G01 X38.1535 Y-43.4386 F45.00
G01 X38.2167 Y-43.4764 F45.00
G01 X38.2758 Y-43.5202 F45.00
G01 X38.3303 Y-43.5697 F45.00
G01 X38.3798 Y-43.6242 F45.00
G01 X38.4236 Y-43.6833 F45.00
G01 X38.4614 Y-43.7465 F45.00
G01 X38.4929 Y-43.8130 F45.00
G01 X38.5177 Y-43.8823 F45.00
G01 X38.5356 Y-43.9537 F45.00
G01 X38.5464 Y-44.0265 F45.00
G01 X38.5500 Y-44.1000 F45.00
G00 Z2.0000
M05
G00 Z2.0000
G00 Z15.00
G00 X0.0 Y0.0


