(G-CODE GENERATED BY FLATCAM v8.994 - www.flatcam.org - Version Date: 2020/11/7)

(Name: night-light-Edge_Cuts.gbr_cutout_cnc)
(Type: G-code from Geometry)
(Units: MM)

(Created on Monday, 30 May 2022 at 20:21)

(This preprocessor is used with a motion controller loaded with GRBL firmware.)
(It is configured to be compatible with almost any version of GRBL firmware.)

(TOOL DIAMETER: 1.8 mm)
(Feedrate_XY: 45.0 mm/min)
(Feedrate_Z: 30.0 mm/min)
(Feedrate rapids 1500.0 mm/min)

(Z_Cut: -1.8 mm)
(DepthPerCut: 0.3 mm <=>6 passes)
(Z_Move: 2.0 mm)
(Z Start: None mm)
(Z End: 15.0 mm)
(X,Y End: 0.0000, 0.0000 mm)
(Steps per circle: 64)
(Steps per circle: 64)
(Preprocessor Geometry: grbl_11)

(X range:   -0.2250 ...   50.2187  mm)
(Y range:  -50.2250 ...   -0.5750  mm)

(Spindle Speed: 12000.0 RPM)
G21
G90
G17
G94


G01 F45.00

M5             
G00 X0.0000 Y0.0000                

M03 S12000.0
G01 F45.00
G00 X11.2859 Y-0.5750
G01 F30.00
G01 Z-0.3000
G01 F45.00
G01 X3.8000 Y-0.5750 F45.00
G01 X3.7485 Y-0.5763 F45.00
G01 X3.6484 Y-0.5863 F45.00
G01 X3.5521 Y-0.6054 F45.00
G01 X3.4558 Y-0.6345 F45.00
G01 X3.3629 Y-0.6729 F45.00
G01 X3.2741 Y-0.7202 F45.00
G01 X3.1904 Y-0.7760 F45.00
G01 X3.1126 Y-0.8397 F45.00
G01 X3.0414 Y-0.9108 F45.00
G01 X2.9775 Y-0.9884 F45.00
G01 X2.9215 Y-1.0720 F45.00
G01 X2.8740 Y-1.1607 F45.00
G01 X2.8345 Y-1.2558 F45.00
G01 X2.8054 Y-1.3521 F45.00
G01 X2.7863 Y-1.4484 F45.00
G01 X2.7763 Y-1.5485 F45.00
G01 X2.7750 Y-1.6000 F45.00
G01 X2.7750 Y-11.6875 F45.00
G00 X2.7750 Y-11.6875
G01 F30.00
G01 Z-0.6000
G01 F45.00
G01 X2.7750 Y-1.6000 F45.00
G01 X2.7763 Y-1.5485 F45.00
G01 X2.7863 Y-1.4484 F45.00
G01 X2.8054 Y-1.3521 F45.00
G01 X2.8345 Y-1.2558 F45.00
G01 X2.8740 Y-1.1607 F45.00
G01 X2.9215 Y-1.0720 F45.00
G01 X2.9775 Y-0.9884 F45.00
G01 X3.0414 Y-0.9108 F45.00
G01 X3.1126 Y-0.8397 F45.00
G01 X3.1904 Y-0.7760 F45.00
G01 X3.2741 Y-0.7202 F45.00
G01 X3.3629 Y-0.6729 F45.00
G01 X3.4558 Y-0.6345 F45.00
G01 X3.5521 Y-0.6054 F45.00
G01 X3.6484 Y-0.5863 F45.00
G01 X3.7485 Y-0.5763 F45.00
G01 X3.8000 Y-0.5750 F45.00
G01 X11.2859 Y-0.5750 F45.00
G00 X11.2859 Y-0.5750
G01 F30.00
G01 Z-0.9000
G01 F45.00
G01 X3.8000 Y-0.5750 F45.00
G01 X3.7485 Y-0.5763 F45.00
G01 X3.6484 Y-0.5863 F45.00
G01 X3.5521 Y-0.6054 F45.00
G01 X3.4558 Y-0.6345 F45.00
G01 X3.3629 Y-0.6729 F45.00
G01 X3.2741 Y-0.7202 F45.00
G01 X3.1904 Y-0.7760 F45.00
G01 X3.1126 Y-0.8397 F45.00
G01 X3.0414 Y-0.9108 F45.00
G01 X2.9775 Y-0.9884 F45.00
G01 X2.9215 Y-1.0720 F45.00
G01 X2.8740 Y-1.1607 F45.00
G01 X2.8345 Y-1.2558 F45.00
G01 X2.8054 Y-1.3521 F45.00
G01 X2.7863 Y-1.4484 F45.00
G01 X2.7763 Y-1.5485 F45.00
G01 X2.7750 Y-1.6000 F45.00
G01 X2.7750 Y-11.6875 F45.00
G00 X2.7750 Y-11.6875
G01 F30.00
G01 Z-1.2000
G01 F45.00
G01 X2.7750 Y-1.6000 F45.00
G01 X2.7763 Y-1.5485 F45.00
G01 X2.7863 Y-1.4484 F45.00
G01 X2.8054 Y-1.3521 F45.00
G01 X2.8345 Y-1.2558 F45.00
G01 X2.8740 Y-1.1607 F45.00
G01 X2.9215 Y-1.0720 F45.00
G01 X2.9775 Y-0.9884 F45.00
G01 X3.0414 Y-0.9108 F45.00
G01 X3.1126 Y-0.8397 F45.00
G01 X3.1904 Y-0.7760 F45.00
G01 X3.2741 Y-0.7202 F45.00
G01 X3.3629 Y-0.6729 F45.00
G01 X3.4558 Y-0.6345 F45.00
G01 X3.5521 Y-0.6054 F45.00
G01 X3.6484 Y-0.5863 F45.00
G01 X3.7485 Y-0.5763 F45.00
G01 X3.8000 Y-0.5750 F45.00
G01 X11.2859 Y-0.5750 F45.00
G00 X11.2859 Y-0.5750
G01 F30.00
G01 Z-1.5000
G01 F45.00
G01 X3.8000 Y-0.5750 F45.00
G01 X3.7485 Y-0.5763 F45.00
G01 X3.6484 Y-0.5863 F45.00
G01 X3.5521 Y-0.6054 F45.00
G01 X3.4558 Y-0.6345 F45.00
G01 X3.3629 Y-0.6729 F45.00
G01 X3.2741 Y-0.7202 F45.00
G01 X3.1904 Y-0.7760 F45.00
G01 X3.1126 Y-0.8397 F45.00
G01 X3.0414 Y-0.9108 F45.00
G01 X2.9775 Y-0.9884 F45.00
G01 X2.9215 Y-1.0720 F45.00
G01 X2.8740 Y-1.1607 F45.00
G01 X2.8345 Y-1.2558 F45.00
G01 X2.8054 Y-1.3521 F45.00
G01 X2.7863 Y-1.4484 F45.00
G01 X2.7763 Y-1.5485 F45.00
G01 X2.7750 Y-1.6000 F45.00
G01 X2.7750 Y-11.6875 F45.00
G00 X2.7750 Y-11.6875
G01 F30.00
G01 Z-1.8000
G01 F45.00
G01 X2.7750 Y-1.6000 F45.00
G01 X2.7763 Y-1.5485 F45.00
G01 X2.7863 Y-1.4484 F45.00
G01 X2.8054 Y-1.3521 F45.00
G01 X2.8345 Y-1.2558 F45.00
G01 X2.8740 Y-1.1607 F45.00
G01 X2.9215 Y-1.0720 F45.00
G01 X2.9775 Y-0.9884 F45.00
G01 X3.0414 Y-0.9108 F45.00
G01 X3.1126 Y-0.8397 F45.00
G01 X3.1904 Y-0.7760 F45.00
G01 X3.2741 Y-0.7202 F45.00
G01 X3.3629 Y-0.6729 F45.00
G01 X3.4558 Y-0.6345 F45.00
G01 X3.5521 Y-0.6054 F45.00
G01 X3.6484 Y-0.5863 F45.00
G01 X3.7485 Y-0.5763 F45.00
G01 X3.8000 Y-0.5750 F45.00
G01 X11.2859 Y-0.5750 F45.00
G00 Z2.0000
G00 X13.5859 Y-0.5750
G01 F30.00
G01 Z-0.3000
G01 F45.00
G01 X36.0060 Y-0.5750 F45.00
G01 X36.0572 Y-0.5766 F45.00
G01 X36.1065 Y-0.5805 F45.00
G01 X36.1576 Y-0.5872 F45.00
G01 X36.2062 Y-0.5959 F45.00
G01 X36.2544 Y-0.6071 F45.00
G01 X36.3043 Y-0.6212 F45.00
G01 X36.3528 Y-0.6376 F45.00
G01 X36.3988 Y-0.6557 F45.00
G01 X36.4457 Y-0.6770 F45.00
G01 X36.4897 Y-0.6996 F45.00
G01 X36.5326 Y-0.7242 F45.00
G01 X36.5759 Y-0.7521 F45.00
G01 X36.6078 Y-0.7741 F45.00
G00 X36.6078 Y-0.7741
G01 F30.00
G01 Z-0.6000
G01 F45.00
G01 X36.5759 Y-0.7521 F45.00
G01 X36.5326 Y-0.7242 F45.00
G01 X36.4897 Y-0.6996 F45.00
G01 X36.4457 Y-0.6770 F45.00
G01 X36.3988 Y-0.6557 F45.00
G01 X36.3528 Y-0.6376 F45.00
G01 X36.3043 Y-0.6212 F45.00
G01 X36.2544 Y-0.6071 F45.00
G01 X36.2062 Y-0.5959 F45.00
G01 X36.1576 Y-0.5872 F45.00
G01 X36.1065 Y-0.5805 F45.00
G01 X36.0572 Y-0.5766 F45.00
G01 X36.0060 Y-0.5750 F45.00
G01 X13.5859 Y-0.5750 F45.00
G00 X13.5859 Y-0.5750
G01 F30.00
G01 Z-0.9000
G01 F45.00
G01 X36.0060 Y-0.5750 F45.00
G01 X36.0572 Y-0.5766 F45.00
G01 X36.1065 Y-0.5805 F45.00
G01 X36.1576 Y-0.5872 F45.00
G01 X36.2062 Y-0.5959 F45.00
G01 X36.2544 Y-0.6071 F45.00
G01 X36.3043 Y-0.6212 F45.00
G01 X36.3528 Y-0.6376 F45.00
G01 X36.3988 Y-0.6557 F45.00
G01 X36.4457 Y-0.6770 F45.00
G01 X36.4897 Y-0.6996 F45.00
G01 X36.5326 Y-0.7242 F45.00
G01 X36.5759 Y-0.7521 F45.00
G01 X36.6078 Y-0.7741 F45.00
G00 X36.6078 Y-0.7741
G01 F30.00
G01 Z-1.2000
G01 F45.00
G01 X36.5759 Y-0.7521 F45.00
G01 X36.5326 Y-0.7242 F45.00
G01 X36.4897 Y-0.6996 F45.00
G01 X36.4457 Y-0.6770 F45.00
G01 X36.3988 Y-0.6557 F45.00
G01 X36.3528 Y-0.6376 F45.00
G01 X36.3043 Y-0.6212 F45.00
G01 X36.2544 Y-0.6071 F45.00
G01 X36.2062 Y-0.5959 F45.00
G01 X36.1576 Y-0.5872 F45.00
G01 X36.1065 Y-0.5805 F45.00
G01 X36.0572 Y-0.5766 F45.00
G01 X36.0060 Y-0.5750 F45.00
G01 X13.5859 Y-0.5750 F45.00
G00 X13.5859 Y-0.5750
G01 F30.00
G01 Z-1.5000
G01 F45.00
G01 X36.0060 Y-0.5750 F45.00
G01 X36.0572 Y-0.5766 F45.00
G01 X36.1065 Y-0.5805 F45.00
G01 X36.1576 Y-0.5872 F45.00
G01 X36.2062 Y-0.5959 F45.00
G01 X36.2544 Y-0.6071 F45.00
G01 X36.3043 Y-0.6212 F45.00
G01 X36.3528 Y-0.6376 F45.00
G01 X36.3988 Y-0.6557 F45.00
G01 X36.4457 Y-0.6770 F45.00
G01 X36.4897 Y-0.6996 F45.00
G01 X36.5326 Y-0.7242 F45.00
G01 X36.5759 Y-0.7521 F45.00
G01 X36.6078 Y-0.7741 F45.00
G00 X36.6078 Y-0.7741
G01 F30.00
G01 Z-1.8000
G01 F45.00
G01 X36.5759 Y-0.7521 F45.00
G01 X36.5326 Y-0.7242 F45.00
G01 X36.4897 Y-0.6996 F45.00
G01 X36.4457 Y-0.6770 F45.00
G01 X36.3988 Y-0.6557 F45.00
G01 X36.3528 Y-0.6376 F45.00
G01 X36.3043 Y-0.6212 F45.00
G01 X36.2544 Y-0.6071 F45.00
G01 X36.2062 Y-0.5959 F45.00
G01 X36.1576 Y-0.5872 F45.00
G01 X36.1065 Y-0.5805 F45.00
G01 X36.0572 Y-0.5766 F45.00
G01 X36.0060 Y-0.5750 F45.00
G01 X13.5859 Y-0.5750 F45.00
G00 Z2.0000
G00 X38.9078 Y-2.3721
G01 F30.00
G01 Z-0.3000
G01 F45.00
G01 X40.9562 Y-4.1019 F45.00
G01 X40.9941 Y-4.1356 F45.00
G01 X41.0287 Y-4.1693 F45.00
G01 X42.9186 Y-6.1070 F45.00
G01 X42.9531 Y-6.1442 F45.00
G01 X42.9842 Y-6.1811 F45.00
G01 X44.6784 Y-8.2921 F45.00
G01 X44.7092 Y-8.3324 F45.00
G01 X44.7366 Y-8.3722 F45.00
G01 X46.2193 Y-10.6367 F45.00
G01 X46.2447 Y-10.6778 F45.00
G01 X46.2694 Y-10.7221 F45.00
G01 X46.7758 Y-11.6875 F45.00
G00 X46.7758 Y-11.6875
G01 F30.00
G01 Z-0.6000
G01 F45.00
G01 X46.2694 Y-10.7221 F45.00
G01 X46.2447 Y-10.6778 F45.00
G01 X46.2193 Y-10.6367 F45.00
G01 X44.7366 Y-8.3722 F45.00
G01 X44.7092 Y-8.3324 F45.00
G01 X44.6784 Y-8.2921 F45.00
G01 X42.9842 Y-6.1811 F45.00
G01 X42.9531 Y-6.1442 F45.00
G01 X42.9186 Y-6.1070 F45.00
G01 X41.0287 Y-4.1693 F45.00
G01 X40.9941 Y-4.1356 F45.00
G01 X40.9562 Y-4.1019 F45.00
G01 X38.9078 Y-2.3721 F45.00
G00 X38.9078 Y-2.3721
G01 F30.00
G01 Z-0.9000
G01 F45.00
G01 X40.9562 Y-4.1019 F45.00
G01 X40.9941 Y-4.1356 F45.00
G01 X41.0287 Y-4.1693 F45.00
G01 X42.9186 Y-6.1070 F45.00
G01 X42.9531 Y-6.1442 F45.00
G01 X42.9842 Y-6.1811 F45.00
G01 X44.6784 Y-8.2921 F45.00
G01 X44.7092 Y-8.3324 F45.00
G01 X44.7366 Y-8.3722 F45.00
G01 X46.2193 Y-10.6367 F45.00
G01 X46.2447 Y-10.6778 F45.00
G01 X46.2694 Y-10.7221 F45.00
G01 X46.7758 Y-11.6875 F45.00
G00 X46.7758 Y-11.6875
G01 F30.00
G01 Z-1.2000
G01 F45.00
G01 X46.2694 Y-10.7221 F45.00
G01 X46.2447 Y-10.6778 F45.00
G01 X46.2193 Y-10.6367 F45.00
G01 X44.7366 Y-8.3722 F45.00
G01 X44.7092 Y-8.3324 F45.00
G01 X44.6784 Y-8.2921 F45.00
G01 X42.9842 Y-6.1811 F45.00
G01 X42.9531 Y-6.1442 F45.00
G01 X42.9186 Y-6.1070 F45.00
G01 X41.0287 Y-4.1693 F45.00
G01 X40.9941 Y-4.1356 F45.00
G01 X40.9562 Y-4.1019 F45.00
G01 X38.9078 Y-2.3721 F45.00
G00 X38.9078 Y-2.3721
G01 F30.00
G01 Z-1.5000
G01 F45.00
G01 X40.9562 Y-4.1019 F45.00
G01 X40.9941 Y-4.1356 F45.00
G01 X41.0287 Y-4.1693 F45.00
G01 X42.9186 Y-6.1070 F45.00
G01 X42.9531 Y-6.1442 F45.00
G01 X42.9842 Y-6.1811 F45.00
G01 X44.6784 Y-8.2921 F45.00
G01 X44.7092 Y-8.3324 F45.00
G01 X44.7366 Y-8.3722 F45.00
G01 X46.2193 Y-10.6367 F45.00
G01 X46.2447 Y-10.6778 F45.00
G01 X46.2694 Y-10.7221 F45.00
G01 X46.7758 Y-11.6875 F45.00
G00 X46.7758 Y-11.6875
G01 F30.00
G01 Z-1.8000
G01 F45.00
G01 X46.2694 Y-10.7221 F45.00
G01 X46.2447 Y-10.6778 F45.00
G01 X46.2193 Y-10.6367 F45.00
G01 X44.7366 Y-8.3722 F45.00
G01 X44.7092 Y-8.3324 F45.00
G01 X44.6784 Y-8.2921 F45.00
G01 X42.9842 Y-6.1811 F45.00
G01 X42.9531 Y-6.1442 F45.00
G01 X42.9186 Y-6.1070 F45.00
G01 X41.0287 Y-4.1693 F45.00
G01 X40.9941 Y-4.1356 F45.00
G01 X40.9562 Y-4.1019 F45.00
G01 X38.9078 Y-2.3721 F45.00
G00 Z2.0000
G00 X47.8853 Y-13.9875
G01 F30.00
G01 Z-0.3000
G01 F45.00
G01 X48.5886 Y-15.7160 F45.00
G01 X48.6066 Y-15.7634 F45.00
G01 X48.6215 Y-15.8094 F45.00
G01 X49.3951 Y-18.4032 F45.00
G01 X49.4084 Y-18.4521 F45.00
G01 X49.4188 Y-18.4993 F45.00
G01 X49.9385 Y-21.1557 F45.00
G01 X49.9470 Y-21.2057 F45.00
G01 X49.9528 Y-21.2536 F45.00
G01 X50.2140 Y-23.9478 F45.00
G01 X50.2176 Y-23.9983 F45.00
G01 X50.2187 Y-24.0466 F45.00
G01 X50.2187 Y-26.7534 F45.00
G01 X50.2174 Y-26.8041 F45.00
G01 X50.2140 Y-26.8522 F45.00
G01 X49.9528 Y-29.5464 F45.00
G01 X49.9467 Y-29.5967 F45.00
G01 X49.9385 Y-29.6443 F45.00
G01 X49.4188 Y-32.3007 F45.00
G01 X49.4078 Y-32.3502 F45.00
G01 X49.3951 Y-32.3968 F45.00
G01 X48.6215 Y-34.9906 F45.00
G01 X48.6066 Y-35.0366 F45.00
G01 X48.5886 Y-35.0840 F45.00
G01 X47.9667 Y-36.6125 F45.00
G00 X47.9667 Y-36.6125
G01 F30.00
G01 Z-0.6000
G01 F45.00
G01 X48.5886 Y-35.0840 F45.00
G01 X48.6066 Y-35.0366 F45.00
G01 X48.6215 Y-34.9906 F45.00
G01 X49.3951 Y-32.3968 F45.00
G01 X49.4078 Y-32.3502 F45.00
G01 X49.4188 Y-32.3007 F45.00
G01 X49.9385 Y-29.6443 F45.00
G01 X49.9467 Y-29.5967 F45.00
G01 X49.9528 Y-29.5464 F45.00
G01 X50.2140 Y-26.8522 F45.00
G01 X50.2174 Y-26.8041 F45.00
G01 X50.2187 Y-26.7534 F45.00
G01 X50.2187 Y-24.0466 F45.00
G01 X50.2176 Y-23.9983 F45.00
G01 X50.2140 Y-23.9478 F45.00
G01 X49.9528 Y-21.2536 F45.00
G01 X49.9470 Y-21.2057 F45.00
G01 X49.9385 Y-21.1557 F45.00
G01 X49.4188 Y-18.4993 F45.00
G01 X49.4084 Y-18.4521 F45.00
G01 X49.3951 Y-18.4032 F45.00
G01 X48.6215 Y-15.8094 F45.00
G01 X48.6066 Y-15.7634 F45.00
G01 X48.5886 Y-15.7160 F45.00
G01 X47.8853 Y-13.9875 F45.00
G00 X47.8853 Y-13.9875
G01 F30.00
G01 Z-0.9000
G01 F45.00
G01 X48.5886 Y-15.7160 F45.00
G01 X48.6066 Y-15.7634 F45.00
G01 X48.6215 Y-15.8094 F45.00
G01 X49.3951 Y-18.4032 F45.00
G01 X49.4084 Y-18.4521 F45.00
G01 X49.4188 Y-18.4993 F45.00
G01 X49.9385 Y-21.1557 F45.00
G01 X49.9470 Y-21.2057 F45.00
G01 X49.9528 Y-21.2536 F45.00
G01 X50.2140 Y-23.9478 F45.00
G01 X50.2176 Y-23.9983 F45.00
G01 X50.2187 Y-24.0466 F45.00
G01 X50.2187 Y-26.7534 F45.00
G01 X50.2174 Y-26.8041 F45.00
G01 X50.2140 Y-26.8522 F45.00
G01 X49.9528 Y-29.5464 F45.00
G01 X49.9467 Y-29.5967 F45.00
G01 X49.9385 Y-29.6443 F45.00
G01 X49.4188 Y-32.3007 F45.00
G01 X49.4078 Y-32.3502 F45.00
G01 X49.3951 Y-32.3968 F45.00
G01 X48.6215 Y-34.9906 F45.00
G01 X48.6066 Y-35.0366 F45.00
G01 X48.5886 Y-35.0840 F45.00
G01 X47.9667 Y-36.6125 F45.00
G00 X47.9667 Y-36.6125
G01 F30.00
G01 Z-1.2000
G01 F45.00
G01 X48.5886 Y-35.0840 F45.00
G01 X48.6066 Y-35.0366 F45.00
G01 X48.6215 Y-34.9906 F45.00
G01 X49.3951 Y-32.3968 F45.00
G01 X49.4078 Y-32.3502 F45.00
G01 X49.4188 Y-32.3007 F45.00
G01 X49.9385 Y-29.6443 F45.00
G01 X49.9467 Y-29.5967 F45.00
G01 X49.9528 Y-29.5464 F45.00
G01 X50.2140 Y-26.8522 F45.00
G01 X50.2174 Y-26.8041 F45.00
G01 X50.2187 Y-26.7534 F45.00
G01 X50.2187 Y-24.0466 F45.00
G01 X50.2176 Y-23.9983 F45.00
G01 X50.2140 Y-23.9478 F45.00
G01 X49.9528 Y-21.2536 F45.00
G01 X49.9470 Y-21.2057 F45.00
G01 X49.9385 Y-21.1557 F45.00
G01 X49.4188 Y-18.4993 F45.00
G01 X49.4084 Y-18.4521 F45.00
G01 X49.3951 Y-18.4032 F45.00
G01 X48.6215 Y-15.8094 F45.00
G01 X48.6066 Y-15.7634 F45.00
G01 X48.5886 Y-15.7160 F45.00
G01 X47.8853 Y-13.9875 F45.00
G00 X47.8853 Y-13.9875
G01 F30.00
G01 Z-1.5000
G01 F45.00
G01 X48.5886 Y-15.7160 F45.00
G01 X48.6066 Y-15.7634 F45.00
G01 X48.6215 Y-15.8094 F45.00
G01 X49.3951 Y-18.4032 F45.00
G01 X49.4084 Y-18.4521 F45.00
G01 X49.4188 Y-18.4993 F45.00
G01 X49.9385 Y-21.1557 F45.00
G01 X49.9470 Y-21.2057 F45.00
G01 X49.9528 Y-21.2536 F45.00
G01 X50.2140 Y-23.9478 F45.00
G01 X50.2176 Y-23.9983 F45.00
G01 X50.2187 Y-24.0466 F45.00
G01 X50.2187 Y-26.7534 F45.00
G01 X50.2174 Y-26.8041 F45.00
G01 X50.2140 Y-26.8522 F45.00
G01 X49.9528 Y-29.5464 F45.00
G01 X49.9467 Y-29.5967 F45.00
G01 X49.9385 Y-29.6443 F45.00
G01 X49.4188 Y-32.3007 F45.00
G01 X49.4078 Y-32.3502 F45.00
G01 X49.3951 Y-32.3968 F45.00
G01 X48.6215 Y-34.9906 F45.00
G01 X48.6066 Y-35.0366 F45.00
G01 X48.5886 Y-35.0840 F45.00
G01 X47.9667 Y-36.6125 F45.00
G00 X47.9667 Y-36.6125
G01 F30.00
G01 Z-1.8000
G01 F45.00
G01 X48.5886 Y-35.0840 F45.00
G01 X48.6066 Y-35.0366 F45.00
G01 X48.6215 Y-34.9906 F45.00
G01 X49.3951 Y-32.3968 F45.00
G01 X49.4078 Y-32.3502 F45.00
G01 X49.4188 Y-32.3007 F45.00
G01 X49.9385 Y-29.6443 F45.00
G01 X49.9467 Y-29.5967 F45.00
G01 X49.9528 Y-29.5464 F45.00
G01 X50.2140 Y-26.8522 F45.00
G01 X50.2174 Y-26.8041 F45.00
G01 X50.2187 Y-26.7534 F45.00
G01 X50.2187 Y-24.0466 F45.00
G01 X50.2176 Y-23.9983 F45.00
G01 X50.2140 Y-23.9478 F45.00
G01 X49.9528 Y-21.2536 F45.00
G01 X49.9470 Y-21.2057 F45.00
G01 X49.9385 Y-21.1557 F45.00
G01 X49.4188 Y-18.4993 F45.00
G01 X49.4084 Y-18.4521 F45.00
G01 X49.3951 Y-18.4032 F45.00
G01 X48.6215 Y-15.8094 F45.00
G01 X48.6066 Y-15.7634 F45.00
G01 X48.5886 Y-15.7160 F45.00
G01 X47.8853 Y-13.9875 F45.00
G00 Z2.0000
G00 X46.8807 Y-38.9125
G01 F30.00
G01 Z-0.3000
G01 F45.00
G01 X46.2694 Y-40.0779 F45.00
G01 X46.2447 Y-40.1222 F45.00
G01 X46.2193 Y-40.1633 F45.00
G01 X44.7366 Y-42.4278 F45.00
G01 X44.7078 Y-42.4695 F45.00
G01 X44.6784 Y-42.5079 F45.00
G01 X42.9842 Y-44.6189 F45.00
G01 X42.9515 Y-44.6576 F45.00
G01 X42.9186 Y-44.6930 F45.00
G01 X41.0287 Y-46.6307 F45.00
G01 X40.9941 Y-46.6644 F45.00
G01 X40.9562 Y-46.6981 F45.00
G01 X38.9078 Y-48.4279 F45.00
G00 X38.9078 Y-48.4279
G01 F30.00
G01 Z-0.6000
G01 F45.00
G01 X40.9562 Y-46.6981 F45.00
G01 X40.9941 Y-46.6644 F45.00
G01 X41.0287 Y-46.6307 F45.00
G01 X42.9186 Y-44.6930 F45.00
G01 X42.9515 Y-44.6576 F45.00
G01 X42.9842 Y-44.6189 F45.00
G01 X44.6784 Y-42.5079 F45.00
G01 X44.7078 Y-42.4695 F45.00
G01 X44.7366 Y-42.4278 F45.00
G01 X46.2193 Y-40.1633 F45.00
G01 X46.2447 Y-40.1222 F45.00
G01 X46.2694 Y-40.0779 F45.00
G01 X46.8807 Y-38.9125 F45.00
G00 X46.8807 Y-38.9125
G01 F30.00
G01 Z-0.9000
G01 F45.00
G01 X46.2694 Y-40.0779 F45.00
G01 X46.2447 Y-40.1222 F45.00
G01 X46.2193 Y-40.1633 F45.00
G01 X44.7366 Y-42.4278 F45.00
G01 X44.7078 Y-42.4695 F45.00
G01 X44.6784 Y-42.5079 F45.00
G01 X42.9842 Y-44.6189 F45.00
G01 X42.9515 Y-44.6576 F45.00
G01 X42.9186 Y-44.6930 F45.00
G01 X41.0287 Y-46.6307 F45.00
G01 X40.9941 Y-46.6644 F45.00
G01 X40.9562 Y-46.6981 F45.00
G01 X38.9078 Y-48.4279 F45.00
G00 X38.9078 Y-48.4279
G01 F30.00
G01 Z-1.2000
G01 F45.00
G01 X40.9562 Y-46.6981 F45.00
G01 X40.9941 Y-46.6644 F45.00
G01 X41.0287 Y-46.6307 F45.00
G01 X42.9186 Y-44.6930 F45.00
G01 X42.9515 Y-44.6576 F45.00
G01 X42.9842 Y-44.6189 F45.00
G01 X44.6784 Y-42.5079 F45.00
G01 X44.7078 Y-42.4695 F45.00
G01 X44.7366 Y-42.4278 F45.00
G01 X46.2193 Y-40.1633 F45.00
G01 X46.2447 Y-40.1222 F45.00
G01 X46.2694 Y-40.0779 F45.00
G01 X46.8807 Y-38.9125 F45.00
G00 X46.8807 Y-38.9125
G01 F30.00
G01 Z-1.5000
G01 F45.00
G01 X46.2694 Y-40.0779 F45.00
G01 X46.2447 Y-40.1222 F45.00
G01 X46.2193 Y-40.1633 F45.00
G01 X44.7366 Y-42.4278 F45.00
G01 X44.7078 Y-42.4695 F45.00
G01 X44.6784 Y-42.5079 F45.00
G01 X42.9842 Y-44.6189 F45.00
G01 X42.9515 Y-44.6576 F45.00
G01 X42.9186 Y-44.6930 F45.00
G01 X41.0287 Y-46.6307 F45.00
G01 X40.9941 Y-46.6644 F45.00
G01 X40.9562 Y-46.6981 F45.00
G01 X38.9078 Y-48.4279 F45.00
G00 X38.9078 Y-48.4279
G01 F30.00
G01 Z-1.8000
G01 F45.00
G01 X40.9562 Y-46.6981 F45.00
G01 X40.9941 Y-46.6644 F45.00
G01 X41.0287 Y-46.6307 F45.00
G01 X42.9186 Y-44.6930 F45.00
G01 X42.9515 Y-44.6576 F45.00
G01 X42.9842 Y-44.6189 F45.00
G01 X44.6784 Y-42.5079 F45.00
G01 X44.7078 Y-42.4695 F45.00
G01 X44.7366 Y-42.4278 F45.00
G01 X46.2193 Y-40.1633 F45.00
G01 X46.2447 Y-40.1222 F45.00
G01 X46.2694 Y-40.0779 F45.00
G01 X46.8807 Y-38.9125 F45.00
G00 Z2.0000
G00 X36.6078 Y-50.0259
G01 F30.00
G01 Z-0.3000
G01 F45.00
G01 X36.5759 Y-50.0479 F45.00
G01 X36.5329 Y-50.0756 F45.00
G01 X36.4904 Y-50.1001 F45.00
G01 X36.4464 Y-50.1227 F45.00
G01 X36.3994 Y-50.1440 F45.00
G01 X36.3519 Y-50.1627 F45.00
G01 X36.3054 Y-50.1785 F45.00
G01 X36.2558 Y-50.1926 F45.00
G01 X36.2076 Y-50.2038 F45.00
G01 X36.1593 Y-50.2125 F45.00
G01 X36.1082 Y-50.2193 F45.00
G01 X36.0593 Y-50.2233 F45.00
G01 X36.0082 Y-50.2250 F45.00
G01 X13.5859 Y-50.2250 F45.00
G00 X13.5859 Y-50.2250
G01 F30.00
G01 Z-0.6000
G01 F45.00
G01 X36.0082 Y-50.2250 F45.00
G01 X36.0593 Y-50.2233 F45.00
G01 X36.1082 Y-50.2193 F45.00
G01 X36.1593 Y-50.2125 F45.00
G01 X36.2076 Y-50.2038 F45.00
G01 X36.2558 Y-50.1926 F45.00
G01 X36.3054 Y-50.1785 F45.00
G01 X36.3519 Y-50.1627 F45.00
G01 X36.3994 Y-50.1440 F45.00
G01 X36.4464 Y-50.1227 F45.00
G01 X36.4904 Y-50.1001 F45.00
G01 X36.5329 Y-50.0756 F45.00
G01 X36.5759 Y-50.0479 F45.00
G01 X36.6078 Y-50.0259 F45.00
G00 X36.6078 Y-50.0259
G01 F30.00
G01 Z-0.9000
G01 F45.00
G01 X36.5759 Y-50.0479 F45.00
G01 X36.5329 Y-50.0756 F45.00
G01 X36.4904 Y-50.1001 F45.00
G01 X36.4464 Y-50.1227 F45.00
G01 X36.3994 Y-50.1440 F45.00
G01 X36.3519 Y-50.1627 F45.00
G01 X36.3054 Y-50.1785 F45.00
G01 X36.2558 Y-50.1926 F45.00
G01 X36.2076 Y-50.2038 F45.00
G01 X36.1593 Y-50.2125 F45.00
G01 X36.1082 Y-50.2193 F45.00
G01 X36.0593 Y-50.2233 F45.00
G01 X36.0082 Y-50.2250 F45.00
G01 X13.5859 Y-50.2250 F45.00
G00 X13.5859 Y-50.2250
G01 F30.00
G01 Z-1.2000
G01 F45.00
G01 X36.0082 Y-50.2250 F45.00
G01 X36.0593 Y-50.2233 F45.00
G01 X36.1082 Y-50.2193 F45.00
G01 X36.1593 Y-50.2125 F45.00
G01 X36.2076 Y-50.2038 F45.00
G01 X36.2558 Y-50.1926 F45.00
G01 X36.3054 Y-50.1785 F45.00
G01 X36.3519 Y-50.1627 F45.00
G01 X36.3994 Y-50.1440 F45.00
G01 X36.4464 Y-50.1227 F45.00
G01 X36.4904 Y-50.1001 F45.00
G01 X36.5329 Y-50.0756 F45.00
G01 X36.5759 Y-50.0479 F45.00
G01 X36.6078 Y-50.0259 F45.00
G00 X36.6078 Y-50.0259
G01 F30.00
G01 Z-1.5000
G01 F45.00
G01 X36.5759 Y-50.0479 F45.00
G01 X36.5329 Y-50.0756 F45.00
G01 X36.4904 Y-50.1001 F45.00
G01 X36.4464 Y-50.1227 F45.00
G01 X36.3994 Y-50.1440 F45.00
G01 X36.3519 Y-50.1627 F45.00
G01 X36.3054 Y-50.1785 F45.00
G01 X36.2558 Y-50.1926 F45.00
G01 X36.2076 Y-50.2038 F45.00
G01 X36.1593 Y-50.2125 F45.00
G01 X36.1082 Y-50.2193 F45.00
G01 X36.0593 Y-50.2233 F45.00
G01 X36.0082 Y-50.2250 F45.00
G01 X13.5859 Y-50.2250 F45.00
G00 X13.5859 Y-50.2250
G01 F30.00
G01 Z-1.8000
G01 F45.00
G01 X36.0082 Y-50.2250 F45.00
G01 X36.0593 Y-50.2233 F45.00
G01 X36.1082 Y-50.2193 F45.00
G01 X36.1593 Y-50.2125 F45.00
G01 X36.2076 Y-50.2038 F45.00
G01 X36.2558 Y-50.1926 F45.00
G01 X36.3054 Y-50.1785 F45.00
G01 X36.3519 Y-50.1627 F45.00
G01 X36.3994 Y-50.1440 F45.00
G01 X36.4464 Y-50.1227 F45.00
G01 X36.4904 Y-50.1001 F45.00
G01 X36.5329 Y-50.0756 F45.00
G01 X36.5759 Y-50.0479 F45.00
G01 X36.6078 Y-50.0259 F45.00
G00 Z2.0000
G00 X11.2859 Y-50.2250
G01 F30.00
G01 Z-0.3000
G01 F45.00
G01 X0.8000 Y-50.2250 F45.00
G01 X0.7485 Y-50.2237 F45.00
G01 X0.6484 Y-50.2137 F45.00
G01 X0.5498 Y-50.1940 F45.00
G01 X0.4535 Y-50.1647 F45.00
G01 X0.3607 Y-50.1260 F45.00
G01 X0.2720 Y-50.0785 F45.00
G01 X0.1884 Y-50.0225 F45.00
G01 X0.1108 Y-49.9586 F45.00
G01 X0.0397 Y-49.8874 F45.00
G01 X-0.0240 Y-49.8096 F45.00
G01 X-0.0798 Y-49.7259 F45.00
G01 X-0.1271 Y-49.6371 F45.00
G01 X-0.1655 Y-49.5442 F45.00
G01 X-0.1946 Y-49.4479 F45.00
G01 X-0.2141 Y-49.3492 F45.00
G01 X-0.2238 Y-49.2491 F45.00
G01 X-0.2250 Y-49.2000 F45.00
G01 X-0.2250 Y-38.9125 F45.00
G00 X-0.2250 Y-38.9125
G01 F30.00
G01 Z-0.6000
G01 F45.00
G01 X-0.2250 Y-49.2000 F45.00
G01 X-0.2238 Y-49.2491 F45.00
G01 X-0.2141 Y-49.3492 F45.00
G01 X-0.1946 Y-49.4479 F45.00
G01 X-0.1655 Y-49.5442 F45.00
G01 X-0.1271 Y-49.6371 F45.00
G01 X-0.0798 Y-49.7259 F45.00
G01 X-0.0240 Y-49.8096 F45.00
G01 X0.0397 Y-49.8874 F45.00
G01 X0.1108 Y-49.9586 F45.00
G01 X0.1884 Y-50.0225 F45.00
G01 X0.2720 Y-50.0785 F45.00
G01 X0.3607 Y-50.1260 F45.00
G01 X0.4535 Y-50.1647 F45.00
G01 X0.5498 Y-50.1940 F45.00
G01 X0.6484 Y-50.2137 F45.00
G01 X0.7485 Y-50.2237 F45.00
G01 X0.8000 Y-50.2250 F45.00
G01 X11.2859 Y-50.2250 F45.00
G00 X11.2859 Y-50.2250
G01 F30.00
G01 Z-0.9000
G01 F45.00
G01 X0.8000 Y-50.2250 F45.00
G01 X0.7485 Y-50.2237 F45.00
G01 X0.6484 Y-50.2137 F45.00
G01 X0.5498 Y-50.1940 F45.00
G01 X0.4535 Y-50.1647 F45.00
G01 X0.3607 Y-50.1260 F45.00
G01 X0.2720 Y-50.0785 F45.00
G01 X0.1884 Y-50.0225 F45.00
G01 X0.1108 Y-49.9586 F45.00
G01 X0.0397 Y-49.8874 F45.00
G01 X-0.0240 Y-49.8096 F45.00
G01 X-0.0798 Y-49.7259 F45.00
G01 X-0.1271 Y-49.6371 F45.00
G01 X-0.1655 Y-49.5442 F45.00
G01 X-0.1946 Y-49.4479 F45.00
G01 X-0.2141 Y-49.3492 F45.00
G01 X-0.2238 Y-49.2491 F45.00
G01 X-0.2250 Y-49.2000 F45.00
G01 X-0.2250 Y-38.9125 F45.00
G00 X-0.2250 Y-38.9125
G01 F30.00
G01 Z-1.2000
G01 F45.00
G01 X-0.2250 Y-49.2000 F45.00
G01 X-0.2238 Y-49.2491 F45.00
G01 X-0.2141 Y-49.3492 F45.00
G01 X-0.1946 Y-49.4479 F45.00
G01 X-0.1655 Y-49.5442 F45.00
G01 X-0.1271 Y-49.6371 F45.00
G01 X-0.0798 Y-49.7259 F45.00
G01 X-0.0240 Y-49.8096 F45.00
G01 X0.0397 Y-49.8874 F45.00
G01 X0.1108 Y-49.9586 F45.00
G01 X0.1884 Y-50.0225 F45.00
G01 X0.2720 Y-50.0785 F45.00
G01 X0.3607 Y-50.1260 F45.00
G01 X0.4535 Y-50.1647 F45.00
G01 X0.5498 Y-50.1940 F45.00
G01 X0.6484 Y-50.2137 F45.00
G01 X0.7485 Y-50.2237 F45.00
G01 X0.8000 Y-50.2250 F45.00
G01 X11.2859 Y-50.2250 F45.00
G00 X11.2859 Y-50.2250
G01 F30.00
G01 Z-1.5000
G01 F45.00
G01 X0.8000 Y-50.2250 F45.00
G01 X0.7485 Y-50.2237 F45.00
G01 X0.6484 Y-50.2137 F45.00
G01 X0.5498 Y-50.1940 F45.00
G01 X0.4535 Y-50.1647 F45.00
G01 X0.3607 Y-50.1260 F45.00
G01 X0.2720 Y-50.0785 F45.00
G01 X0.1884 Y-50.0225 F45.00
G01 X0.1108 Y-49.9586 F45.00
G01 X0.0397 Y-49.8874 F45.00
G01 X-0.0240 Y-49.8096 F45.00
G01 X-0.0798 Y-49.7259 F45.00
G01 X-0.1271 Y-49.6371 F45.00
G01 X-0.1655 Y-49.5442 F45.00
G01 X-0.1946 Y-49.4479 F45.00
G01 X-0.2141 Y-49.3492 F45.00
G01 X-0.2238 Y-49.2491 F45.00
G01 X-0.2250 Y-49.2000 F45.00
G01 X-0.2250 Y-38.9125 F45.00
G00 X-0.2250 Y-38.9125
G01 F30.00
G01 Z-1.8000
G01 F45.00
G01 X-0.2250 Y-49.2000 F45.00
G01 X-0.2238 Y-49.2491 F45.00
G01 X-0.2141 Y-49.3492 F45.00
G01 X-0.1946 Y-49.4479 F45.00
G01 X-0.1655 Y-49.5442 F45.00
G01 X-0.1271 Y-49.6371 F45.00
G01 X-0.0798 Y-49.7259 F45.00
G01 X-0.0240 Y-49.8096 F45.00
G01 X0.0397 Y-49.8874 F45.00
G01 X0.1108 Y-49.9586 F45.00
G01 X0.1884 Y-50.0225 F45.00
G01 X0.2720 Y-50.0785 F45.00
G01 X0.3607 Y-50.1260 F45.00
G01 X0.4535 Y-50.1647 F45.00
G01 X0.5498 Y-50.1940 F45.00
G01 X0.6484 Y-50.2137 F45.00
G01 X0.7485 Y-50.2237 F45.00
G01 X0.8000 Y-50.2250 F45.00
G01 X11.2859 Y-50.2250 F45.00
G00 Z2.0000
G00 X-0.2250 Y-36.6125
G01 F30.00
G01 Z-0.3000
G01 F45.00
G01 X-0.2250 Y-30.0000 F45.00
G01 X-0.2237 Y-29.9485 F45.00
G01 X-0.2137 Y-29.8484 F45.00
G01 X-0.1940 Y-29.7498 F45.00
G01 X-0.1647 Y-29.6535 F45.00
G01 X-0.1260 Y-29.5607 F45.00
G01 X-0.0785 Y-29.4720 F45.00
G01 X-0.0240 Y-29.3904 F45.00
G01 X0.0397 Y-29.3126 F45.00
G01 X0.1126 Y-29.2397 F45.00
G01 X0.1904 Y-29.1760 F45.00
G01 X0.2720 Y-29.1215 F45.00
G01 X0.3607 Y-29.0740 F45.00
G01 X0.4558 Y-29.0345 F45.00
G01 X0.5521 Y-29.0054 F45.00
G01 X0.6508 Y-28.9859 F45.00
G01 X0.7485 Y-28.9763 F45.00
G01 X0.8000 Y-28.9750 F45.00
G01 X2.7750 Y-28.9750 F45.00
G01 X2.7750 Y-13.9875 F45.00
G00 X2.7750 Y-13.9875
G01 F30.00
G01 Z-0.6000
G01 F45.00
G01 X2.7750 Y-28.9750 F45.00
G01 X0.8000 Y-28.9750 F45.00
G01 X0.7485 Y-28.9763 F45.00
G01 X0.6508 Y-28.9859 F45.00
G01 X0.5521 Y-29.0054 F45.00
G01 X0.4558 Y-29.0345 F45.00
G01 X0.3607 Y-29.0740 F45.00
G01 X0.2720 Y-29.1215 F45.00
G01 X0.1904 Y-29.1760 F45.00
G01 X0.1126 Y-29.2397 F45.00
G01 X0.0397 Y-29.3126 F45.00
G01 X-0.0240 Y-29.3904 F45.00
G01 X-0.0785 Y-29.4720 F45.00
G01 X-0.1260 Y-29.5607 F45.00
G01 X-0.1647 Y-29.6535 F45.00
G01 X-0.1940 Y-29.7498 F45.00
G01 X-0.2137 Y-29.8484 F45.00
G01 X-0.2237 Y-29.9485 F45.00
G01 X-0.2250 Y-30.0000 F45.00
G01 X-0.2250 Y-36.6125 F45.00
G00 X-0.2250 Y-36.6125
G01 F30.00
G01 Z-0.9000
G01 F45.00
G01 X-0.2250 Y-30.0000 F45.00
G01 X-0.2237 Y-29.9485 F45.00
G01 X-0.2137 Y-29.8484 F45.00
G01 X-0.1940 Y-29.7498 F45.00
G01 X-0.1647 Y-29.6535 F45.00
G01 X-0.1260 Y-29.5607 F45.00
G01 X-0.0785 Y-29.4720 F45.00
G01 X-0.0240 Y-29.3904 F45.00
G01 X0.0397 Y-29.3126 F45.00
G01 X0.1126 Y-29.2397 F45.00
G01 X0.1904 Y-29.1760 F45.00
G01 X0.2720 Y-29.1215 F45.00
G01 X0.3607 Y-29.0740 F45.00
G01 X0.4558 Y-29.0345 F45.00
G01 X0.5521 Y-29.0054 F45.00
G01 X0.6508 Y-28.9859 F45.00
G01 X0.7485 Y-28.9763 F45.00
G01 X0.8000 Y-28.9750 F45.00
G01 X2.7750 Y-28.9750 F45.00
G01 X2.7750 Y-13.9875 F45.00
G00 X2.7750 Y-13.9875
G01 F30.00
G01 Z-1.2000
G01 F45.00
G01 X2.7750 Y-28.9750 F45.00
G01 X0.8000 Y-28.9750 F45.00
G01 X0.7485 Y-28.9763 F45.00
G01 X0.6508 Y-28.9859 F45.00
G01 X0.5521 Y-29.0054 F45.00
G01 X0.4558 Y-29.0345 F45.00
G01 X0.3607 Y-29.0740 F45.00
G01 X0.2720 Y-29.1215 F45.00
G01 X0.1904 Y-29.1760 F45.00
G01 X0.1126 Y-29.2397 F45.00
G01 X0.0397 Y-29.3126 F45.00
G01 X-0.0240 Y-29.3904 F45.00
G01 X-0.0785 Y-29.4720 F45.00
G01 X-0.1260 Y-29.5607 F45.00
G01 X-0.1647 Y-29.6535 F45.00
G01 X-0.1940 Y-29.7498 F45.00
G01 X-0.2137 Y-29.8484 F45.00
G01 X-0.2237 Y-29.9485 F45.00
G01 X-0.2250 Y-30.0000 F45.00
G01 X-0.2250 Y-36.6125 F45.00
G00 X-0.2250 Y-36.6125
G01 F30.00
G01 Z-1.5000
G01 F45.00
G01 X-0.2250 Y-30.0000 F45.00
G01 X-0.2237 Y-29.9485 F45.00
G01 X-0.2137 Y-29.8484 F45.00
G01 X-0.1940 Y-29.7498 F45.00
G01 X-0.1647 Y-29.6535 F45.00
G01 X-0.1260 Y-29.5607 F45.00
G01 X-0.0785 Y-29.4720 F45.00
G01 X-0.0240 Y-29.3904 F45.00
G01 X0.0397 Y-29.3126 F45.00
G01 X0.1126 Y-29.2397 F45.00
G01 X0.1904 Y-29.1760 F45.00
G01 X0.2720 Y-29.1215 F45.00
G01 X0.3607 Y-29.0740 F45.00
G01 X0.4558 Y-29.0345 F45.00
G01 X0.5521 Y-29.0054 F45.00
G01 X0.6508 Y-28.9859 F45.00
G01 X0.7485 Y-28.9763 F45.00
G01 X0.8000 Y-28.9750 F45.00
G01 X2.7750 Y-28.9750 F45.00
G01 X2.7750 Y-13.9875 F45.00
G00 X2.7750 Y-13.9875
G01 F30.00
G01 Z-1.8000
G01 F45.00
G01 X2.7750 Y-28.9750 F45.00
G01 X0.8000 Y-28.9750 F45.00
G01 X0.7485 Y-28.9763 F45.00
G01 X0.6508 Y-28.9859 F45.00
G01 X0.5521 Y-29.0054 F45.00
G01 X0.4558 Y-29.0345 F45.00
G01 X0.3607 Y-29.0740 F45.00
G01 X0.2720 Y-29.1215 F45.00
G01 X0.1904 Y-29.1760 F45.00
G01 X0.1126 Y-29.2397 F45.00
G01 X0.0397 Y-29.3126 F45.00
G01 X-0.0240 Y-29.3904 F45.00
G01 X-0.0785 Y-29.4720 F45.00
G01 X-0.1260 Y-29.5607 F45.00
G01 X-0.1647 Y-29.6535 F45.00
G01 X-0.1940 Y-29.7498 F45.00
G01 X-0.2137 Y-29.8484 F45.00
G01 X-0.2237 Y-29.9485 F45.00
G01 X-0.2250 Y-30.0000 F45.00
G01 X-0.2250 Y-36.6125 F45.00
G00 Z2.0000
M05
G00 Z2.0000
G00 Z15.00
G00 X0.0 Y0.0


